; generated by PrusaSlicer 2.9.1 on 2026-02-14 at 04:47:25 UTC

; 

; external perimeters extrusion width = 0.45mm
; perimeters extrusion width = 0.45mm
; infill extrusion width = 0.45mm
; solid infill extrusion width = 0.45mm
; top infill extrusion width = 0.40mm
; first layer extrusion width = 0.45mm

;TYPE:Custom
;Elegoo Centauri Carbon - Start G-code
M140 S80 ; set bed temp
M104 S150 ; preheat nozzle to 150 (prevent ooze)
G28 ; home all axes
G29 ; auto bed leveling (if configured in Klipper)
M190 S80 ; wait for bed temp
G1 Z5 F3000 ; move nozzle up
M109 S240 ; wait for nozzle temp
; Prime line
G92 E0
G1 X5 Y5 F3000
G1 Z0.3 F1500
G1 X5 Y150 E15 F1500 ; draw prime line
G1 X5.4 Y150 F5000
G1 X5.4 Y5 E30 F1500 ; draw second prime line
G92 E0
G1 Z2 F3000 ; lift nozzle
;End of start G-code
G21 ; set units to millimeters
G90 ; use absolute coordinates
M83 ; use relative distances for extrusion
; Filament gcode
M107
;LAYER_CHANGE
;Z:0.2
;HEIGHT:0.2
G1 E-.8 F2100
G1 Z.6 F9000
G1 X99.321 Y83.339
G1 Z.2
G1 E.8 F2100
;TYPE:Skirt/Brim
;WIDTH:0.45
G1 F1500
G1 X101.009 Y82.211 E.06528
G1 X103 Y81.816 E.06527
G1 X153 Y81.816 E1.60782
G1 X154.991 Y82.212 E.06528
G1 X156.68 Y83.34 E.06531
G1 X157.808 Y85.028 E.06528
G1 X158.204 Y87.019 E.06528
G1 X158.204 Y93.019 E.19294
G1 X157.807 Y95.011 E.06532
G1 X156.679 Y96.699 E.06528
G1 X154.991 Y97.827 E.06528
G1 X153 Y98.223 E.06528
G1 X103 Y98.223 E1.60782
G1 X101.009 Y97.826 E.06528
G1 X99.32 Y96.698 E.06531
G1 X98.192 Y95.01 E.06528
G1 X97.796 Y93.019 E.06528
G1 X97.796 Y87.019 E.19294
G1 X98.193 Y85.028 E.06528
G1 X99.287 Y83.389 E.06337
G1 E-.8 F2100
G1 Z.6 F9000
G1 X151.761 Y91.78
G1 Z.2
G1 E.8 F2100
;TYPE:Perimeter
;WIDTH:0.449999
G1 F1500
G1 X104.239 Y91.78 E1.52813
G1 X104.239 Y88.258 E.11325
G1 X151.761 Y88.258 E1.52813
G1 X151.761 Y90.019 E.05663
G1 X151.761 Y91.72 E.0547
G1 X152.168 Y92.187 F9000
G1 F1500
G1 X103.832 Y92.187 E1.55431
G1 X103.832 Y87.851 E.13943
G1 X152.168 Y87.851 E1.55431
G1 X152.168 Y90.019 E.06971
G1 X152.168 Y92.127 E.06779
G1 X152.575 Y92.594 F9000
;TYPE:External perimeter
G1 F1500
G1 X103.425 Y92.594 E1.58048
G1 X103.425 Y87.444 E.16561
G1 X152.575 Y87.444 E1.58048
G1 X152.575 Y90.019 E.0828
G1 X152.575 Y92.534 E.08087
G1 X152.179 Y92.593 F9000
G1 E-.8 F2100
G1 Z.6 F9000
G1 X151.639 Y89.213
G1 Z.2
G1 E.8 F2100
;TYPE:Solid infill
;WIDTH:0.454474
G1 F1500
G1 X150.99 Y88.564 E.02984
G1 X150.407 Y88.564 E.01895
G1 X151.456 Y89.612 E.04821
G1 X151.456 Y90.194 E.01892
G1 X149.825 Y88.564 E.07496
G1 X149.243 Y88.564 E.01892
G1 X151.456 Y90.776 E.10172
G1 X151.456 Y91.358 E.01892
G1 X148.661 Y88.564 E.12848
G1 X148.079 Y88.564 E.01892
G1 X150.99 Y91.475 E.13384
G1 X150.408 Y91.475 E.01892
G1 X147.497 Y88.564 E.13384
G1 X146.915 Y88.564 E.01892
G1 X149.826 Y91.475 E.13384
G1 X149.244 Y91.475 E.01892
G1 X146.333 Y88.564 E.13384
G1 X145.751 Y88.564 E.01892
G1 X148.662 Y91.475 E.13384
G1 X148.08 Y91.475 E.01892
G1 X145.169 Y88.564 E.13384
G1 X144.587 Y88.564 E.01892
G1 X147.498 Y91.475 E.13384
G1 X146.916 Y91.475 E.01892
G1 X144.005 Y88.564 E.13384
G1 X143.423 Y88.564 E.01892
G1 X146.334 Y91.475 E.13384
G1 X145.752 Y91.475 E.01892
G1 X142.841 Y88.564 E.13384
G1 X142.259 Y88.564 E.01892
G1 X145.17 Y91.475 E.13384
G1 X144.588 Y91.475 E.01892
G1 X141.677 Y88.564 E.13384
G1 X141.095 Y88.564 E.01892
G1 X144.006 Y91.475 E.13384
G1 X143.424 Y91.475 E.01892
G1 X140.513 Y88.564 E.13384
G1 X139.931 Y88.564 E.01892
G1 X142.842 Y91.475 E.13384
G1 X142.26 Y91.475 E.01892
G1 X139.349 Y88.564 E.13384
G1 X138.767 Y88.564 E.01892
G1 X141.678 Y91.475 E.13384
G1 X141.096 Y91.475 E.01892
G1 X138.185 Y88.564 E.13384
G1 X137.603 Y88.564 E.01892
G1 X140.514 Y91.475 E.13384
G1 X139.932 Y91.475 E.01892
G1 X137.021 Y88.564 E.13384
G1 X136.439 Y88.564 E.01892
G1 X139.35 Y91.475 E.13384
G1 X138.768 Y91.475 E.01892
G1 X135.857 Y88.564 E.13384
G1 X135.275 Y88.564 E.01892
G1 X138.186 Y91.475 E.13384
G1 X137.604 Y91.475 E.01892
G1 X134.693 Y88.564 E.13384
G1 X134.111 Y88.564 E.01892
G1 X137.022 Y91.475 E.13384
G1 X136.44 Y91.475 E.01892
G1 X133.529 Y88.564 E.13384
G1 X132.947 Y88.564 E.01892
G1 X135.858 Y91.475 E.13384
G1 X135.276 Y91.475 E.01892
G1 X132.365 Y88.564 E.13384
G1 X131.783 Y88.564 E.01892
G1 X134.694 Y91.475 E.13384
G1 X134.112 Y91.475 E.01892
G1 X131.201 Y88.564 E.13384
G1 X130.619 Y88.564 E.01892
G1 X133.53 Y91.475 E.13384
G1 X132.948 Y91.475 E.01892
G1 X130.037 Y88.564 E.13384
G1 X129.455 Y88.564 E.01892
G1 X132.366 Y91.475 E.13384
G1 X131.784 Y91.475 E.01892
G1 X128.873 Y88.564 E.13384
G1 X128.291 Y88.564 E.01892
G1 X131.202 Y91.475 E.13384
G1 X130.62 Y91.475 E.01892
G1 X127.708 Y88.564 E.13386
G1 X127.126 Y88.564 E.01892
G1 X130.038 Y91.475 E.13386
G1 X129.456 Y91.475 E.01892
G1 X126.544 Y88.564 E.13386
G1 X125.962 Y88.564 E.01892
G1 X128.873 Y91.475 E.13384
G1 X128.291 Y91.475 E.01892
G1 X125.38 Y88.564 E.13384
G1 X124.798 Y88.564 E.01892
G1 X127.709 Y91.475 E.13384
G1 X127.127 Y91.475 E.01892
G1 X124.216 Y88.564 E.13384
G1 X123.634 Y88.564 E.01892
G1 X126.545 Y91.475 E.13384
G1 X125.963 Y91.475 E.01892
G1 X123.052 Y88.564 E.13384
G1 X122.47 Y88.564 E.01892
G1 X125.381 Y91.475 E.13384
G1 X124.799 Y91.475 E.01892
G1 X121.888 Y88.564 E.13384
G1 X121.306 Y88.564 E.01892
G1 X124.217 Y91.475 E.13384
G1 X123.635 Y91.475 E.01892
G1 X120.724 Y88.564 E.13384
G1 X120.142 Y88.564 E.01892
G1 X123.053 Y91.475 E.13384
G1 X122.471 Y91.475 E.01892
G1 X119.56 Y88.564 E.13384
G1 X118.978 Y88.564 E.01892
G1 X121.889 Y91.475 E.13384
G1 X121.307 Y91.475 E.01892
G1 X118.396 Y88.564 E.13384
G1 X117.814 Y88.564 E.01892
G1 X120.725 Y91.475 E.13384
G1 X120.143 Y91.475 E.01892
G1 X117.232 Y88.564 E.13384
G1 X116.65 Y88.564 E.01892
G1 X119.561 Y91.475 E.13384
G1 X118.979 Y91.475 E.01892
G1 X116.068 Y88.564 E.13384
G1 X115.486 Y88.564 E.01892
G1 X118.397 Y91.475 E.13384
G1 X117.815 Y91.475 E.01892
G1 X114.904 Y88.564 E.13384
G1 X114.322 Y88.564 E.01892
G1 X117.233 Y91.475 E.13384
G1 X116.651 Y91.475 E.01892
G1 X113.74 Y88.564 E.13384
G1 X113.158 Y88.564 E.01892
G1 X116.069 Y91.475 E.13384
G1 X115.487 Y91.475 E.01892
G1 X112.576 Y88.564 E.13384
G1 X111.994 Y88.564 E.01892
G1 X114.905 Y91.475 E.13384
G1 X114.323 Y91.475 E.01892
G1 X111.412 Y88.564 E.13384
G1 X110.83 Y88.564 E.01892
G1 X113.741 Y91.475 E.13384
G1 X113.159 Y91.475 E.01892
G1 X110.248 Y88.564 E.13384
G1 X109.666 Y88.564 E.01892
G1 X112.577 Y91.475 E.13384
G1 X111.995 Y91.475 E.01892
G1 X109.084 Y88.564 E.13384
G1 X108.502 Y88.564 E.01892
G1 X111.413 Y91.475 E.13384
G1 X110.831 Y91.475 E.01892
G1 X107.92 Y88.564 E.13384
G1 X107.338 Y88.564 E.01892
G1 X110.249 Y91.475 E.13384
G1 X109.667 Y91.475 E.01892
G1 X106.756 Y88.564 E.13384
G1 X106.174 Y88.564 E.01892
G1 X109.085 Y91.475 E.13384
G1 X108.503 Y91.475 E.01892
G1 X105.592 Y88.564 E.13384
G1 X105.01 Y88.564 E.01892
G1 X107.921 Y91.475 E.13384
G1 X107.339 Y91.475 E.01892
G1 X104.544 Y88.681 E.12848
G1 X104.544 Y89.263 E.01892
G1 X106.757 Y91.475 E.10172
G1 X106.175 Y91.475 E.01892
G1 X104.544 Y89.845 E.07496
G1 X104.544 Y90.427 E.01892
G1 X105.592 Y91.475 E.04818
G1 X105.01 Y91.475 E.01892
G1 X104.361 Y90.825 E.02986
;LAYER_CHANGE
;Z:0.4
;HEIGHT:0.2
;BEFORE_LAYER_CHANGE
;0.4

G1 E-.8 F2100
G1 Z.4 F9000
;AFTER_LAYER_CHANGE
;0.4

M104 S235 ; set temperature
M140 S75 ; set bed temperature
G1 Z.8
G1 X151.961 Y91.98
G1 Z.4
G1 E.8 F2100
;TYPE:Perimeter
;WIDTH:0.449999
G1 F3600
G1 X104.039 Y91.98 E1.541
G1 X104.039 Y88.058 E.12612
G1 X151.961 Y88.058 E1.541
G1 X151.961 Y90.019 E.06306
G1 X151.961 Y91.92 E.06113
G1 X152.368 Y92.387 F9000
G1 F3600
G1 X103.632 Y92.387 E1.56717
G1 X103.632 Y87.651 E.15229
G1 X152.368 Y87.651 E1.56717
G1 X152.368 Y90.019 E.07615
G1 X152.368 Y92.327 E.07422
G1 X152.775 Y92.794 F9000
;TYPE:External perimeter
G1 F1800
G1 X103.225 Y92.794 E1.59335
G1 X103.225 Y87.244 E.17847
G1 X152.775 Y87.244 E1.59335
G1 X152.775 Y90.019 E.08923
G1 X152.775 Y92.734 E.0873
G1 X152.379 Y92.793 F9000
G1 E-.8 F2100
G1 Z.8 F9000
G1 X104.455 Y88.397
G1 Z.4
G1 E.8 F2100
;TYPE:Solid infill
;WIDTH:0.548766
G1 F3600
G1 X104.41 Y88.352 E.00254
G1 X104.349 Y88.368 E.00252
G1 X104.333 Y88.429 E.00252
G1 X104.377 Y88.474 E.00251
G1 X104.439 Y88.458 E.00256
;WIDTH:0.449999
G1 X105.089 Y88.364 E.02112
G1 X104.278 Y89.18 E.03699
;WIDTH:0.41646
G1 X104.212 Y89.253 E.0029
;WIDTH:0.38292
G1 X104.141 Y89.234 E.00197
G1 X104.16 Y89.305 E.00197
G1 X104.201 Y89.294 E.00114
;WIDTH:0.449999
G1 X104.344 Y89.684 E.01336
G1 X105.664 Y88.364 E.06003
G1 X106.24 Y88.364 E.01852
G1 X104.344 Y90.259 E.0862
G1 X104.344 Y90.835 E.01852
G1 X106.816 Y88.364 E.11239
G1 X107.392 Y88.364 E.01852
G1 X104.344 Y91.411 E.13859
G1 X104.322 Y91.58 E.00548
;WIDTH:0.41646
G1 X104.3 Y91.749 E.00503
;WIDTH:0.38292
G1 X104.229 Y91.73 E.00197
G1 X104.248 Y91.801 E.00197
G1 X104.289 Y91.79 E.00114
;WIDTH:0.449999
G1 X104.656 Y91.675 E.01237
G1 X107.967 Y88.364 E.15057
G1 X108.543 Y88.364 E.01852
G1 X105.232 Y91.675 E.15057
G1 X105.808 Y91.675 E.01852
G1 X109.119 Y88.364 E.15057
G1 X109.694 Y88.364 E.01849
G1 X106.383 Y91.675 E.15057
G1 X106.959 Y91.675 E.01852
G1 X110.27 Y88.364 E.15057
G1 X110.846 Y88.364 E.01852
G1 X107.535 Y91.675 E.15057
G1 X108.11 Y91.675 E.01849
G1 X111.421 Y88.364 E.15057
G1 X111.997 Y88.364 E.01852
G1 X108.686 Y91.675 E.15057
G1 X109.262 Y91.675 E.01852
G1 X112.573 Y88.364 E.15057
G1 X113.149 Y88.364 E.01852
G1 X109.837 Y91.675 E.15059
G1 X110.413 Y91.675 E.01852
G1 X113.724 Y88.364 E.15057
G1 X114.3 Y88.364 E.01852
G1 X110.989 Y91.675 E.15057
G1 X111.565 Y91.675 E.01852
G1 X114.876 Y88.364 E.15057
G1 X115.451 Y88.364 E.01849
G1 X112.14 Y91.675 E.15057
G1 X112.716 Y91.675 E.01852
G1 X116.027 Y88.364 E.15057
G1 X116.603 Y88.364 E.01852
G1 X113.292 Y91.675 E.15057
G1 X113.867 Y91.675 E.01849
G1 X117.178 Y88.364 E.15057
G1 X117.754 Y88.364 E.01852
G1 X114.443 Y91.675 E.15057
G1 X115.019 Y91.675 E.01852
G1 X118.33 Y88.364 E.15057
G1 X118.906 Y88.364 E.01852
G1 X115.594 Y91.675 E.15059
G1 X116.17 Y91.675 E.01852
G1 X119.481 Y88.364 E.15057
G1 X120.057 Y88.364 E.01852
G1 X116.746 Y91.675 E.15057
G1 X117.322 Y91.675 E.01852
G1 X120.633 Y88.364 E.15057
G1 X121.208 Y88.364 E.01849
G1 X117.897 Y91.675 E.15057
G1 X118.473 Y91.675 E.01852
G1 X121.784 Y88.364 E.15057
G1 X122.36 Y88.364 E.01852
G1 X119.049 Y91.675 E.15057
G1 X119.624 Y91.675 E.01849
G1 X122.935 Y88.364 E.15057
G1 X123.511 Y88.364 E.01852
G1 X120.2 Y91.675 E.15057
G1 X120.776 Y91.675 E.01852
G1 X124.087 Y88.364 E.15057
G1 X124.662 Y88.364 E.01849
G1 X121.351 Y91.675 E.15057
G1 X121.927 Y91.675 E.01852
G1 X125.238 Y88.364 E.15057
G1 X125.814 Y88.364 E.01852
G1 X122.503 Y91.675 E.15057
G1 X123.078 Y91.675 E.01849
G1 X126.39 Y88.364 E.15059
G1 X126.965 Y88.364 E.01849
G1 X123.654 Y91.675 E.15057
G1 X124.23 Y91.675 E.01852
G1 X127.541 Y88.364 E.15057
G1 X128.117 Y88.364 E.01852
G1 X124.806 Y91.675 E.15057
G1 X125.381 Y91.675 E.01849
G1 X128.692 Y88.364 E.15057
G1 X129.268 Y88.364 E.01852
G1 X125.957 Y91.675 E.15057
G1 X126.533 Y91.675 E.01852
G1 X129.844 Y88.364 E.15057
G1 X130.419 Y88.364 E.01849
G1 X127.108 Y91.675 E.15057
G1 X127.684 Y91.675 E.01852
G1 X130.995 Y88.364 E.15057
G1 X131.571 Y88.364 E.01852
G1 X128.26 Y91.675 E.15057
G1 X128.835 Y91.675 E.01849
G1 X132.147 Y88.364 E.15059
G1 X132.722 Y88.364 E.01849
G1 X129.411 Y91.675 E.15057
G1 X129.987 Y91.675 E.01852
G1 X133.298 Y88.364 E.15057
G1 X133.874 Y88.364 E.01852
G1 X130.563 Y91.675 E.15057
G1 X131.138 Y91.675 E.01849
G1 X134.449 Y88.364 E.15057
G1 X135.025 Y88.364 E.01852
G1 X131.714 Y91.675 E.15057
G1 X132.29 Y91.675 E.01852
G1 X135.601 Y88.364 E.15057
G1 X136.176 Y88.364 E.01849
G1 X132.865 Y91.675 E.15057
G1 X133.441 Y91.675 E.01852
G1 X136.752 Y88.364 E.15057
G1 X137.328 Y88.364 E.01852
G1 X134.017 Y91.675 E.15057
G1 X134.592 Y91.675 E.01849
G1 X137.903 Y88.364 E.15057
G1 X138.479 Y88.364 E.01852
G1 X135.168 Y91.675 E.15057
G1 X135.744 Y91.675 E.01852
G1 X139.055 Y88.364 E.15057
G1 X139.631 Y88.364 E.01852
G1 X136.32 Y91.675 E.15057
G1 X136.895 Y91.675 E.01849
G1 X140.206 Y88.364 E.15057
G1 X140.782 Y88.364 E.01852
G1 X137.471 Y91.675 E.15057
G1 X138.047 Y91.675 E.01852
G1 X141.358 Y88.364 E.15057
G1 X141.933 Y88.364 E.01849
G1 X138.622 Y91.675 E.15057
G1 X139.198 Y91.675 E.01852
G1 X142.509 Y88.364 E.15057
G1 X143.085 Y88.364 E.01852
G1 X139.774 Y91.675 E.15057
G1 X140.349 Y91.675 E.01849
G1 X143.66 Y88.364 E.15057
G1 X144.236 Y88.364 E.01852
G1 X140.925 Y91.675 E.15057
G1 X141.501 Y91.675 E.01852
G1 X144.812 Y88.364 E.15057
G1 X145.388 Y88.364 E.01852
G1 X142.076 Y91.675 E.15059
G1 X142.652 Y91.675 E.01852
G1 X145.963 Y88.364 E.15057
G1 X146.539 Y88.364 E.01852
G1 X143.228 Y91.675 E.15057
G1 X143.804 Y91.675 E.01852
G1 X147.115 Y88.364 E.15057
G1 X147.69 Y88.364 E.01849
G1 X144.379 Y91.675 E.15057
G1 X144.955 Y91.675 E.01852
G1 X148.266 Y88.364 E.15057
G1 X148.842 Y88.364 E.01852
G1 X145.531 Y91.675 E.15057
G1 X146.106 Y91.675 E.01849
G1 X149.417 Y88.364 E.15057
G1 X149.993 Y88.364 E.01852
G1 X146.682 Y91.675 E.15057
G1 X147.258 Y91.675 E.01852
G1 X150.569 Y88.364 E.15057
G1 X151.145 Y88.364 E.01852
G1 X147.833 Y91.675 E.15059
G1 X148.409 Y91.675 E.01852
G1 X151.656 Y88.428 E.14766
G1 X151.726 Y88.325 E.004
;WIDTH:0.41646
G1 X151.797 Y88.222 E.00369
;WIDTH:0.38292
G1 X151.618 Y88.21 E.00482
;WIDTH:0.449999
G1 X151.656 Y89.004 E.02556
G1 X148.985 Y91.675 E.12147
G1 X149.561 Y91.675 E.01852
G1 X151.656 Y89.58 E.09527
G1 X151.757 Y89.517 E.00383
;WIDTH:0.41646
G1 X151.859 Y89.453 E.00355
;WIDTH:0.38292
G1 X151.818 Y89.464 E.00114
G1 X151.799 Y89.393 E.00197
G1 X151.87 Y89.412 E.00197
;WIDTH:0.449999
G1 X151.656 Y90.155 E.02486
G1 X151.656 Y91.675 E.04888
G1 X150.136 Y91.675 E.04888
G1 X151.512 Y90.299 E.06257
G1 X151.269 Y91.214 F9000
;WIDTH:0.525816
G1 F3600
G1 X151.226 Y91.171 E.00232
G1 X151.168 Y91.187 E.0023
G1 X151.152 Y91.245 E.0023
G1 X151.195 Y91.288 E.00232
G1 X151.253 Y91.272 E.0023
;LAYER_CHANGE
;Z:0.6
;HEIGHT:0.2
;BEFORE_LAYER_CHANGE
;0.6

G1 Z.6 F9000
;AFTER_LAYER_CHANGE
;0.6

G1 Z.6
G1 X151.961 Y91.98
;TYPE:Perimeter
;WIDTH:0.449999
G1 F3577
G1 X104.039 Y91.98 E1.541
G1 X104.039 Y88.058 E.12612
G1 X151.961 Y88.058 E1.541
G1 X151.961 Y90.019 E.06306
G1 X151.961 Y91.92 E.06113
G1 X152.368 Y92.387 F9000
G1 F3577
G1 X103.632 Y92.387 E1.56717
G1 X103.632 Y87.651 E.15229
G1 X152.368 Y87.651 E1.56717
G1 X152.368 Y90.019 E.07615
G1 X152.368 Y92.327 E.07422
G1 X152.775 Y92.794 F9000
;TYPE:External perimeter
G1 F1800
G1 X103.225 Y92.794 E1.59335
G1 X103.225 Y87.244 E.17847
G1 X152.775 Y87.244 E1.59335
G1 X152.775 Y90.019 E.08923
G1 X152.775 Y92.734 E.0873
G1 X152.379 Y92.793 F9000
G1 E-.8 F2100
G1 Z1 F9000
G1 X104.377 Y91.564
G1 Z.6
G1 E.8 F2100
;TYPE:Solid infill
;WIDTH:0.548766
G1 F3577
G1 X104.333 Y91.609 E.00251
G1 X104.349 Y91.67 E.00252
G1 X104.41 Y91.686 E.00252
G1 X104.455 Y91.642 E.00251
G1 X104.439 Y91.581 E.00252
;WIDTH:0.449999
G1 X105.089 Y91.675 E.02112
G1 X104.344 Y90.93 E.03388
G1 X104.273 Y90.837 E.00376
;WIDTH:0.41646
G1 X104.201 Y90.744 E.00347
;WIDTH:0.38292
G1 X104.212 Y90.785 E.00114
G1 X104.141 Y90.804 E.00197
G1 X104.16 Y90.733 E.00197
;WIDTH:0.449999
G1 X104.344 Y90.355 E.01352
G1 X105.664 Y91.675 E.06003
G1 X106.24 Y91.675 E.01852
G1 X104.344 Y89.779 E.08622
G1 X104.344 Y89.203 E.01852
G1 X106.816 Y91.675 E.11242
G1 X107.392 Y91.675 E.01852
G1 X104.344 Y88.628 E.13859
G1 X104.656 Y88.364 E.01314
G1 X107.967 Y91.675 E.15057
G1 X108.543 Y91.675 E.01852
G1 X105.232 Y88.364 E.15057
G1 X105.808 Y88.364 E.01852
G1 X109.119 Y91.675 E.15057
G1 X109.694 Y91.675 E.01849
G1 X106.383 Y88.364 E.15057
G1 X106.959 Y88.364 E.01852
G1 X110.27 Y91.675 E.15057
G1 X110.846 Y91.675 E.01852
G1 X107.535 Y88.364 E.15057
G1 X108.11 Y88.364 E.01849
G1 X111.421 Y91.675 E.15057
G1 X111.997 Y91.675 E.01852
G1 X108.686 Y88.364 E.15057
G1 X109.262 Y88.364 E.01852
G1 X112.573 Y91.675 E.15057
G1 X113.149 Y91.675 E.01852
G1 X109.837 Y88.364 E.15059
G1 X110.413 Y88.364 E.01852
G1 X113.724 Y91.675 E.15057
G1 X114.3 Y91.675 E.01852
G1 X110.989 Y88.364 E.15057
G1 X111.565 Y88.364 E.01852
G1 X114.876 Y91.675 E.15057
G1 X115.451 Y91.675 E.01849
G1 X112.14 Y88.364 E.15057
