; generated by PrusaSlicer 2.9.1 on 2026-02-14 at 04:27:32 UTC

; 

; external perimeters extrusion width = 0.45mm
; perimeters extrusion width = 0.45mm
; infill extrusion width = 0.45mm
; solid infill extrusion width = 0.45mm
; top infill extrusion width = 0.40mm
; first layer extrusion width = 0.45mm

;TYPE:Custom
;Elegoo Centauri Carbon - Start G-code
M140 S80 ; set bed temp
M104 S150 ; preheat nozzle to 150 (prevent ooze)
G28 ; home all axes
G29 ; auto bed leveling (if configured in Klipper)
M190 S80 ; wait for bed temp
G1 Z5 F3000 ; move nozzle up
M109 S240 ; wait for nozzle temp
; Prime line
G92 E0
G1 X5 Y5 F3000
G1 Z0.3 F1500
G1 X5 Y150 E15 F1500 ; draw prime line
G1 X5.4 Y150 F5000
G1 X5.4 Y5 E30 F1500 ; draw second prime line
G92 E0
G1 Z2 F3000 ; lift nozzle
;End of start G-code
G21 ; set units to millimeters
G90 ; use absolute coordinates
M83 ; use relative distances for extrusion
; Filament gcode
M107
;LAYER_CHANGE
;Z:0.2
;HEIGHT:0.2
G1 E-.8 F2100
G1 Z.6 F9000
G1 X96.029 Y96.028
G1 Z.2
G1 E.8 F2100
;TYPE:Skirt/Brim
;WIDTH:0.45
G1 F1500
G1 X97.717 Y94.9 E.06528
G1 X126.009 Y83.181 E.98473
G1 X128 Y82.785 E.06528
G1 X129.991 Y83.181 E.06528
G1 X158.283 Y94.9 E.98473
G1 X159.972 Y96.029 E.06533
G1 X161.1 Y97.717 E.06528
G1 X172.819 Y126.009 E.98473
G1 X173.215 Y128 E.06528
G1 X172.819 Y129.991 E.06528
G1 X161.1 Y158.283 E.98473
G1 X159.971 Y159.972 E.06533
G1 X158.283 Y161.1 E.06528
G1 X129.991 Y172.819 E.98473
G1 X128 Y173.215 E.06528
G1 X126.009 Y172.819 E.06528
G1 X97.717 Y161.1 E.98473
G1 X96.028 Y159.971 E.06533
G1 X94.9 Y158.283 E.06528
G1 X83.181 Y129.991 E.98473
G1 X82.785 Y128 E.06528
G1 X83.181 Y126.009 E.06528
G1 X94.9 Y97.717 E.98473
G1 X95.995 Y96.078 E.06338
G1 E-.8 F2100
G1 Z.6 F9000
G1 X128 Y89.33
G1 Z.2
G1 E.8 F2100
;TYPE:Perimeter
;WIDTH:0.449999
G1 F1500
G1 X155.344 Y100.656 E.95173
G1 X166.67 Y128 E.95173
G1 X161.007 Y141.672 E.47586
G1 X155.344 Y155.344 E.47586
G1 X128 Y166.67 E.95173
G1 X100.656 Y155.344 E.95173
G1 X89.33 Y128 E.95173
G1 X100.656 Y100.656 E.95173
G1 X127.945 Y89.353 E.94981
G1 X128 Y88.89 F9000
G1 F1500
G1 X155.655 Y100.345 E.96255
G1 X167.11 Y128 E.96255
G1 X161.383 Y141.828 E.48128
G1 X155.655 Y155.655 E.48127
G1 X128 Y167.11 E.96255
G1 X100.345 Y155.655 E.96255
G1 X88.89 Y128 E.96255
G1 X100.345 Y100.345 E.96255
G1 X127.945 Y88.912 E.96065
G1 X128 Y88.449 F9000
;TYPE:External perimeter
G1 F1500
G1 X155.967 Y100.033 E.97341
G1 X167.551 Y128 E.97341
G1 X161.759 Y141.983 E.48669
G1 X155.967 Y155.967 E.48672
G1 X128 Y167.551 E.97341
G1 X100.033 Y155.967 E.97341
G1 X88.449 Y128 E.97341
G1 X100.033 Y100.033 E.97341
G1 X127.945 Y88.472 E.97149
G1 X128.327 Y88.589 F9000
G1 E-.8 F2100
G1 Z.6 F9000
G1 X155.84 Y102.174
G1 Z.2
G1 E.8 F2100
;TYPE:Solid infill
;WIDTH:0.450959
G1 F1500
G1 X154.164 Y100.498 E.0764
G1 X153.179 Y100.09 E.03436
G1 X155.91 Y102.821 E.12449
G1 X156.318 Y103.806 E.03436
G1 X152.194 Y99.682 E.18798
G1 X151.209 Y99.274 E.03436
G1 X156.726 Y104.791 E.25148
G1 X157.134 Y105.776 E.03436
G1 X150.224 Y98.866 E.31498
G1 X149.239 Y98.458 E.03436
G1 X157.542 Y106.761 E.37848
G1 X157.95 Y107.746 E.03436
G1 X148.254 Y98.05 E.44197
G1 X147.269 Y97.642 E.03436
G1 X158.358 Y108.731 E.50547
G1 X158.766 Y109.717 E.03439
G1 X146.283 Y97.234 E.56901
G1 X145.298 Y96.826 E.03436
G1 X159.174 Y110.702 E.63251
G1 X159.582 Y111.687 E.03436
G1 X144.313 Y96.418 E.69601
G1 X143.328 Y96.01 E.03436
G1 X159.99 Y112.672 E.75951
G1 X160.398 Y113.657 E.03436
G1 X142.343 Y95.602 E.823
G1 X141.358 Y95.194 E.03436
G1 X160.806 Y114.642 E.8865
G1 X161.214 Y115.627 E.03436
G1 X140.373 Y94.786 E.95
G1 X139.388 Y94.378 E.03436
G1 X161.622 Y116.612 E1.0135
G1 X162.03 Y117.597 E.03436
G1 X138.403 Y93.97 E1.07699
G1 X137.418 Y93.561 E.03438
G1 X162.439 Y118.582 E1.14054
G1 X162.847 Y119.568 E.03439
G1 X136.432 Y93.153 E1.20408
G1 X135.447 Y92.745 E.03436
G1 X163.255 Y120.553 E1.26758
G1 X163.663 Y121.538 E.03436
G1 X134.462 Y92.337 E1.33107
G1 X133.477 Y91.929 E.03436
G1 X164.071 Y122.523 E1.39457
G1 X164.479 Y123.508 E.03436
G1 X132.492 Y91.521 E1.45807
G1 X131.507 Y91.113 E.03436
G1 X164.887 Y124.493 E1.52157
G1 X165.295 Y125.478 E.03436
G1 X130.522 Y90.705 E1.58506
G1 X129.537 Y90.297 E.03436
G1 X165.703 Y126.463 E1.64856
G1 X166.111 Y127.448 E.03436
G1 X128.552 Y89.889 E1.71206
G1 X128 Y89.661 E.01925
G1 X127.82 Y89.735 E.00627
G1 X166.265 Y128.18 E1.75244
G1 X166.096 Y128.588 E.01423
G1 X127.412 Y89.904 E1.76334
G1 X127.004 Y90.073 E.01423
G1 X165.927 Y128.996 E1.77423
G1 X165.758 Y129.404 E.01423
G1 X126.596 Y90.242 E1.78513
G1 X126.188 Y90.411 E.01423
G1 X165.589 Y129.812 E1.79602
G1 X165.42 Y130.22 E.01423
G1 X125.78 Y90.58 E1.80692
G1 X125.372 Y90.749 E.01423
G1 X165.251 Y130.628 E1.81781
G1 X165.082 Y131.036 E.01423
G1 X124.964 Y90.918 E1.8287
G1 X124.556 Y91.087 E.01423
G1 X164.913 Y131.444 E1.8396
G1 X164.744 Y131.852 E.01423
G1 X124.148 Y91.256 E1.85049
G1 X123.74 Y91.425 E.01423
G1 X164.575 Y132.26 E1.86139
G1 X164.406 Y132.668 E.01423
G1 X123.332 Y91.594 E1.87228
G1 X122.924 Y91.763 E.01423
G1 X164.237 Y133.076 E1.88318
G1 X164.068 Y133.484 E.01423
G1 X122.516 Y91.932 E1.89407
G1 X122.108 Y92.101 E.01423
G1 X163.899 Y133.892 E1.90497
G1 X163.73 Y134.3 E.01423
G1 X121.7 Y92.27 E1.91586
G1 X121.292 Y92.439 E.01423
G1 X163.561 Y134.708 E1.92675
G1 X163.392 Y135.116 E.01423
G1 X120.884 Y92.608 E1.93765
G1 X120.476 Y92.777 E.01423
G1 X163.223 Y135.524 E1.94854
G1 X163.054 Y135.932 E.01423
G1 X120.068 Y92.946 E1.95944
G1 X119.66 Y93.115 E.01423
G1 X162.885 Y136.34 E1.97033
G1 X162.716 Y136.748 E.01423
G1 X119.252 Y93.284 E1.98123
G1 X118.844 Y93.453 E.01423
G1 X162.547 Y137.156 E1.99212
G1 X162.378 Y137.564 E.01423
G1 X118.436 Y93.622 E2.00301
G1 X118.028 Y93.791 E.01423
G1 X162.209 Y137.972 E2.01391
G1 X162.04 Y138.38 E.01423
G1 X117.62 Y93.96 E2.0248
G1 X117.211 Y94.129 E.01426
G1 X161.871 Y138.789 E2.03574
G1 X161.702 Y139.197 E.01423
G1 X116.803 Y94.298 E2.04664
G1 X116.395 Y94.467 E.01423
G1 X161.533 Y139.605 E2.05753
G1 X161.364 Y140.013 E.01423
G1 X115.987 Y94.636 E2.06843
G1 X115.579 Y94.805 E.01423
G1 X161.195 Y140.421 E2.07932
G1 X161.026 Y140.829 E.01423
G1 X115.171 Y94.974 E2.09022
G1 X114.763 Y95.143 E.01423
G1 X160.857 Y141.237 E2.10111
G1 X160.688 Y141.645 E.01423
G1 X114.355 Y95.312 E2.112
G1 X113.947 Y95.481 E.01423
G1 X160.519 Y142.053 E2.1229
G1 X160.35 Y142.461 E.01423
G1 X113.539 Y95.65 E2.13379
G1 X113.131 Y95.82 E.01425
G1 X160.18 Y142.869 E2.14464
G1 X160.011 Y143.277 E.01423
G1 X112.723 Y95.989 E2.15554
G1 X112.315 Y96.158 E.01423
G1 X159.842 Y143.685 E2.16643
G1 X159.673 Y144.093 E.01423
G1 X111.907 Y96.327 E2.17732
G1 X111.499 Y96.496 E.01423
G1 X159.504 Y144.501 E2.18822
G1 X159.335 Y144.909 E.01423
G1 X111.091 Y96.665 E2.19911
G1 X110.683 Y96.834 E.01423
G1 X159.166 Y145.317 E2.21001
G1 X158.997 Y145.725 E.01423
G1 X110.275 Y97.003 E2.2209
G1 X109.867 Y97.172 E.01423
G1 X158.828 Y146.133 E2.2318
G1 X158.659 Y146.541 E.01423
G1 X109.459 Y97.341 E2.24269
G1 X109.051 Y97.51 E.01423
G1 X158.49 Y146.949 E2.25359
G1 X158.321 Y147.357 E.01423
G1 X108.643 Y97.679 E2.26448
G1 X108.235 Y97.848 E.01423
G1 X158.152 Y147.765 E2.27537
G1 X157.983 Y148.173 E.01423
G1 X107.827 Y98.017 E2.28627
G1 X107.419 Y98.186 E.01423
G1 X157.814 Y148.581 E2.29716
G1 X157.645 Y148.989 E.01423
G1 X107.011 Y98.355 E2.30806
G1 X106.602 Y98.524 E.01426
G1 X157.476 Y149.398 E2.319
G1 X157.307 Y149.806 E.01423
G1 X106.194 Y98.693 E2.32989
G1 X105.786 Y98.862 E.01423
G1 X157.138 Y150.214 E2.34079
G1 X156.969 Y150.622 E.01423
G1 X105.378 Y99.031 E2.35168
G1 X104.97 Y99.2 E.01423
G1 X156.8 Y151.03 E2.36257
G1 X156.631 Y151.438 E.01423
G1 X104.562 Y99.369 E2.37347
G1 X104.154 Y99.538 E.01423
G1 X156.462 Y151.846 E2.38436
G1 X156.293 Y152.254 E.01423
G1 X103.746 Y99.707 E2.39526
G1 X103.338 Y99.876 E.01423
G1 X156.124 Y152.662 E2.40615
G1 X155.955 Y153.07 E.01423
G1 X102.93 Y100.045 E2.41705
G1 X102.522 Y100.214 E.01423
G1 X155.786 Y153.478 E2.42794
G1 X155.617 Y153.886 E.01423
G1 X102.114 Y100.383 E2.43883
G1 X101.706 Y100.552 E.01423
G1 X155.448 Y154.294 E2.44973
G1 X155.279 Y154.702 E.01423
G1 X101.298 Y100.721 E2.46062
G1 X100.89 Y100.89 E.01423
G1 X155.11 Y155.11 E2.47152
G1 X154.702 Y155.279 E.01423
G1 X100.721 Y101.298 E2.46062
G1 X100.552 Y101.706 E.01423
G1 X154.294 Y155.448 E2.44973
G1 X153.886 Y155.617 E.01423
G1 X100.383 Y102.114 E2.43883
G1 X100.214 Y102.522 E.01423
G1 X153.478 Y155.786 E2.42794
G1 X153.07 Y155.955 E.01423
G1 X100.045 Y102.93 E2.41705
G1 X99.876 Y103.338 E.01423
G1 X152.662 Y156.124 E2.40615
G1 X152.254 Y156.293 E.01423
G1 X99.707 Y103.746 E2.39526
G1 X99.538 Y104.154 E.01423
G1 X151.846 Y156.462 E2.38436
G1 X151.438 Y156.631 E.01423
G1 X99.369 Y104.562 E2.37347
G1 X99.2 Y104.97 E.01423
G1 X151.03 Y156.8 E2.36257
G1 X150.622 Y156.969 E.01423
G1 X99.031 Y105.378 E2.35168
G1 X98.862 Y105.786 E.01423
G1 X150.214 Y157.138 E2.34079
G1 X149.806 Y157.307 E.01423
G1 X98.693 Y106.194 E2.32989
G1 X98.524 Y106.603 E.01426
G1 X149.397 Y157.476 E2.31895
G1 X148.989 Y157.645 E.01423
G1 X98.355 Y107.011 E2.30806
G1 X98.186 Y107.419 E.01423
G1 X148.581 Y157.814 E2.29716
G1 X148.173 Y157.983 E.01423
G1 X98.017 Y107.827 E2.28627
G1 X97.848 Y108.235 E.01423
G1 X147.765 Y158.152 E2.27537
G1 X147.357 Y158.321 E.01423
G1 X97.679 Y108.643 E2.26448
G1 X97.51 Y109.051 E.01423
G1 X146.949 Y158.49 E2.25359
G1 X146.541 Y158.659 E.01423
G1 X97.341 Y109.459 E2.24269
G1 X97.172 Y109.867 E.01423
G1 X146.133 Y158.828 E2.2318
G1 X145.725 Y158.997 E.01423
G1 X97.003 Y110.275 E2.2209
G1 X96.834 Y110.683 E.01423
G1 X145.317 Y159.166 E2.21001
G1 X144.909 Y159.335 E.01423
G1 X96.665 Y111.091 E2.19911
G1 X96.496 Y111.499 E.01423
G1 X144.501 Y159.504 E2.18822
G1 X144.093 Y159.673 E.01423
G1 X96.327 Y111.907 E2.17732
G1 X96.158 Y112.315 E.01423
G1 X143.685 Y159.842 E2.16643
G1 X143.277 Y160.012 E.01425
G1 X95.989 Y112.723 E2.15556
G1 X95.819 Y113.131 E.01425
G1 X142.869 Y160.181 E2.14469
G1 X142.461 Y160.35 E.01423
G1 X95.65 Y113.539 E2.13379
G1 X95.481 Y113.947 E.01423
G1 X142.053 Y160.519 E2.1229
G1 X141.645 Y160.688 E.01423
G1 X95.312 Y114.355 E2.112
G1 X95.143 Y114.763 E.01423
G1 X141.237 Y160.857 E2.10111
G1 X140.829 Y161.026 E.01423
G1 X94.974 Y115.171 E2.09022
G1 X94.805 Y115.579 E.01423
G1 X140.421 Y161.195 E2.07932
G1 X140.013 Y161.364 E.01423
G1 X94.636 Y115.987 E2.06843
G1 X94.467 Y116.395 E.01423
G1 X139.605 Y161.533 E2.05753
G1 X139.196 Y161.702 E.01426
G1 X94.298 Y116.804 E2.04659
G1 X94.129 Y117.212 E.01423
G1 X138.788 Y161.871 E2.0357
G1 X138.38 Y162.04 E.01423
G1 X93.96 Y117.62 E2.0248
G1 X93.791 Y118.028 E.01423
G1 X137.972 Y162.209 E2.01391
G1 X137.564 Y162.378 E.01423
G1 X93.622 Y118.436 E2.00301
G1 X93.453 Y118.844 E.01423
G1 X137.156 Y162.547 E1.99212
G1 X136.748 Y162.716 E.01423
G1 X93.284 Y119.252 E1.98123
G1 X93.115 Y119.66 E.01423
G1 X136.34 Y162.885 E1.97033
G1 X135.932 Y163.054 E.01423
G1 X92.946 Y120.068 E1.95944
G1 X92.777 Y120.476 E.01423
G1 X135.524 Y163.223 E1.94854
G1 X135.116 Y163.392 E.01423
G1 X92.608 Y120.884 E1.93765
G1 X92.439 Y121.292 E.01423
G1 X134.708 Y163.561 E1.92675
G1 X134.3 Y163.73 E.01423
G1 X92.27 Y121.7 E1.91586
G1 X92.101 Y122.108 E.01423
G1 X133.892 Y163.899 E1.90497
G1 X133.484 Y164.068 E.01423
G1 X91.932 Y122.516 E1.89407
G1 X91.763 Y122.924 E.01423
G1 X133.076 Y164.237 E1.88318
G1 X132.668 Y164.406 E.01423
G1 X91.594 Y123.332 E1.87228
G1 X91.425 Y123.74 E.01423
G1 X132.26 Y164.575 E1.86139
G1 X131.852 Y164.744 E.01423
G1 X91.256 Y124.148 E1.85049
G1 X91.087 Y124.556 E.01423
G1 X131.444 Y164.913 E1.8396
G1 X131.036 Y165.082 E.01423
G1 X90.918 Y124.964 E1.8287
G1 X90.749 Y125.372 E.01423
G1 X130.628 Y165.251 E1.81781
G1 X130.22 Y165.42 E.01423
G1 X90.58 Y125.78 E1.80692
G1 X90.411 Y126.188 E.01423
G1 X129.812 Y165.589 E1.79602
G1 X129.404 Y165.758 E.01423
G1 X90.242 Y126.596 E1.78513
G1 X90.073 Y127.004 E.01423
G1 X128.996 Y165.927 E1.77423
G1 X128.587 Y166.096 E.01426
G1 X89.904 Y127.413 E1.76329
G1 X89.735 Y127.821 E.01423
G1 X128.179 Y166.265 E1.7524
G1 X128 Y166.339 E.00624
G1 X127.448 Y166.111 E.01925
G1 X89.889 Y128.552 E1.71206
G1 X90.297 Y129.537 E.03436
G1 X126.463 Y165.703 E1.64856
G1 X125.478 Y165.295 E.03436
G1 X90.705 Y130.522 E1.58506
G1 X91.113 Y131.507 E.03436
G1 X124.493 Y164.887 E1.52157
G1 X123.508 Y164.479 E.03436
G1 X91.521 Y132.492 E1.45807
G1 X91.929 Y133.477 E.03436
G1 X122.523 Y164.071 E1.39457
G1 X121.538 Y163.663 E.03436
G1 X92.337 Y134.462 E1.33107
G1 X92.745 Y135.448 E.03439
G1 X120.552 Y163.255 E1.26753
G1 X119.567 Y162.846 E.03438
G1 X93.154 Y136.433 E1.20399
G1 X93.562 Y137.418 E.03436
G1 X118.582 Y162.438 E1.14049
G1 X117.597 Y162.03 E.03436
G1 X93.97 Y138.403 E1.07699
G1 X94.378 Y139.388 E.03436
G1 X116.612 Y161.622 E1.0135
G1 X115.627 Y161.214 E.03436
G1 X94.786 Y140.373 E.95
G1 X95.194 Y141.358 E.03436
G1 X114.642 Y160.806 E.8865
G1 X113.657 Y160.398 E.03436
G1 X95.602 Y142.343 E.823
G1 X96.01 Y143.328 E.03436
G1 X112.672 Y159.99 E.75951
G1 X111.687 Y159.582 E.03436
G1 X96.418 Y144.313 E.69601
G1 X96.826 Y145.298 E.03436
G1 X110.702 Y159.174 E.63251
G1 X109.716 Y158.766 E.03439
G1 X97.234 Y146.284 E.56897
G1 X97.642 Y147.269 E.03436
G1 X108.731 Y158.358 E.50547
G1 X107.746 Y157.95 E.03436
G1 X98.05 Y148.254 E.44197
G1 X98.458 Y149.239 E.03436
G1 X106.761 Y157.542 E.37848
G1 X105.776 Y157.134 E.03436
G1 X98.866 Y150.224 E.31498
G1 X99.274 Y151.209 E.03436
G1 X104.791 Y156.726 E.25148
G1 X103.806 Y156.318 E.03436
G1 X99.682 Y152.194 E.18798
G1 X100.09 Y153.179 E.03436
G1 X102.821 Y155.91 E.12449
G1 X101.836 Y155.502 E.03436
G1 X100.16 Y153.826 E.0764
;LAYER_CHANGE
;Z:0.4
;HEIGHT:0.2
;BEFORE_LAYER_CHANGE
;0.4

G1 E-.8 F2100
G1 Z.4 F9000
;AFTER_LAYER_CHANGE
;0.4

M104 S235 ; set temperature
M140 S75 ; set bed temperature
G1 Z.8
G1 X128 Y89.091
G1 Z.4
G1 E.8 F2100
;TYPE:Perimeter
;WIDTH:0.449999
G1 F3600
G1 X155.513 Y100.487 E.95761
G1 X166.909 Y128 E.95761
G1 X161.211 Y141.756 E.47879
G1 X155.513 Y155.513 E.47882
G1 X128 Y166.909 E.95761
G1 X100.487 Y155.513 E.95761
G1 X89.091 Y128 E.95761
G1 X100.487 Y100.487 E.95761
G1 X127.945 Y89.114 E.95569
G1 X128 Y88.651 F9000
G1 F3600
G1 X155.824 Y100.176 E.96843
G1 X167.349 Y128 E.96843
G1 X161.587 Y141.912 E.48421
G1 X155.824 Y155.824 E.48422
G1 X128 Y167.349 E.96843
G1 X100.176 Y155.824 E.96843
G1 X88.651 Y128 E.96843
G1 X100.176 Y100.176 E.96843
G1 X127.945 Y88.674 E.96652
G1 X128 Y88.21 F9000
;TYPE:External perimeter
G1 F1800
G1 X156.136 Y99.864 E.97929
G1 X167.79 Y128 E.97929
G1 X161.963 Y142.068 E.48965
G1 X156.136 Y156.136 E.48965
G1 X128 Y167.79 E.97929
G1 X99.864 Y156.136 E.97929
G1 X88.21 Y128 E.97929
G1 X99.864 Y99.864 E.97929
G1 X127.945 Y88.233 E.97737
G1 X128.327 Y88.35 F9000
G1 E-.8 F2100
G1 Z.8 F9000
G1 X101.498 Y100.331
G1 Z.4
G1 E.8 F2100
;TYPE:Solid infill
;WIDTH:0.38292
G1 F3600
G1 X101.427 Y100.312 E.00197
G1 X101.446 Y100.383 E.00197
G1 X101.487 Y100.372 E.00114
;WIDTH:0.41646
G1 X101.33 Y100.453 E.00521
;WIDTH:0.449999
G1 X101.172 Y100.534 E.00571
G1 X100.534 Y101.172 E.02901
G1 X100.46 Y101.31 E.00504
;WIDTH:0.41646
G1 X100.386 Y101.449 E.00465
;WIDTH:0.38292
G1 X100.315 Y101.43 E.00197
G1 X100.334 Y101.501 E.00197
G1 X100.375 Y101.49 E.00114
G1 X99.979 Y102.432 F9000
G1 F3600
G1 X99.908 Y102.413 E.00197
G1 X99.927 Y102.484 E.00197
G1 X99.968 Y102.473 E.00114
;WIDTH:0.41646
G1 X100.048 Y102.314 E.00525
;WIDTH:0.449999
G1 X100.127 Y102.155 E.00571
G1 X102.155 Y100.127 E.09223
G1 X103.464 Y99.516 F9000
;WIDTH:0.38292
G1 F3600
G1 X103.393 Y99.497 E.00197
G1 X103.412 Y99.568 E.00197
G1 X103.453 Y99.557 E.00114
;WIDTH:0.41646
G1 X103.295 Y99.639 E.00525
;WIDTH:0.449999
G1 X103.138 Y99.72 E.00568
G1 X99.72 Y103.138 E.15544
G1 X99.641 Y103.297 E.00571
;WIDTH:0.41646
G1 X99.561 Y103.456 E.00525
;WIDTH:0.38292
G1 X99.52 Y103.467 E.00114
G1 X99.501 Y103.395 E.002
G1 X99.572 Y103.414 E.00197
G1 X99.154 Y104.438 F9000
G1 F3600
G1 X99.113 Y104.449 E.00114
G1 X99.094 Y104.378 E.00197
G1 X99.165 Y104.397 E.00197
;WIDTH:0.41646
G1 X99.239 Y104.259 E.00462
;WIDTH:0.449999
G1 X99.313 Y104.12 E.00506
G1 X104.12 Y99.313 E.2186
G1 X104.278 Y99.232 E.00571
