; generated by PrusaSlicer 2.9.1 on 2026-02-14 at 04:21:21 UTC

; 

; external perimeters extrusion width = 0.45mm
; perimeters extrusion width = 0.45mm
; infill extrusion width = 0.45mm
; solid infill extrusion width = 0.45mm
; top infill extrusion width = 0.40mm
; first layer extrusion width = 0.45mm

;TYPE:Custom
;Elegoo Centauri Carbon - Start G-code
M140 S80 ; set bed temp
M104 S150 ; preheat nozzle to 150 (prevent ooze)
G28 ; home all axes
G29 ; auto bed leveling (if configured in Klipper)
M190 S80 ; wait for bed temp
G1 Z5 F3000 ; move nozzle up
M109 S240 ; wait for nozzle temp
; Prime line
G92 E0
G1 X5 Y5 F3000
G1 Z0.3 F1500
G1 X5 Y150 E15 F1500 ; draw prime line
G1 X5.4 Y150 F5000
G1 X5.4 Y5 E30 F1500 ; draw second prime line
G92 E0
G1 Z2 F3000 ; lift nozzle
;End of start G-code
G21 ; set units to millimeters
G90 ; use absolute coordinates
M83 ; use relative distances for extrusion
; Filament gcode
M107
;LAYER_CHANGE
;Z:0.2
;HEIGHT:0.2
G1 E-.8 F2100
G1 Z.6 F9000
G1 X114.321 Y114.32
G1 Z.2
G1 E.8 F2100
;TYPE:Skirt/Brim
;WIDTH:0.45
G1 F1500
G1 X116.009 Y113.192 E.06528
G1 X118 Y112.796 E.06528
G1 X138 Y112.796 E.64313
G1 X139.991 Y113.193 E.06528
G1 X141.68 Y114.321 E.06531
G1 X142.808 Y116.009 E.06528
G1 X143.204 Y118 E.06528
G1 X143.204 Y138 E.64313
G1 X142.807 Y139.991 E.06528
G1 X141.679 Y141.68 E.06531
G1 X139.991 Y142.808 E.06528
G1 X138 Y143.204 E.06528
G1 X118 Y143.204 E.64313
G1 X116.009 Y142.807 E.06528
G1 X114.32 Y141.679 E.06531
G1 X113.192 Y139.991 E.06528
G1 X112.796 Y138 E.06528
G1 X112.796 Y118 E.64313
G1 X113.193 Y116.009 E.06528
G1 X114.287 Y114.37 E.06337
G1 E-.8 F2100
G1 Z.6 F9000
G1 X136.761 Y136.761
G1 Z.2
G1 E.8 F2100
;TYPE:Perimeter
;WIDTH:0.449999
G1 F1500
G1 X119.239 Y136.761 E.56344
G1 X119.239 Y119.239 E.56344
G1 X136.761 Y119.239 E.56344
G1 X136.761 Y128 E.28172
G1 X136.761 Y136.701 E.27979
G1 X137.168 Y137.168 F9000
G1 F1500
G1 X118.832 Y137.168 E.58962
G1 X118.832 Y118.832 E.58962
G1 X137.168 Y118.832 E.58962
G1 X137.168 Y128 E.29481
G1 X137.168 Y137.108 E.29288
G1 X137.575 Y137.575 F9000
;TYPE:External perimeter
G1 F1500
G1 X118.425 Y137.575 E.61579
G1 X118.425 Y118.425 E.61579
G1 X137.575 Y118.425 E.61579
G1 X137.575 Y128 E.3079
G1 X137.575 Y137.515 E.30597
G1 X137.179 Y137.574 F9000
G1 E-.8 F2100
G1 Z.6 F9000
G1 X136.639 Y120.187
G1 Z.2
G1 E.8 F2100
;TYPE:Solid infill
;WIDTH:0.451112
G1 F1500
G1 X135.997 Y119.544 E.0293
G1 X135.419 Y119.544 E.01864
G1 X136.456 Y120.581 E.04729
G1 X136.456 Y121.158 E.0186
G1 X134.842 Y119.544 E.0736
G1 X134.265 Y119.544 E.0186
G1 X136.456 Y121.735 E.09991
G1 X136.456 Y122.312 E.0186
G1 X133.688 Y119.544 E.12622
G1 X133.11 Y119.544 E.01864
G1 X136.456 Y122.89 E.15258
G1 X136.456 Y123.467 E.0186
G1 X132.533 Y119.544 E.17889
G1 X131.956 Y119.544 E.0186
G1 X136.456 Y124.044 E.2052
G1 X136.456 Y124.622 E.01864
G1 X131.378 Y119.544 E.23156
G1 X130.801 Y119.544 E.0186
G1 X136.456 Y125.199 E.25787
G1 X136.456 Y125.776 E.0186
G1 X130.224 Y119.544 E.28418
G1 X129.647 Y119.544 E.0186
G1 X136.456 Y126.353 E.31049
G1 X136.456 Y126.931 E.01864
G1 X129.069 Y119.544 E.33685
G1 X128.492 Y119.544 E.0186
G1 X136.456 Y127.508 E.36316
G1 X136.456 Y128.085 E.0186
G1 X127.915 Y119.544 E.38947
G1 X127.338 Y119.544 E.0186
G1 X136.456 Y128.662 E.41578
G1 X136.456 Y129.24 E.01864
G1 X126.76 Y119.544 E.44214
G1 X126.183 Y119.544 E.0186
G1 X136.456 Y129.817 E.46845
G1 X136.456 Y130.394 E.0186
G1 X125.606 Y119.544 E.49476
G1 X125.028 Y119.544 E.01864
G1 X136.456 Y130.972 E.52112
G1 X136.456 Y131.549 E.0186
G1 X124.451 Y119.544 E.54743
G1 X123.874 Y119.544 E.0186
G1 X136.456 Y132.126 E.57374
G1 X136.456 Y132.703 E.0186
G1 X123.297 Y119.544 E.60005
G1 X122.719 Y119.544 E.01864
G1 X136.456 Y133.281 E.62641
G1 X136.456 Y133.858 E.0186
G1 X122.142 Y119.544 E.65272
G1 X121.565 Y119.544 E.0186
G1 X136.456 Y134.435 E.67903
G1 X136.456 Y135.012 E.0186
G1 X120.988 Y119.544 E.70534
G1 X120.41 Y119.544 E.01864
G1 X136.456 Y135.59 E.7317
G1 X136.456 Y136.167 E.0186
G1 X119.833 Y119.544 E.75801
G1 X119.544 Y119.544 E.00932
G1 X119.544 Y119.833 E.00932
G1 X136.167 Y136.456 E.75801
G1 X135.59 Y136.456 E.0186
G1 X119.544 Y120.41 E.7317
G1 X119.544 Y120.988 E.01864
G1 X135.012 Y136.456 E.70534
G1 X134.435 Y136.456 E.0186
G1 X119.544 Y121.565 E.67903
G1 X119.544 Y122.142 E.0186
G1 X133.858 Y136.456 E.65272
G1 X133.281 Y136.456 E.0186
G1 X119.544 Y122.72 E.62639
G1 X119.544 Y123.297 E.0186
G1 X132.703 Y136.456 E.60005
G1 X132.126 Y136.456 E.0186
G1 X119.544 Y123.874 E.57374
G1 X119.544 Y124.451 E.0186
G1 X131.549 Y136.456 E.54743
G1 X130.971 Y136.456 E.01864
G1 X119.544 Y125.029 E.52107
G1 X119.544 Y125.606 E.0186
G1 X130.394 Y136.456 E.49476
G1 X129.817 Y136.456 E.0186
G1 X119.544 Y126.183 E.46845
G1 X119.544 Y126.76 E.0186
G1 X129.24 Y136.456 E.44214
G1 X128.662 Y136.456 E.01864
G1 X119.544 Y127.338 E.41578
G1 X119.544 Y127.915 E.0186
G1 X128.085 Y136.456 E.38947
G1 X127.508 Y136.456 E.0186
G1 X119.544 Y128.492 E.36316
G1 X119.544 Y129.069 E.0186
G1 X126.931 Y136.456 E.33685
G1 X126.353 Y136.456 E.01864
G1 X119.544 Y129.647 E.31049
G1 X119.544 Y130.224 E.0186
G1 X125.776 Y136.456 E.28418
G1 X125.199 Y136.456 E.0186
G1 X119.544 Y130.801 E.25787
G1 X119.544 Y131.379 E.01864
G1 X124.621 Y136.456 E.23151
G1 X124.044 Y136.456 E.0186
G1 X119.544 Y131.956 E.2052
G1 X119.544 Y132.533 E.0186
G1 X123.467 Y136.456 E.17889
G1 X122.89 Y136.456 E.0186
G1 X119.544 Y133.11 E.15258
G1 X119.544 Y133.688 E.01864
G1 X122.312 Y136.456 E.12622
G1 X121.735 Y136.456 E.0186
G1 X119.544 Y134.265 E.09991
G1 X119.544 Y134.842 E.0186
G1 X121.158 Y136.456 E.0736
G1 X120.581 Y136.456 E.0186
G1 X119.544 Y135.419 E.04729
G1 X119.544 Y135.997 E.01864
G1 X120.186 Y136.639 E.02928
;LAYER_CHANGE
;Z:0.4
;HEIGHT:0.2
;BEFORE_LAYER_CHANGE
;0.4

G1 E-.8 F2100
G1 Z.4 F9000
;AFTER_LAYER_CHANGE
;0.4

M104 S235 ; set temperature
M140 S75 ; set bed temperature
G1 Z.8
G1 X136.961 Y136.961
G1 Z.4
G1 E.8 F2100
;TYPE:Perimeter
;WIDTH:0.449999
G1 F3600
G1 X119.039 Y136.961 E.57631
G1 X119.039 Y119.039 E.57631
G1 X136.961 Y119.039 E.57631
G1 X136.961 Y128 E.28815
G1 X136.961 Y136.901 E.28622
G1 X137.368 Y137.368 F9000
G1 F3600
G1 X118.632 Y137.368 E.60248
G1 X118.632 Y118.632 E.60248
G1 X137.368 Y118.632 E.60248
G1 X137.368 Y128 E.30124
G1 X137.368 Y137.308 E.29931
G1 X137.775 Y137.775 F9000
;TYPE:External perimeter
G1 F1800
G1 X118.225 Y137.775 E.62866
G1 X118.225 Y118.225 E.62866
G1 X137.775 Y118.225 E.62866
G1 X137.775 Y128 E.31433
G1 X137.775 Y137.715 E.3124
G1 X137.379 Y137.774 F9000
G1 E-.8 F2100
G1 Z.8 F9000
G1 X119.455 Y119.377
G1 Z.4
G1 E.8 F2100
;TYPE:Solid infill
;WIDTH:0.548766
G1 F3600
G1 X119.41 Y119.333 E.00251
G1 X119.349 Y119.349 E.00252
G1 X119.333 Y119.41 E.00252
G1 X119.377 Y119.455 E.00251
G1 X119.439 Y119.439 E.00256
G1 X119.212 Y120.234 F9000
;WIDTH:0.38292
G1 F3600
G1 X119.141 Y120.215 E.00197
G1 X119.16 Y120.286 E.00197
G1 X119.201 Y120.275 E.00114
;WIDTH:0.41646
G1 X119.273 Y120.182 E.00347
;WIDTH:0.449999
G1 X119.344 Y120.089 E.00376
G1 X120.089 Y119.344 E.03388
G1 X120.182 Y119.273 E.00376
;WIDTH:0.41646
G1 X120.275 Y119.201 E.00347
;WIDTH:0.38292
G1 X120.234 Y119.212 E.00114
G1 X120.215 Y119.141 E.00197
G1 X120.286 Y119.16 E.00197
;WIDTH:0.449999
G1 X120.664 Y119.344 E.01352
G1 X119.344 Y120.664 E.06003
G1 X119.344 Y121.24 E.01852
G1 X121.24 Y119.344 E.08622
G1 X121.816 Y119.344 E.01852
G1 X119.344 Y121.816 E.11242
G1 X119.344 Y122.392 E.01852
G1 X122.392 Y119.344 E.13861
G1 X122.967 Y119.344 E.01849
G1 X119.344 Y122.967 E.16476
G1 X119.344 Y123.543 E.01852
G1 X123.543 Y119.344 E.19095
G1 X124.119 Y119.344 E.01852
G1 X119.344 Y124.119 E.21715
G1 X119.344 Y124.694 E.01849
G1 X124.694 Y119.344 E.2433
G1 X125.27 Y119.344 E.01852
G1 X119.344 Y125.27 E.26949
G1 X119.344 Y125.846 E.01852
G1 X125.846 Y119.344 E.29568
G1 X126.421 Y119.344 E.01849
G1 X119.344 Y126.421 E.32183
G1 X119.344 Y126.997 E.01852
G1 X126.997 Y119.344 E.34803
G1 X127.573 Y119.344 E.01852
G1 X119.344 Y127.573 E.37422
G1 X119.344 Y128.149 E.01852
G1 X128.149 Y119.344 E.40042
G1 X128.724 Y119.344 E.01849
G1 X119.344 Y128.724 E.42656
G1 X119.344 Y129.3 E.01852
G1 X129.3 Y119.344 E.45276
G1 X129.876 Y119.344 E.01852
G1 X119.344 Y129.876 E.47895
G1 X119.344 Y130.451 E.01849
G1 X130.451 Y119.344 E.5051
G1 X131.027 Y119.344 E.01852
G1 X119.344 Y131.027 E.5313
G1 X119.344 Y131.603 E.01852
G1 X131.603 Y119.344 E.55749
G1 X132.178 Y119.344 E.01849
G1 X119.344 Y132.178 E.58364
G1 X119.344 Y132.754 E.01852
G1 X132.754 Y119.344 E.60983
G1 X133.33 Y119.344 E.01852
G1 X119.344 Y133.33 E.63603
G1 X119.344 Y133.906 E.01852
G1 X133.906 Y119.344 E.66222
G1 X134.481 Y119.344 E.01849
G1 X119.344 Y134.481 E.68837
G1 X119.344 Y135.057 E.01852
G1 X135.057 Y119.344 E.71456
G1 X135.633 Y119.344 E.01852
G1 X119.344 Y135.633 E.74076
G1 X119.344 Y136.208 E.01849
G1 X136.208 Y119.344 E.76691
G1 X136.812 Y119.218 E.01984
;WIDTH:0.38292
G1 X136.741 Y119.199 E.00197
G1 X136.76 Y119.27 E.00197
G1 X136.801 Y119.259 E.00114
;WIDTH:0.41646
G1 X136.728 Y119.366 E.00382
;WIDTH:0.449999
G1 X136.656 Y119.473 E.00415
G1 X119.473 Y136.656 E.78141
G1 X119.366 Y136.728 E.00415
;WIDTH:0.41646
G1 X119.259 Y136.801 E.00382
;WIDTH:0.38292
G1 X119.218 Y136.812 E.00114
G1 X119.199 Y136.741 E.00197
G1 X119.27 Y136.76 E.00197
;WIDTH:0.449999
G1 X120.049 Y136.656 E.02527
G1 X136.656 Y120.049 E.75522
G1 X136.656 Y120.624 E.01849
G1 X120.624 Y136.656 E.72907
G1 X121.2 Y136.656 E.01852
G1 X136.656 Y121.2 E.70288
G1 X136.656 Y121.776 E.01852
G1 X121.776 Y136.656 E.67668
G1 X122.351 Y136.656 E.01849
G1 X136.656 Y122.351 E.65053
G1 X136.656 Y122.927 E.01852
G1 X122.927 Y136.656 E.62434
G1 X123.503 Y136.656 E.01852
G1 X136.656 Y123.503 E.59814
G1 X136.656 Y124.078 E.01849
G1 X124.078 Y136.656 E.572
G1 X124.654 Y136.656 E.01852
G1 X136.656 Y124.654 E.5458
G1 X136.656 Y125.23 E.01852
G1 X125.23 Y136.656 E.51961
G1 X125.806 Y136.656 E.01852
G1 X136.656 Y125.806 E.49341
G1 X136.656 Y126.381 E.01849
G1 X126.381 Y136.656 E.46726
G1 X126.957 Y136.656 E.01852
G1 X136.656 Y126.957 E.44107
G1 X136.656 Y127.533 E.01852
G1 X127.533 Y136.656 E.41488
G1 X128.108 Y136.656 E.01849
G1 X136.656 Y128.108 E.38873
G1 X136.656 Y128.684 E.01852
G1 X128.684 Y136.656 E.36253
G1 X129.26 Y136.656 E.01852
G1 X136.656 Y129.26 E.33634
G1 X136.656 Y129.835 E.01849
G1 X129.835 Y136.656 E.31019
G1 X130.411 Y136.656 E.01852
G1 X136.656 Y130.411 E.284
G1 X136.656 Y130.987 E.01852
G1 X130.987 Y136.656 E.2578
G1 X131.563 Y136.656 E.01852
G1 X136.656 Y131.563 E.23161
G1 X136.656 Y132.138 E.01849
G1 X132.138 Y136.656 E.20546
G1 X132.714 Y136.656 E.01852
G1 X136.656 Y132.714 E.17927
G1 X136.656 Y133.29 E.01852
G1 X133.29 Y136.656 E.15307
G1 X133.865 Y136.656 E.01849
G1 X136.656 Y133.865 E.12692
G1 X136.87 Y134.274 E.01484
;WIDTH:0.38292
G1 X136.799 Y134.255 E.00197
G1 X136.818 Y134.326 E.00197
G1 X136.859 Y134.315 E.00114
;WIDTH:0.41646
G1 X136.757 Y134.378 E.00354
;WIDTH:0.449999
G1 X136.656 Y134.441 E.00383
G1 X134.441 Y136.656 E.10073
G1 X134.378 Y136.757 E.00383
;WIDTH:0.41646
G1 X134.315 Y136.859 E.00354
;WIDTH:0.38292
G1 X134.274 Y136.87 E.00114
G1 X134.255 Y136.799 E.00197
G1 X134.326 Y136.818 E.00197
G1 E-.8 F2100
G1 Z.8 F9000
G1 X136.512 Y135.161
G1 Z.4
G1 E.8 F2100
;WIDTH:0.449999
G1 F3600
G1 X135.017 Y136.656 E.06799
G1 X136.656 Y136.656 E.0527
G1 X136.656 Y135.017 E.0527
G1 X136.242 Y136.158 F9000
;WIDTH:0.595824
G1 F3600
G1 X136.193 Y136.109 E.00303
G1 X136.127 Y136.127 E.00299
G1 X136.109 Y136.193 E.00299
G1 X136.158 Y136.242 E.00303
G1 X136.224 Y136.224 E.00299
;LAYER_CHANGE
;Z:0.6
;HEIGHT:0.2
;BEFORE_LAYER_CHANGE
;0.6

G1 Z.6 F9000
;AFTER_LAYER_CHANGE
;0.6

G1 Z.6
G1 X136.961 Y136.961
;TYPE:Perimeter
;WIDTH:0.449999
G1 F3600
G1 X119.039 Y136.961 E.57631
G1 X119.039 Y119.039 E.57631
G1 X136.961 Y119.039 E.57631
G1 X136.961 Y128 E.28815
G1 X136.961 Y136.901 E.28622
G1 X137.368 Y137.368 F9000
G1 F3600
G1 X118.632 Y137.368 E.60248
G1 X118.632 Y118.632 E.60248
G1 X137.368 Y118.632 E.60248
G1 X137.368 Y128 E.30124
G1 X137.368 Y137.308 E.29931
G1 X137.775 Y137.775 F9000
;TYPE:External perimeter
G1 F1800
G1 X118.225 Y137.775 E.62866
G1 X118.225 Y118.225 E.62866
G1 X137.775 Y118.225 E.62866
G1 X137.775 Y128 E.31433
G1 X137.775 Y137.715 E.3124
G1 X137.379 Y137.774 F9000
G1 E-.8 F2100
G1 Z1 F9000
G1 X119.377 Y136.545
G1 Z.6
G1 E.8 F2100
;TYPE:Solid infill
;WIDTH:0.548766
G1 F3600
G1 X119.333 Y136.59 E.00251
G1 X119.349 Y136.651 E.00252
G1 X119.41 Y136.667 E.00252
G1 X119.455 Y136.623 E.00251
G1 X119.439 Y136.561 E.00256
G1 X120.234 Y136.788 F9000
;WIDTH:0.38292
G1 F3600
G1 X120.215 Y136.859 E.00197
G1 X120.286 Y136.84 E.00197
G1 X120.275 Y136.799 E.00114
;WIDTH:0.41646
G1 X120.182 Y136.727 E.00347
;WIDTH:0.449999
G1 X120.089 Y136.656 E.00376
G1 X119.344 Y135.911 E.03388
G1 X119.273 Y135.818 E.00376
;WIDTH:0.41646
G1 X119.201 Y135.725 E.00347
;WIDTH:0.38292
G1 X119.212 Y135.766 E.00114
G1 X119.141 Y135.785 E.00197
G1 X119.16 Y135.714 E.00197
;WIDTH:0.449999
G1 X119.344 Y135.336 E.01352
G1 X120.664 Y136.656 E.06003
G1 X121.24 Y136.656 E.01852
G1 X119.344 Y134.76 E.08622
G1 X119.344 Y134.184 E.01852
G1 X121.816 Y136.656 E.11242
G1 X122.392 Y136.656 E.01852
G1 X119.344 Y133.608 E.13861
G1 X119.344 Y133.033 E.01849
G1 X122.967 Y136.656 E.16476
G1 X123.543 Y136.656 E.01852
G1 X119.344 Y132.457 E.19095
G1 X119.344 Y131.881 E.01852
G1 X124.119 Y136.656 E.21715
G1 X124.694 Y136.656 E.01849
G1 X119.344 Y131.306 E.2433
G1 X119.344 Y130.73 E.01852
G1 X125.27 Y136.656 E.26949
G1 X125.846 Y136.656 E.01852
G1 X119.344 Y130.154 E.29568
G1 X119.344 Y129.579 E.01849
G1 X126.421 Y136.656 E.32183
G1 X126.997 Y136.656 E.01852
G1 X119.344 Y129.003 E.34803
G1 X119.344 Y128.427 E.01852
G1 X127.573 Y136.656 E.37422
G1 X128.149 Y136.656 E.01852
G1 X119.344 Y127.851 E.40042
G1 X119.344 Y127.276 E.01849
G1 X128.724 Y136.656 E.42656
G1 X129.3 Y136.656 E.01852
G1 X119.344 Y126.7 E.45276
G1 X119.344 Y126.124 E.01852
G1 X129.876 Y136.656 E.47895
G1 X130.451 Y136.656 E.01849
G1 X119.344 Y125.549 E.5051
G1 X119.344 Y124.973 E.01852
G1 X131.027 Y136.656 E.5313
G1 X131.603 Y136.656 E.01852
G1 X119.344 Y124.397 E.55749
G1 X119.344 Y123.822 E.01849
G1 X132.178 Y136.656 E.58364
G1 X132.754 Y136.656 E.01852
G1 X119.344 Y123.246 E.60983
G1 X119.344 Y122.67 E.01852
G1 X133.33 Y136.656 E.63603
G1 X133.906 Y136.656 E.01852
G1 X119.344 Y122.095 E.6622
G1 X119.344 Y121.519 E.01852
G1 X134.481 Y136.656 E.68837
G1 X135.057 Y136.656 E.01852
G1 X119.344 Y120.943 E.71456
G1 X119.344 Y120.367 E.01852
G1 X135.633 Y136.656 E.74076
G1 X136.208 Y136.656 E.01849
G1 X119.344 Y119.792 E.76691
G1 X119.218 Y119.188 E.01984
;WIDTH:0.38292
G1 X119.199 Y119.259 E.00197
G1 X119.27 Y119.24 E.00197
G1 X119.259 Y119.199 E.00114
;WIDTH:0.41646
G1 X119.366 Y119.272 E.00382
;WIDTH:0.449999
G1 X119.473 Y119.344 E.00415
G1 X136.656 Y136.527 E.78141
G1 X136.728 Y136.634 E.00415
;WIDTH:0.41646
G1 X136.801 Y136.741 E.00382
;WIDTH:0.38292
G1 X136.812 Y136.782 E.00114
G1 X136.741 Y136.801 E.00197
G1 X136.76 Y136.73 E.00197
;WIDTH:0.449999
G1 X136.656 Y135.951 E.02527
G1 X120.049 Y119.344 E.75522
G1 X120.624 Y119.344 E.01849
G1 X136.656 Y135.376 E.72907
G1 X136.656 Y134.8 E.01852
G1 X121.2 Y119.344 E.70288
G1 X121.776 Y119.344 E.01852
G1 X136.656 Y134.224 E.67668
G1 X136.656 Y133.649 E.01849
G1 X122.351 Y119.344 E.65053
G1 X122.927 Y119.344 E.01852
G1 X136.656 Y133.073 E.62434
G1 X136.656 Y132.497 E.01852
G1 X123.503 Y119.344 E.59814
G1 X124.078 Y119.344 E.01849
G1 X136.656 Y131.922 E.572
G1 X136.656 Y131.346 E.01852
G1 X124.654 Y119.344 E.5458
G1 X125.23 Y119.344 E.01852
G1 X136.656 Y130.77 E.51961
G1 X136.656 Y130.194 E.01852
G1 X125.806 Y119.344 E.49341
G1 X126.381 Y119.344 E.01849
G1 X136.656 Y129.619 E.46726
G1 X136.656 Y129.043 E.01852
G1 X126.957 Y119.344 E.44107
G1 X127.533 Y119.344 E.01852
G1 X136.656 Y128.467 E.41488
G1 X136.656 Y127.892 E.01849
G1 X128.108 Y119.344 E.38873
G1 X128.684 Y119.344 E.01852
G1 X136.656 Y127.316 E.36253
G1 X136.656 Y126.74 E.01852
G1 X129.26 Y119.344 E.33634
G1 X129.835 Y119.344 E.01849
G1 X136.656 Y126.165 E.31019
G1 X136.656 Y125.589 E.01852
