; generated by PrusaSlicer 2.9.1 on 2026-02-14 at 04:47:16 UTC

; 

; external perimeters extrusion width = 0.45mm
; perimeters extrusion width = 0.45mm
; infill extrusion width = 0.45mm
; solid infill extrusion width = 0.45mm
; top infill extrusion width = 0.40mm
; first layer extrusion width = 0.45mm

;TYPE:Custom
;Elegoo Centauri Carbon - Start G-code
M140 S80 ; set bed temp
M104 S150 ; preheat nozzle to 150 (prevent ooze)
G28 ; home all axes
G29 ; auto bed leveling (if configured in Klipper)
M190 S80 ; wait for bed temp
G1 Z5 F3000 ; move nozzle up
M109 S240 ; wait for nozzle temp
; Prime line
G92 E0
G1 X5 Y5 F3000
G1 Z0.3 F1500
G1 X5 Y150 E15 F1500 ; draw prime line
G1 X5.4 Y150 F5000
G1 X5.4 Y5 E30 F1500 ; draw second prime line
G92 E0
G1 Z2 F3000 ; lift nozzle
;End of start G-code
G21 ; set units to millimeters
G90 ; use absolute coordinates
M83 ; use relative distances for extrusion
; Filament gcode
M107
;LAYER_CHANGE
;Z:0.2
;HEIGHT:0.2
G1 E-.8 F2100
G1 Z.6 F9000
G1 X101.321 Y115.32
G1 Z.2
G1 E.8 F2100
;TYPE:Skirt/Brim
;WIDTH:0.45
G1 F1500
G1 X103.009 Y114.192 E.06528
G1 X105 Y113.796 E.06528
G1 X151 Y113.796 E1.47919
G1 X152.991 Y114.193 E.06528
G1 X154.68 Y115.321 E.06531
G1 X155.808 Y117.009 E.06528
G1 X156.204 Y119 E.06528
G1 X156.204 Y137 E.57881
G1 X155.807 Y138.991 E.06528
G1 X154.679 Y140.68 E.06531
G1 X152.991 Y141.808 E.06528
G1 X151 Y142.204 E.06528
G1 X105 Y142.204 E1.47919
G1 X103.009 Y141.807 E.06528
G1 X101.32 Y140.679 E.06531
G1 X100.192 Y138.991 E.06528
G1 X99.796 Y137 E.06528
G1 X99.796 Y119 E.57881
G1 X100.193 Y117.009 E.06528
G1 X101.287 Y115.37 E.06337
G1 E-.8 F2100
G1 Z.6 F9000
G1 X106.239 Y135.761
G1 Z.2
G1 E.8 F2100
;TYPE:Perimeter
;WIDTH:0.449999
G1 F1500
G1 X106.239 Y120.239 E.49913
G1 X149.761 Y120.239 E1.39951
G1 X149.761 Y128 E.24957
G1 X149.761 Y135.761 E.24957
G1 X106.299 Y135.761 E1.39758
G1 X105.832 Y136.168 F9000
G1 F1500
G1 X105.832 Y119.832 E.52531
G1 X150.168 Y119.832 E1.42568
G1 X150.168 Y128 E.26265
G1 X150.168 Y136.168 E.26265
G1 X105.892 Y136.168 E1.42375
G1 X105.425 Y136.575 F9000
;TYPE:External perimeter
G1 F1500
G1 X105.425 Y119.425 E.55148
G1 X150.575 Y119.425 E1.45186
G1 X150.575 Y128 E.27574
G1 X150.575 Y136.575 E.27574
G1 X105.485 Y136.575 E1.44993
G1 X105.426 Y136.179 F9000
G1 E-.8 F2100
G1 Z.6 F9000
G1 X149.639 Y121.191
G1 Z.2
G1 E.8 F2100
;TYPE:Solid infill
;WIDTH:0.453436
G1 F1500
G1 X148.992 Y120.544 E.02967
G1 X148.411 Y120.544 E.01884
G1 X149.456 Y121.589 E.04792
G1 X149.456 Y122.169 E.01881
G1 X147.831 Y120.544 E.07452
G1 X147.25 Y120.544 E.01884
G1 X149.456 Y122.75 E.10117
G1 X149.456 Y123.331 E.01884
G1 X146.669 Y120.544 E.12781
G1 X146.089 Y120.544 E.01881
G1 X149.456 Y123.911 E.15441
G1 X149.456 Y124.492 E.01884
G1 X145.508 Y120.544 E.18105
G1 X144.928 Y120.544 E.01881
G1 X149.456 Y125.072 E.20765
G1 X149.456 Y125.653 E.01884
G1 X144.347 Y120.544 E.2343
G1 X143.767 Y120.544 E.01881
G1 X149.456 Y126.233 E.2609
G1 X149.456 Y126.814 E.01884
G1 X143.186 Y120.544 E.28754
G1 X142.606 Y120.544 E.01881
G1 X149.456 Y127.394 E.31414
G1 X149.456 Y127.975 E.01884
G1 X142.025 Y120.544 E.34078
G1 X141.444 Y120.544 E.01884
G1 X149.456 Y128.556 E.36743
G1 X149.456 Y129.136 E.01881
G1 X140.864 Y120.544 E.39403
G1 X140.283 Y120.544 E.01884
G1 X149.456 Y129.717 E.42067
G1 X149.456 Y130.297 E.01881
G1 X139.703 Y120.544 E.44727
G1 X139.122 Y120.544 E.01884
G1 X149.456 Y130.878 E.47392
G1 X149.456 Y131.458 E.01881
G1 X138.542 Y120.544 E.50051
G1 X137.961 Y120.544 E.01884
G1 X149.456 Y132.039 E.52716
G1 X149.456 Y132.619 E.01881
G1 X137.381 Y120.544 E.55376
G1 X136.8 Y120.544 E.01884
G1 X149.456 Y133.2 E.5804
G1 X149.456 Y133.781 E.01884
G1 X136.219 Y120.544 E.60705
G1 X135.639 Y120.544 E.01881
G1 X149.456 Y134.361 E.63365
G1 X149.456 Y134.942 E.01884
G1 X135.058 Y120.544 E.66029
G1 X134.478 Y120.544 E.01881
G1 X149.389 Y135.456 E.68384
G1 X148.808 Y135.456 E.01884
G1 X133.897 Y120.544 E.68384
G1 X133.317 Y120.544 E.01881
G1 X148.228 Y135.456 E.68384
G1 X147.647 Y135.456 E.01884
G1 X132.736 Y120.544 E.68384
G1 X132.156 Y120.544 E.01881
G1 X147.067 Y135.456 E.68384
G1 X146.486 Y135.456 E.01884
G1 X131.575 Y120.544 E.68384
G1 X130.994 Y120.544 E.01884
G1 X145.905 Y135.456 E.68384
G1 X145.325 Y135.456 E.01881
G1 X130.414 Y120.544 E.68384
G1 X129.833 Y120.544 E.01884
G1 X144.744 Y135.456 E.68384
G1 X144.164 Y135.456 E.01881
G1 X129.253 Y120.544 E.68384
G1 X128.672 Y120.544 E.01884
G1 X143.583 Y135.456 E.68384
G1 X143.003 Y135.456 E.01881
G1 X128.092 Y120.544 E.68384
G1 X127.511 Y120.544 E.01884
G1 X142.422 Y135.456 E.68384
G1 X141.842 Y135.456 E.01881
G1 X126.931 Y120.544 E.68384
G1 X126.35 Y120.544 E.01884
G1 X141.261 Y135.456 E.68384
G1 X140.68 Y135.456 E.01884
G1 X125.769 Y120.544 E.68384
G1 X125.189 Y120.544 E.01881
G1 X140.1 Y135.456 E.68384
G1 X139.519 Y135.456 E.01884
G1 X124.608 Y120.544 E.68384
G1 X124.028 Y120.544 E.01881
G1 X138.939 Y135.456 E.68384
G1 X138.358 Y135.456 E.01884
G1 X123.447 Y120.544 E.68384
G1 X122.867 Y120.544 E.01881
G1 X137.778 Y135.456 E.68384
G1 X137.197 Y135.456 E.01884
G1 X122.286 Y120.544 E.68384
G1 X121.706 Y120.544 E.01881
G1 X136.617 Y135.456 E.68384
G1 X136.036 Y135.456 E.01884
G1 X121.125 Y120.544 E.68384
G1 X120.544 Y120.544 E.01884
G1 X135.455 Y135.456 E.68384
G1 X134.875 Y135.456 E.01881
G1 X119.964 Y120.544 E.68384
G1 X119.383 Y120.544 E.01884
G1 X134.294 Y135.456 E.68384
G1 X133.714 Y135.456 E.01881
G1 X118.803 Y120.544 E.68384
G1 X118.222 Y120.544 E.01884
G1 X133.133 Y135.456 E.68384
G1 X132.553 Y135.456 E.01881
G1 X117.642 Y120.544 E.68384
G1 X117.061 Y120.544 E.01884
G1 X131.972 Y135.456 E.68384
G1 X131.392 Y135.456 E.01881
G1 X116.48 Y120.544 E.68386
G1 X115.9 Y120.544 E.01881
G1 X130.811 Y135.456 E.68384
G1 X130.23 Y135.456 E.01884
G1 X115.319 Y120.544 E.68384
G1 X114.739 Y120.544 E.01881
G1 X129.65 Y135.456 E.68384
G1 X129.069 Y135.456 E.01884
G1 X114.158 Y120.544 E.68384
G1 X113.578 Y120.544 E.01881
G1 X128.489 Y135.456 E.68384
G1 X127.908 Y135.456 E.01884
G1 X112.997 Y120.544 E.68384
G1 X112.417 Y120.544 E.01881
G1 X127.328 Y135.456 E.68384
G1 X126.747 Y135.456 E.01884
G1 X111.836 Y120.544 E.68384
G1 X111.255 Y120.544 E.01884
G1 X126.167 Y135.456 E.68386
G1 X125.586 Y135.456 E.01884
G1 X110.675 Y120.544 E.68384
G1 X110.094 Y120.544 E.01884
G1 X125.005 Y135.456 E.68384
G1 X124.425 Y135.456 E.01881
G1 X109.514 Y120.544 E.68384
G1 X108.933 Y120.544 E.01884
G1 X123.844 Y135.456 E.68384
G1 X123.264 Y135.456 E.01881
G1 X108.353 Y120.544 E.68384
G1 X107.772 Y120.544 E.01884
G1 X122.683 Y135.456 E.68384
G1 X122.103 Y135.456 E.01881
G1 X107.192 Y120.544 E.68384
G1 X106.611 Y120.544 E.01884
G1 X121.522 Y135.456 E.68384
G1 X120.942 Y135.456 E.01881
G1 X106.544 Y121.058 E.66029
G1 X106.544 Y121.639 E.01884
G1 X120.361 Y135.456 E.63365
G1 X119.78 Y135.456 E.01884
G1 X106.544 Y122.22 E.607
G1 X106.544 Y122.8 E.01881
G1 X119.2 Y135.456 E.5804
G1 X118.619 Y135.456 E.01884
G1 X106.544 Y123.381 E.55376
G1 X106.544 Y123.961 E.01881
G1 X118.039 Y135.456 E.52716
G1 X117.458 Y135.456 E.01884
G1 X106.544 Y124.542 E.50051
G1 X106.544 Y125.122 E.01881
G1 X116.878 Y135.456 E.47392
G1 X116.297 Y135.456 E.01884
G1 X106.544 Y125.703 E.44727
G1 X106.544 Y126.283 E.01881
G1 X115.717 Y135.456 E.42067
G1 X115.136 Y135.456 E.01884
G1 X106.544 Y126.864 E.39403
G1 X106.544 Y127.445 E.01884
G1 X114.555 Y135.456 E.36738
G1 X113.975 Y135.456 E.01881
G1 X106.544 Y128.025 E.34078
G1 X106.544 Y128.606 E.01884
G1 X113.394 Y135.456 E.31414
G1 X112.814 Y135.456 E.01881
G1 X106.544 Y129.186 E.28754
G1 X106.544 Y129.767 E.01884
G1 X112.233 Y135.456 E.2609
G1 X111.653 Y135.456 E.01881
G1 X106.544 Y130.347 E.2343
G1 X106.544 Y130.928 E.01884
G1 X111.072 Y135.456 E.20765
G1 X110.492 Y135.456 E.01881
G1 X106.544 Y131.509 E.18103
G1 X106.544 Y132.089 E.01881
G1 X109.911 Y135.456 E.15441
G1 X109.33 Y135.456 E.01884
G1 X106.544 Y132.67 E.12777
G1 X106.544 Y133.25 E.01881
G1 X108.75 Y135.456 E.10117
G1 X108.169 Y135.456 E.01884
G1 X106.544 Y133.831 E.07452
G1 X106.544 Y134.411 E.01881
G1 X107.589 Y135.456 E.04792
G1 X107.008 Y135.456 E.01884
G1 X106.361 Y134.809 E.02967
;LAYER_CHANGE
;Z:0.4
;HEIGHT:0.2
;BEFORE_LAYER_CHANGE
;0.4

G1 Z.4 F9000
;AFTER_LAYER_CHANGE
;0.4

M104 S235 ; set temperature
M140 S75 ; set bed temperature
G1 Z.4
G1 X106.039 Y135.961
;TYPE:Perimeter
;WIDTH:0.449999
G1 F3600
G1 X106.039 Y120.039 E.51199
G1 X149.961 Y120.039 E1.41237
G1 X149.961 Y128 E.256
G1 X149.961 Y135.961 E.256
G1 X106.099 Y135.961 E1.41044
G1 X105.632 Y136.368 F9000
G1 F3600
G1 X105.632 Y119.632 E.53817
G1 X150.368 Y119.632 E1.43855
G1 X150.368 Y128 E.26908
G1 X150.368 Y136.368 E.26908
G1 X105.692 Y136.368 E1.43662
G1 X105.225 Y136.775 F9000
;TYPE:External perimeter
G1 F1800
G1 X105.225 Y119.225 E.56434
G1 X150.775 Y119.225 E1.46472
G1 X150.775 Y128 E.28217
G1 X150.775 Y136.775 E.28217
G1 X105.285 Y136.775 E1.46279
G1 X105.226 Y136.379 F9000
G1 E-.8 F2100
G1 Z.8 F9000
G1 X106.455 Y120.377
G1 Z.4
G1 E.8 F2100
;TYPE:Solid infill
;WIDTH:0.548766
G1 F3600
G1 X106.41 Y120.333 E.00251
G1 X106.349 Y120.349 E.00252
G1 X106.333 Y120.41 E.00252
G1 X106.377 Y120.455 E.00251
G1 X106.439 Y120.439 E.00256
;WIDTH:0.449999
G1 X107.089 Y120.344 E.02112
G1 X106.278 Y121.161 E.03702
;WIDTH:0.41646
G1 X106.212 Y121.234 E.0029
;WIDTH:0.38292
G1 X106.141 Y121.215 E.00197
G1 X106.16 Y121.286 E.00197
G1 X106.201 Y121.275 E.00114
;WIDTH:0.449999
G1 X106.344 Y121.664 E.01333
G1 X107.664 Y120.344 E.06003
G1 X108.24 Y120.344 E.01852
G1 X106.344 Y122.24 E.08622
G1 X106.344 Y122.816 E.01852
G1 X108.816 Y120.344 E.11242
G1 X109.392 Y120.344 E.01852
G1 X106.344 Y123.392 E.13861
G1 X106.344 Y123.967 E.01849
G1 X109.967 Y120.344 E.16476
G1 X110.543 Y120.344 E.01852
G1 X106.344 Y124.543 E.19095
G1 X106.344 Y125.119 E.01852
G1 X111.119 Y120.344 E.21715
G1 X111.694 Y120.344 E.01849
G1 X106.344 Y125.694 E.2433
G1 X106.344 Y126.27 E.01852
G1 X112.27 Y120.344 E.26949
G1 X112.846 Y120.344 E.01852
G1 X106.344 Y126.846 E.29568
G1 X106.344 Y127.421 E.01849
G1 X113.421 Y120.344 E.32183
G1 X113.997 Y120.344 E.01852
G1 X106.344 Y127.997 E.34803
G1 X106.344 Y128.573 E.01852
G1 X114.573 Y120.344 E.37422
G1 X115.149 Y120.344 E.01852
G1 X106.344 Y129.149 E.40042
G1 X106.344 Y129.724 E.01849
G1 X115.724 Y120.344 E.42656
G1 X116.3 Y120.344 E.01852
G1 X106.344 Y130.3 E.45276
G1 X106.344 Y130.876 E.01852
G1 X116.876 Y120.344 E.47895
G1 X117.451 Y120.344 E.01849
G1 X106.344 Y131.451 E.5051
G1 X106.344 Y132.027 E.01852
G1 X118.027 Y120.344 E.5313
G1 X118.603 Y120.344 E.01852
G1 X106.344 Y132.603 E.55749
G1 X106.344 Y133.178 E.01849
G1 X119.178 Y120.344 E.58364
G1 X119.754 Y120.344 E.01852
G1 X106.344 Y133.754 E.60983
G1 X106.344 Y134.33 E.01852
G1 X120.33 Y120.344 E.63603
G1 X120.906 Y120.344 E.01852
G1 X106.344 Y134.906 E.66222
G1 X106.274 Y135.786 F9000
;WIDTH:0.38292
G1 F3600
G1 X106.233 Y135.797 E.00114
G1 X106.214 Y135.726 E.00197
G1 X106.285 Y135.745 E.00197
;WIDTH:0.41646
G1 X106.315 Y135.613 E.00399
;WIDTH:0.449999
G1 X106.344 Y135.481 E.00435
G1 X121.481 Y120.344 E.68837
G1 X122.057 Y120.344 E.01852
G1 X106.746 Y135.656 E.6963
G1 X107.322 Y135.656 E.01852
G1 X122.633 Y120.344 E.6963
G1 X123.208 Y120.344 E.01849
G1 X107.897 Y135.656 E.6963
G1 X108.473 Y135.656 E.01852
G1 X123.784 Y120.344 E.6963
G1 X124.36 Y120.344 E.01852
G1 X109.049 Y135.656 E.6963
G1 X109.624 Y135.656 E.01849
G1 X124.935 Y120.344 E.6963
G1 X125.511 Y120.344 E.01852
G1 X110.2 Y135.656 E.6963
G1 X110.776 Y135.656 E.01852
G1 X126.087 Y120.344 E.6963
G1 X126.662 Y120.344 E.01849
G1 X111.351 Y135.656 E.6963
G1 X111.927 Y135.656 E.01852
G1 X127.238 Y120.344 E.6963
G1 X127.814 Y120.344 E.01852
G1 X112.503 Y135.656 E.6963
G1 X113.078 Y135.656 E.01849
G1 X128.39 Y120.344 E.69633
G1 X128.965 Y120.344 E.01849
G1 X113.654 Y135.656 E.6963
G1 X114.23 Y135.656 E.01852
G1 X129.541 Y120.344 E.6963
G1 X130.117 Y120.344 E.01852
G1 X114.806 Y135.656 E.6963
G1 X115.381 Y135.656 E.01849
G1 X130.692 Y120.344 E.6963
G1 X131.268 Y120.344 E.01852
G1 X115.957 Y135.656 E.6963
G1 X116.533 Y135.656 E.01852
G1 X131.844 Y120.344 E.6963
G1 X132.419 Y120.344 E.01849
G1 X117.108 Y135.656 E.6963
G1 X117.684 Y135.656 E.01852
G1 X132.995 Y120.344 E.6963
G1 X133.571 Y120.344 E.01852
G1 X118.26 Y135.656 E.6963
G1 X118.835 Y135.656 E.01849
G1 X134.147 Y120.344 E.69633
G1 X134.722 Y120.344 E.01849
G1 X119.411 Y135.656 E.6963
G1 X119.987 Y135.656 E.01852
G1 X135.298 Y120.344 E.6963
G1 X135.874 Y120.344 E.01852
G1 X120.563 Y135.656 E.6963
G1 X121.138 Y135.656 E.01849
G1 X136.449 Y120.344 E.6963
G1 X137.025 Y120.344 E.01852
G1 X121.714 Y135.656 E.6963
G1 X122.29 Y135.656 E.01852
G1 X137.601 Y120.344 E.6963
G1 X138.176 Y120.344 E.01849
G1 X122.865 Y135.656 E.6963
G1 X123.441 Y135.656 E.01852
G1 X138.752 Y120.344 E.6963
G1 X139.328 Y120.344 E.01852
G1 X124.017 Y135.656 E.6963
G1 X124.592 Y135.656 E.01849
G1 X139.903 Y120.344 E.6963
G1 X140.479 Y120.344 E.01852
G1 X125.168 Y135.656 E.6963
G1 X125.744 Y135.656 E.01852
G1 X141.055 Y120.344 E.6963
G1 X141.631 Y120.344 E.01852
G1 X126.32 Y135.656 E.6963
G1 X126.895 Y135.656 E.01849
G1 X142.206 Y120.344 E.6963
G1 X142.782 Y120.344 E.01852
G1 X127.471 Y135.656 E.6963
G1 X128.047 Y135.656 E.01852
G1 X143.358 Y120.344 E.6963
G1 X143.933 Y120.344 E.01849
G1 X128.622 Y135.656 E.6963
G1 X129.198 Y135.656 E.01852
G1 X144.509 Y120.344 E.6963
G1 X145.085 Y120.344 E.01852
G1 X129.774 Y135.656 E.6963
G1 X130.349 Y135.656 E.01849
G1 X145.66 Y120.344 E.6963
G1 X146.236 Y120.344 E.01852
G1 X130.925 Y135.656 E.6963
G1 X131.501 Y135.656 E.01852
G1 X146.812 Y120.344 E.6963
G1 X147.388 Y120.344 E.01852
G1 X132.076 Y135.656 E.69633
G1 X132.652 Y135.656 E.01852
G1 X147.963 Y120.344 E.6963
G1 X148.539 Y120.344 E.01852
G1 X133.228 Y135.656 E.6963
G1 X133.804 Y135.656 E.01852
G1 X149.115 Y120.344 E.6963
G1 X149.656 Y120.379 E.01743
G1 X134.379 Y135.656 E.69474
G1 X134.955 Y135.656 E.01852
G1 X149.656 Y120.955 E.66854
G1 X149.656 Y121.531 E.01852
G1 X135.531 Y135.656 E.64235
G1 X136.106 Y135.656 E.01849
G1 X149.656 Y122.106 E.6162
G1 X149.656 Y122.682 E.01852
G1 X136.682 Y135.656 E.59
G1 X137.258 Y135.656 E.01852
G1 X149.656 Y123.258 E.56381
G1 X149.656 Y123.833 E.01849
G1 X137.833 Y135.656 E.53766
G1 X138.409 Y135.656 E.01852
G1 X149.656 Y124.409 E.51147
G1 X149.656 Y124.985 E.01852
G1 X138.985 Y135.656 E.48527
G1 X139.561 Y135.656 E.01852
G1 X149.656 Y125.561 E.45908
G1 X149.656 Y126.136 E.01849
G1 X140.136 Y135.656 E.43293
G1 X140.712 Y135.656 E.01852
G1 X149.656 Y126.712 E.40674
G1 X149.656 Y127.288 E.01852
G1 X141.288 Y135.656 E.38054
G1 X141.863 Y135.656 E.01849
G1 X149.656 Y127.863 E.35439
G1 X149.656 Y128.439 E.01852
G1 X142.439 Y135.656 E.3282
G1 X143.015 Y135.656 E.01852
G1 X149.656 Y129.015 E.30201
G1 X149.656 Y129.59 E.01849
G1 X143.59 Y135.656 E.27586
G1 X144.166 Y135.656 E.01852
G1 X149.656 Y130.166 E.24966
G1 X149.656 Y130.742 E.01852
G1 X144.742 Y135.656 E.22347
G1 X145.318 Y135.656 E.01852
G1 X149.656 Y131.318 E.19727
G1 X149.656 Y131.893 E.01849
G1 X145.893 Y135.656 E.17113
G1 X146.469 Y135.656 E.01852
G1 X149.656 Y132.469 E.14493
G1 X149.656 Y133.045 E.01852
G1 X147.045 Y135.656 E.11874
G1 X147.62 Y135.656 E.01849
G1 X149.656 Y133.62 E.09259
G1 X149.656 Y135.656 E.06547
G1 X148.196 Y135.656 E.04695
G1 X149.512 Y134.34 E.05985
G1 X149.282 Y135.214 F9000
;WIDTH:0.490816
G1 F3600
G1 X149.243 Y135.174 E.00198
G1 X149.188 Y135.188 E.00201
G1 X149.174 Y135.243 E.00201
G1 X149.214 Y135.282 E.00198
G1 X149.268 Y135.268 E.00197
;LAYER_CHANGE
;Z:0.6
;HEIGHT:0.2
;BEFORE_LAYER_CHANGE
;0.6

G1 E-.8 F2100
G1 Z.6 F9000
;AFTER_LAYER_CHANGE
;0.6

G1 Z1
G1 X106.039 Y135.961
G1 Z.6
G1 E.8 F2100
;TYPE:Perimeter
;WIDTH:0.449999
G1 F3600
G1 X106.039 Y120.039 E.51199
G1 X149.961 Y120.039 E1.41237
G1 X149.961 Y128 E.256
G1 X149.961 Y135.961 E.256
G1 X106.099 Y135.961 E1.41044
G1 X105.632 Y136.368 F9000
G1 F3600
G1 X105.632 Y119.632 E.53817
G1 X150.368 Y119.632 E1.43855
G1 X150.368 Y128 E.26908
G1 X150.368 Y136.368 E.26908
G1 X105.692 Y136.368 E1.43662
G1 X105.225 Y136.775 F9000
;TYPE:External perimeter
G1 F1800
G1 X105.225 Y119.225 E.56434
G1 X150.775 Y119.225 E1.46472
