; generated by PrusaSlicer 2.9.1 on 2026-02-14 at 04:47:15 UTC

; 

; external perimeters extrusion width = 0.45mm
; perimeters extrusion width = 0.45mm
; infill extrusion width = 0.45mm
; solid infill extrusion width = 0.45mm
; top infill extrusion width = 0.40mm
; first layer extrusion width = 0.45mm

;TYPE:Custom
;Elegoo Centauri Carbon - Start G-code
M140 S80 ; set bed temp
M104 S150 ; preheat nozzle to 150 (prevent ooze)
G28 ; home all axes
G29 ; auto bed leveling (if configured in Klipper)
M190 S80 ; wait for bed temp
G1 Z5 F3000 ; move nozzle up
M109 S240 ; wait for nozzle temp
; Prime line
G92 E0
G1 X5 Y5 F3000
G1 Z0.3 F1500
G1 X5 Y150 E15 F1500 ; draw prime line
G1 X5.4 Y150 F5000
G1 X5.4 Y5 E30 F1500 ; draw second prime line
G92 E0
G1 Z2 F3000 ; lift nozzle
;End of start G-code
G21 ; set units to millimeters
G90 ; use absolute coordinates
M83 ; use relative distances for extrusion
; Filament gcode
M107
;LAYER_CHANGE
;Z:0.2
;HEIGHT:0.2
G1 E-.8 F2100
G1 Z.6 F9000
G1 X113.321 Y115.32
G1 Z.2
G1 E.8 F2100
;TYPE:Skirt/Brim
;WIDTH:0.45
G1 F1500
G1 X115.009 Y114.192 E.06528
G1 X117 Y113.796 E.06528
G1 X139 Y113.796 E.70744
G1 X140.991 Y114.193 E.06528
G1 X142.68 Y115.321 E.06531
G1 X143.808 Y117.009 E.06528
G1 X144.204 Y119 E.06528
G1 X144.204 Y137 E.57881
G1 X143.807 Y138.991 E.06528
G1 X142.679 Y140.68 E.06531
G1 X140.991 Y141.808 E.06528
G1 X139 Y142.204 E.06528
G1 X117 Y142.204 E.70744
G1 X115.009 Y141.807 E.06528
G1 X113.32 Y140.679 E.06531
G1 X112.192 Y138.991 E.06528
G1 X111.796 Y137 E.06528
G1 X111.796 Y119 E.57881
G1 X112.193 Y117.009 E.06528
G1 X113.287 Y115.37 E.06337
G1 E-.8 F2100
G1 Z.6 F9000
G1 X118.239 Y120.239
G1 Z.2
G1 E.8 F2100
;TYPE:Perimeter
;WIDTH:0.449999
G1 F1500
G1 X137.761 Y120.239 E.62776
G1 X137.761 Y128 E.24957
G1 X137.761 Y135.761 E.24957
G1 X118.239 Y135.761 E.62776
G1 X118.239 Y120.299 E.4972
G1 X117.832 Y119.832 F9000
G1 F1500
G1 X138.168 Y119.832 E.65393
G1 X138.168 Y128 E.26265
G1 X138.168 Y136.168 E.26265
G1 X117.832 Y136.168 E.65393
G1 X117.832 Y119.892 E.52338
G1 X117.425 Y119.425 F9000
;TYPE:External perimeter
G1 F1500
G1 X138.575 Y119.425 E.68011
G1 X138.575 Y128 E.27574
G1 X138.575 Y136.575 E.27574
G1 X117.425 Y136.575 E.68011
G1 X117.425 Y119.485 E.54955
G1 X117.821 Y119.426 F9000
G1 E-.8 F2100
G1 Z.6 F9000
G1 X137.639 Y121.187
G1 Z.2
G1 E.8 F2100
;TYPE:Solid infill
;WIDTH:0.451112
G1 F1500
G1 X136.997 Y120.544 E.0293
G1 X136.419 Y120.544 E.01864
G1 X137.456 Y121.581 E.04729
G1 X137.456 Y122.158 E.0186
G1 X135.842 Y120.544 E.0736
G1 X135.265 Y120.544 E.0186
G1 X137.456 Y122.735 E.09991
G1 X137.456 Y123.312 E.0186
G1 X134.688 Y120.544 E.12622
G1 X134.11 Y120.544 E.01864
G1 X137.456 Y123.89 E.15258
G1 X137.456 Y124.467 E.0186
G1 X133.533 Y120.544 E.17889
G1 X132.956 Y120.544 E.0186
G1 X137.456 Y125.044 E.2052
G1 X137.456 Y125.622 E.01864
G1 X132.378 Y120.544 E.23156
G1 X131.801 Y120.544 E.0186
G1 X137.456 Y126.199 E.25787
G1 X137.456 Y126.776 E.0186
G1 X131.224 Y120.544 E.28418
G1 X130.647 Y120.544 E.0186
G1 X137.456 Y127.353 E.31049
G1 X137.456 Y127.931 E.01864
G1 X130.069 Y120.544 E.33685
G1 X129.492 Y120.544 E.0186
G1 X137.456 Y128.508 E.36316
G1 X137.456 Y129.085 E.0186
G1 X128.915 Y120.544 E.38947
G1 X128.338 Y120.544 E.0186
G1 X137.456 Y129.662 E.41578
G1 X137.456 Y130.24 E.01864
G1 X127.76 Y120.544 E.44214
G1 X127.183 Y120.544 E.0186
G1 X137.456 Y130.817 E.46845
G1 X137.456 Y131.394 E.0186
G1 X126.606 Y120.544 E.49476
G1 X126.028 Y120.544 E.01864
G1 X137.456 Y131.972 E.52112
G1 X137.456 Y132.549 E.0186
G1 X125.451 Y120.544 E.54743
G1 X124.874 Y120.544 E.0186
G1 X137.456 Y133.126 E.57374
G1 X137.456 Y133.703 E.0186
G1 X124.297 Y120.544 E.60005
G1 X123.719 Y120.544 E.01864
G1 X137.456 Y134.281 E.62641
G1 X137.456 Y134.858 E.0186
G1 X123.142 Y120.544 E.65272
G1 X122.565 Y120.544 E.0186
G1 X137.456 Y135.435 E.67903
G1 X137.456 Y135.456 E.00068
G1 X136.899 Y135.456 E.01796
G1 X121.988 Y120.544 E.67997
G1 X121.41 Y120.544 E.01864
G1 X136.321 Y135.456 E.67997
G1 X135.744 Y135.456 E.0186
G1 X120.833 Y120.544 E.67997
G1 X120.256 Y120.544 E.0186
G1 X135.167 Y135.456 E.67997
G1 X134.59 Y135.456 E.0186
G1 X119.679 Y120.544 E.67997
G1 X119.101 Y120.544 E.01864
G1 X134.012 Y135.456 E.67997
G1 X133.435 Y135.456 E.0186
G1 X118.544 Y120.565 E.67903
G1 X118.544 Y121.142 E.0186
G1 X132.858 Y135.456 E.65272
G1 X132.281 Y135.456 E.0186
G1 X118.544 Y121.72 E.62639
G1 X118.544 Y122.297 E.0186
G1 X131.703 Y135.456 E.60005
G1 X131.126 Y135.456 E.0186
G1 X118.544 Y122.874 E.57374
G1 X118.544 Y123.451 E.0186
G1 X130.549 Y135.456 E.54743
G1 X129.971 Y135.456 E.01864
G1 X118.544 Y124.029 E.52107
G1 X118.544 Y124.606 E.0186
G1 X129.394 Y135.456 E.49476
G1 X128.817 Y135.456 E.0186
G1 X118.544 Y125.183 E.46845
G1 X118.544 Y125.76 E.0186
G1 X128.24 Y135.456 E.44214
G1 X127.662 Y135.456 E.01864
G1 X118.544 Y126.338 E.41578
G1 X118.544 Y126.915 E.0186
G1 X127.085 Y135.456 E.38947
G1 X126.508 Y135.456 E.0186
G1 X118.544 Y127.492 E.36316
G1 X118.544 Y128.069 E.0186
G1 X125.931 Y135.456 E.33685
G1 X125.353 Y135.456 E.01864
G1 X118.544 Y128.647 E.31049
G1 X118.544 Y129.224 E.0186
G1 X124.776 Y135.456 E.28418
G1 X124.199 Y135.456 E.0186
G1 X118.544 Y129.801 E.25787
G1 X118.544 Y130.379 E.01864
G1 X123.621 Y135.456 E.23151
G1 X123.044 Y135.456 E.0186
G1 X118.544 Y130.956 E.2052
G1 X118.544 Y131.533 E.0186
G1 X122.467 Y135.456 E.17889
G1 X121.89 Y135.456 E.0186
G1 X118.544 Y132.11 E.15258
G1 X118.544 Y132.688 E.01864
G1 X121.312 Y135.456 E.12622
G1 X120.735 Y135.456 E.0186
G1 X118.544 Y133.265 E.09991
G1 X118.544 Y133.842 E.0186
G1 X120.158 Y135.456 E.0736
G1 X119.581 Y135.456 E.0186
G1 X118.544 Y134.419 E.04729
G1 X118.544 Y134.997 E.01864
G1 X119.186 Y135.639 E.02928
;LAYER_CHANGE
;Z:0.4
;HEIGHT:0.2
;BEFORE_LAYER_CHANGE
;0.4

G1 E-.8 F2100
G1 Z.4 F9000
;AFTER_LAYER_CHANGE
;0.4

M104 S235 ; set temperature
M140 S75 ; set bed temperature
G1 Z.8
G1 X118.039 Y120.039
G1 Z.4
G1 E.8 F2100
;TYPE:Perimeter
;WIDTH:0.449999
G1 F3600
G1 X137.961 Y120.039 E.64062
G1 X137.961 Y128 E.256
G1 X137.961 Y135.961 E.256
G1 X118.039 Y135.961 E.64062
G1 X118.039 Y120.099 E.51006
G1 X117.632 Y119.632 F9000
G1 F3600
G1 X138.368 Y119.632 E.66679
G1 X138.368 Y128 E.26908
G1 X138.368 Y136.368 E.26908
G1 X117.632 Y136.368 E.66679
G1 X117.632 Y119.692 E.53624
G1 X117.225 Y119.225 F9000
;TYPE:External perimeter
G1 F1800
G1 X138.775 Y119.225 E.69297
G1 X138.775 Y128 E.28217
G1 X138.775 Y136.775 E.28217
G1 X117.225 Y136.775 E.69297
G1 X117.225 Y119.285 E.56241
G1 X117.621 Y119.226 F9000
G1 X118.455 Y120.377
;TYPE:Solid infill
;WIDTH:0.548766
G1 F3600
G1 X118.41 Y120.333 E.00251
G1 X118.349 Y120.349 E.00252
G1 X118.333 Y120.41 E.00252
G1 X118.377 Y120.455 E.00251
G1 X118.439 Y120.439 E.00256
;WIDTH:0.449999
G1 X119.089 Y120.344 E.02112
G1 X118.278 Y121.161 E.03702
;WIDTH:0.41646
G1 X118.212 Y121.234 E.0029
;WIDTH:0.38292
G1 X118.141 Y121.215 E.00197
G1 X118.16 Y121.286 E.00197
G1 X118.201 Y121.275 E.00114
;WIDTH:0.449999
G1 X118.344 Y121.664 E.01333
G1 X119.664 Y120.344 E.06003
G1 X120.24 Y120.344 E.01852
G1 X118.344 Y122.24 E.08622
G1 X118.344 Y122.816 E.01852
G1 X120.816 Y120.344 E.11242
G1 X121.392 Y120.344 E.01852
G1 X118.344 Y123.392 E.13861
G1 X118.344 Y123.967 E.01849
G1 X121.967 Y120.344 E.16476
G1 X122.543 Y120.344 E.01852
G1 X118.344 Y124.543 E.19095
G1 X118.344 Y125.119 E.01852
G1 X123.119 Y120.344 E.21715
G1 X123.694 Y120.344 E.01849
G1 X118.344 Y125.694 E.2433
G1 X118.344 Y126.27 E.01852
G1 X124.27 Y120.344 E.26949
G1 X124.846 Y120.344 E.01852
G1 X118.344 Y126.846 E.29568
G1 X118.344 Y127.421 E.01849
G1 X125.421 Y120.344 E.32183
G1 X125.997 Y120.344 E.01852
G1 X118.344 Y127.997 E.34803
G1 X118.344 Y128.573 E.01852
G1 X126.573 Y120.344 E.37422
G1 X127.149 Y120.344 E.01852
G1 X118.344 Y129.149 E.40042
G1 X118.344 Y129.724 E.01849
G1 X127.724 Y120.344 E.42656
G1 X128.3 Y120.344 E.01852
G1 X118.344 Y130.3 E.45276
G1 X118.344 Y130.876 E.01852
G1 X128.876 Y120.344 E.47895
G1 X129.451 Y120.344 E.01849
G1 X118.344 Y131.451 E.5051
G1 X118.344 Y132.027 E.01852
G1 X130.027 Y120.344 E.5313
G1 X130.603 Y120.344 E.01852
G1 X118.344 Y132.603 E.55749
G1 X118.344 Y133.178 E.01849
G1 X131.178 Y120.344 E.58364
G1 X131.754 Y120.344 E.01852
G1 X118.344 Y133.754 E.60983
G1 X118.344 Y134.33 E.01852
G1 X132.33 Y120.344 E.63603
G1 X132.906 Y120.344 E.01852
G1 X118.344 Y134.905 E.6622
G1 X118.274 Y135.786 F9000
;WIDTH:0.38292
G1 F3600
G1 X118.233 Y135.797 E.00114
G1 X118.214 Y135.726 E.00197
G1 X118.285 Y135.745 E.00197
;WIDTH:0.41646
G1 X118.315 Y135.613 E.00399
;WIDTH:0.449999
G1 X118.344 Y135.481 E.00435
G1 X133.481 Y120.344 E.68837
G1 X134.057 Y120.344 E.01852
G1 X118.746 Y135.656 E.6963
G1 X119.322 Y135.656 E.01852
G1 X134.633 Y120.344 E.6963
G1 X135.208 Y120.344 E.01849
G1 X119.897 Y135.656 E.6963
G1 X120.473 Y135.656 E.01852
G1 X135.784 Y120.344 E.6963
G1 X136.36 Y120.344 E.01852
G1 X121.049 Y135.656 E.6963
G1 X121.624 Y135.656 E.01849
G1 X136.935 Y120.344 E.6963
G1 X137.511 Y120.344 E.01852
G1 X122.2 Y135.656 E.6963
G1 X122.776 Y135.656 E.01852
G1 X137.656 Y120.776 E.67668
G1 X137.656 Y121.351 E.01849
G1 X123.351 Y135.656 E.65053
G1 X123.927 Y135.656 E.01852
G1 X137.656 Y121.927 E.62434
G1 X137.656 Y122.503 E.01852
G1 X124.503 Y135.656 E.59814
G1 X125.078 Y135.656 E.01849
G1 X137.656 Y123.078 E.572
G1 X137.656 Y123.654 E.01852
G1 X125.654 Y135.656 E.5458
G1 X126.23 Y135.656 E.01852
G1 X137.656 Y124.23 E.51961
G1 X137.656 Y124.806 E.01852
G1 X126.806 Y135.656 E.49341
G1 X127.381 Y135.656 E.01849
G1 X137.656 Y125.381 E.46726
G1 X137.656 Y125.957 E.01852
G1 X127.957 Y135.656 E.44107
G1 X128.533 Y135.656 E.01852
G1 X137.656 Y126.533 E.41488
G1 X137.656 Y127.108 E.01849
G1 X129.108 Y135.656 E.38873
G1 X129.684 Y135.656 E.01852
G1 X137.656 Y127.684 E.36253
G1 X137.656 Y128.26 E.01852
G1 X130.26 Y135.656 E.33634
G1 X130.835 Y135.656 E.01849
G1 X137.656 Y128.835 E.31019
G1 X137.656 Y129.411 E.01852
G1 X131.411 Y135.656 E.284
G1 X131.987 Y135.656 E.01852
G1 X137.656 Y129.987 E.2578
G1 X137.656 Y130.563 E.01852
G1 X132.563 Y135.656 E.23161
G1 X133.138 Y135.656 E.01849
G1 X137.656 Y131.138 E.20546
G1 X137.656 Y131.714 E.01852
G1 X133.714 Y135.656 E.17927
G1 X134.29 Y135.656 E.01852
G1 X137.656 Y132.29 E.15307
G1 X137.656 Y132.865 E.01849
G1 X134.865 Y135.656 E.12692
G1 X135.326 Y135.818 E.01571
;WIDTH:0.38292
G1 X135.255 Y135.799 E.00197
G1 X135.274 Y135.87 E.00197
G1 X135.315 Y135.859 E.00114
;WIDTH:0.41646
G1 X135.378 Y135.757 E.00354
;WIDTH:0.449999
G1 X135.441 Y135.656 E.00383
G1 X137.656 Y133.441 E.10073
G1 X137.757 Y133.378 E.00383
;WIDTH:0.41646
G1 X137.859 Y133.315 E.00354
;WIDTH:0.38292
G1 X137.818 Y133.326 E.00114
G1 X137.799 Y133.255 E.00197
G1 X137.87 Y133.274 E.00197
;WIDTH:0.449999
G1 X137.656 Y134.017 E.02486
G1 X137.656 Y135.656 E.0527
G1 X136.017 Y135.656 E.0527
G1 X137.512 Y134.161 E.06799
G1 X137.242 Y135.158 F9000
;WIDTH:0.595824
G1 F3600
G1 X137.193 Y135.109 E.00303
G1 X137.127 Y135.127 E.00299
G1 X137.109 Y135.193 E.00299
G1 X137.158 Y135.242 E.00303
G1 X137.224 Y135.224 E.00299
;LAYER_CHANGE
;Z:0.6
;HEIGHT:0.2
;BEFORE_LAYER_CHANGE
;0.6

G1 E-.8 F2100
G1 Z.6 F9000
;AFTER_LAYER_CHANGE
;0.6

G1 Z1
G1 X118.039 Y120.039
G1 Z.6
G1 E.8 F2100
;TYPE:Perimeter
;WIDTH:0.449999
G1 F3600
G1 X137.961 Y120.039 E.64062
G1 X137.961 Y128 E.256
G1 X137.961 Y135.961 E.256
G1 X118.039 Y135.961 E.64062
G1 X118.039 Y120.099 E.51006
G1 X117.632 Y119.632 F9000
G1 F3600
G1 X138.368 Y119.632 E.66679
G1 X138.368 Y128 E.26908
G1 X138.368 Y136.368 E.26908
G1 X117.632 Y136.368 E.66679
G1 X117.632 Y119.692 E.53624
G1 X117.225 Y119.225 F9000
;TYPE:External perimeter
G1 F1800
G1 X138.775 Y119.225 E.69297
G1 X138.775 Y128 E.28217
G1 X138.775 Y136.775 E.28217
G1 X117.225 Y136.775 E.69297
G1 X117.225 Y119.285 E.56241
G1 X117.621 Y119.226 F9000
G1 E-.8 F2100
G1 Z1 F9000
G1 X118.377 Y135.545
G1 Z.6
G1 E.8 F2100
;TYPE:Solid infill
;WIDTH:0.548766
G1 F3600
G1 X118.333 Y135.59 E.00251
G1 X118.349 Y135.651 E.00252
G1 X118.41 Y135.667 E.00252
G1 X118.455 Y135.623 E.00251
G1 X118.439 Y135.561 E.00256
G1 X119.234 Y135.788 F9000
;WIDTH:0.38292
G1 F3600
G1 X119.215 Y135.859 E.00197
G1 X119.286 Y135.84 E.00197
G1 X119.275 Y135.799 E.00114
;WIDTH:0.41646
G1 X119.182 Y135.727 E.00347
;WIDTH:0.449999
G1 X119.089 Y135.656 E.00376
G1 X118.344 Y134.911 E.03388
G1 X118.273 Y134.818 E.00376
;WIDTH:0.41646
G1 X118.201 Y134.725 E.00347
;WIDTH:0.38292
G1 X118.212 Y134.766 E.00114
G1 X118.141 Y134.785 E.00197
G1 X118.16 Y134.714 E.00197
;WIDTH:0.449999
G1 X118.344 Y134.336 E.01352
G1 X119.664 Y135.656 E.06003
G1 X120.24 Y135.656 E.01852
G1 X118.344 Y133.76 E.08622
G1 X118.344 Y133.184 E.01852
G1 X120.816 Y135.656 E.11242
G1 X121.392 Y135.656 E.01852
G1 X118.344 Y132.608 E.13861
G1 X118.344 Y132.033 E.01849
G1 X121.967 Y135.656 E.16476
G1 X122.543 Y135.656 E.01852
G1 X118.344 Y131.457 E.19095
G1 X118.344 Y130.881 E.01852
G1 X123.119 Y135.656 E.21715
G1 X123.694 Y135.656 E.01849
G1 X118.344 Y130.306 E.2433
G1 X118.344 Y129.73 E.01852
G1 X124.27 Y135.656 E.26949
G1 X124.846 Y135.656 E.01852
G1 X118.344 Y129.154 E.29568
G1 X118.344 Y128.579 E.01849
G1 X125.421 Y135.656 E.32183
G1 X125.997 Y135.656 E.01852
G1 X118.344 Y128.003 E.34803
G1 X118.344 Y127.427 E.01852
G1 X126.573 Y135.656 E.37422
G1 X127.149 Y135.656 E.01852
G1 X118.344 Y126.851 E.40042
G1 X118.344 Y126.276 E.01849
G1 X127.724 Y135.656 E.42656
G1 X128.3 Y135.656 E.01852
G1 X118.344 Y125.7 E.45276
G1 X118.344 Y125.124 E.01852
G1 X128.876 Y135.656 E.47895
G1 X129.451 Y135.656 E.01849
G1 X118.344 Y124.549 E.5051
G1 X118.344 Y123.973 E.01852
G1 X130.027 Y135.656 E.5313
G1 X130.603 Y135.656 E.01852
G1 X118.344 Y123.397 E.55749
G1 X118.344 Y122.822 E.01849
G1 X131.178 Y135.656 E.58364
G1 X131.754 Y135.656 E.01852
G1 X118.344 Y122.246 E.60983
G1 X118.344 Y121.67 E.01852
G1 X132.33 Y135.656 E.63603
G1 X132.906 Y135.656 E.01852
G1 X118.344 Y121.095 E.6622
G1 X118.233 Y120.203 F9000
;WIDTH:0.38292
G1 F3600
G1 X118.214 Y120.274 E.00197
G1 X118.285 Y120.255 E.00197
G1 X118.274 Y120.214 E.00114
;WIDTH:0.41646
G1 X118.309 Y120.366 E.0046
;WIDTH:0.449999
G1 X118.344 Y120.519 E.00505
G1 X133.481 Y135.656 E.68837
G1 X134.057 Y135.656 E.01852
G1 X118.746 Y120.344 E.6963
G1 X119.322 Y120.344 E.01852
G1 X134.633 Y135.656 E.6963
G1 X135.208 Y135.656 E.01849
G1 X119.897 Y120.344 E.6963
G1 X120.473 Y120.344 E.01852
G1 X135.784 Y135.656 E.6963
G1 X136.36 Y135.656 E.01852
G1 X121.049 Y120.344 E.6963
G1 X121.624 Y120.344 E.01849
G1 X136.935 Y135.656 E.6963
G1 X137.795 Y135.735 F9000
;WIDTH:0.38292
G1 F3600
G1 X137.806 Y135.776 E.00114
G1 X137.735 Y135.795 E.00197
G1 X137.754 Y135.724 E.00197
;WIDTH:0.41646
G1 X137.633 Y135.69 E.00371
;WIDTH:0.449999
G1 X137.511 Y135.656 E.00407
G1 X122.2 Y120.344 E.6963
G1 X122.776 Y120.344 E.01852
G1 X137.656 Y135.224 E.67668
G1 X137.656 Y134.649 E.01849
G1 X123.351 Y120.344 E.65053
G1 X123.927 Y120.344 E.01852
G1 X137.656 Y134.073 E.62434
G1 X137.656 Y133.497 E.01852
G1 X124.503 Y120.344 E.59814
G1 X125.078 Y120.344 E.01849
G1 X137.656 Y132.922 E.572
G1 X137.656 Y132.346 E.01852
G1 X125.654 Y120.344 E.5458
G1 X126.23 Y120.344 E.01852
G1 X137.656 Y131.77 E.51961
G1 X137.656 Y131.194 E.01852
G1 X126.806 Y120.344 E.49341
G1 X127.381 Y120.344 E.01849
G1 X137.656 Y130.619 E.46726
G1 X137.656 Y130.043 E.01852
G1 X127.957 Y120.344 E.44107
G1 X128.533 Y120.344 E.01852
G1 X137.656 Y129.467 E.41488
G1 X137.656 Y128.892 E.01849
G1 X129.108 Y120.344 E.38873
G1 X129.684 Y120.344 E.01852
G1 X137.656 Y128.316 E.36253
G1 X137.656 Y127.74 E.01852
G1 X130.26 Y120.344 E.33634
G1 X130.835 Y120.344 E.01849
G1 X137.656 Y127.165 E.31019
G1 X137.656 Y126.589 E.01852
G1 X131.411 Y120.344 E.284
G1 X131.987 Y120.344 E.01852
G1 X137.656 Y126.013 E.2578
G1 X137.656 Y125.437 E.01852
G1 X132.563 Y120.344 E.23161
G1 X133.138 Y120.344 E.01849
G1 X137.656 Y124.862 E.20546
G1 X137.656 Y124.286 E.01852
G1 X133.714 Y120.344 E.17927
G1 X134.29 Y120.344 E.01852
G1 X137.656 Y123.71 E.15307
G1 X137.656 Y123.135 E.01849
G1 X134.865 Y120.344 E.12692
G1 X135.441 Y120.344 E.01852
G1 X137.656 Y122.559 E.10073
G1 X137.737 Y122.617 E.0032
