; generated by PrusaSlicer 2.9.1 on 2026-02-14 at 04:47:16 UTC

; 

; external perimeters extrusion width = 0.45mm
; perimeters extrusion width = 0.45mm
; infill extrusion width = 0.45mm
; solid infill extrusion width = 0.45mm
; top infill extrusion width = 0.40mm
; first layer extrusion width = 0.45mm

;TYPE:Custom
;Elegoo Centauri Carbon - Start G-code
M140 S80 ; set bed temp
M104 S150 ; preheat nozzle to 150 (prevent ooze)
G28 ; home all axes
G29 ; auto bed leveling (if configured in Klipper)
M190 S80 ; wait for bed temp
G1 Z5 F3000 ; move nozzle up
M109 S240 ; wait for nozzle temp
; Prime line
G92 E0
G1 X5 Y5 F3000
G1 Z0.3 F1500
G1 X5 Y150 E15 F1500 ; draw prime line
G1 X5.4 Y150 F5000
G1 X5.4 Y5 E30 F1500 ; draw second prime line
G92 E0
G1 Z2 F3000 ; lift nozzle
;End of start G-code
G21 ; set units to millimeters
G90 ; use absolute coordinates
M83 ; use relative distances for extrusion
; Filament gcode
M107
;LAYER_CHANGE
;Z:0.2
;HEIGHT:0.2
G1 E-.8 F2100
G1 Z.6 F9000
G1 X107.321 Y115.32
G1 Z.2
G1 E.8 F2100
;TYPE:Skirt/Brim
;WIDTH:0.45
G1 F1500
G1 X109.009 Y114.192 E.06528
G1 X111 Y113.796 E.06528
G1 X145 Y113.796 E1.09332
G1 X146.991 Y114.193 E.06528
G1 X148.68 Y115.321 E.06531
G1 X149.808 Y117.009 E.06528
G1 X150.204 Y119 E.06528
G1 X150.204 Y137 E.57881
G1 X149.807 Y138.991 E.06528
G1 X148.679 Y140.68 E.06531
G1 X146.991 Y141.808 E.06528
G1 X145 Y142.204 E.06528
G1 X111 Y142.204 E1.09332
G1 X109.009 Y141.807 E.06528
G1 X107.32 Y140.679 E.06531
G1 X106.192 Y138.991 E.06528
G1 X105.796 Y137 E.06528
G1 X105.796 Y119 E.57881
G1 X106.193 Y117.009 E.06528
G1 X107.287 Y115.37 E.06337
G1 E-.8 F2100
G1 Z.6 F9000
G1 X112.239 Y135.761
G1 Z.2
G1 E.8 F2100
;TYPE:Perimeter
;WIDTH:0.449999
G1 F1500
G1 X112.239 Y120.239 E.49913
G1 X143.761 Y120.239 E1.01363
G1 X143.761 Y128 E.24957
G1 X143.761 Y135.761 E.24957
G1 X112.299 Y135.761 E1.0117
G1 X111.832 Y136.168 F9000
G1 F1500
G1 X111.832 Y119.832 E.52531
G1 X144.168 Y119.832 E1.03981
G1 X144.168 Y128 E.26265
G1 X144.168 Y136.168 E.26265
G1 X111.892 Y136.168 E1.03788
G1 X111.425 Y136.575 F9000
;TYPE:External perimeter
G1 F1500
G1 X111.425 Y119.425 E.55148
G1 X144.575 Y119.425 E1.06598
G1 X144.575 Y128 E.27574
G1 X144.575 Y136.575 E.27574
G1 X111.485 Y136.575 E1.06405
G1 X111.426 Y136.179 F9000
G1 E-.8 F2100
G1 Z.6 F9000
G1 X143.639 Y121.184
G1 Z.2
G1 E.8 F2100
;TYPE:Solid infill
;WIDTH:0.450041
G1 F1500
G1 X142.999 Y120.544 E.02911
G1 X142.423 Y120.544 E.01852
G1 X143.456 Y121.577 E.04698
G1 X143.456 Y122.153 E.01852
G1 X141.847 Y120.544 E.07318
G1 X141.272 Y120.544 E.01849
G1 X143.456 Y122.728 E.09933
G1 X143.456 Y123.304 E.01852
G1 X140.696 Y120.544 E.12553
G1 X140.12 Y120.544 E.01852
G1 X143.456 Y123.88 E.15172
G1 X143.456 Y124.456 E.01852
G1 X139.544 Y120.544 E.17792
G1 X138.969 Y120.544 E.01849
G1 X143.456 Y125.031 E.20407
G1 X143.456 Y125.607 E.01852
G1 X138.393 Y120.544 E.23027
G1 X137.817 Y120.544 E.01852
G1 X143.456 Y126.183 E.25647
G1 X143.456 Y126.759 E.01852
G1 X137.241 Y120.544 E.28266
G1 X136.666 Y120.544 E.01849
G1 X143.456 Y127.334 E.30881
G1 X143.456 Y127.91 E.01852
G1 X136.09 Y120.544 E.33501
G1 X135.514 Y120.544 E.01852
G1 X143.456 Y128.486 E.36121
G1 X143.456 Y129.062 E.01852
G1 X134.938 Y120.544 E.3874
G1 X134.363 Y120.544 E.01849
G1 X143.456 Y129.637 E.41356
G1 X143.456 Y130.213 E.01852
G1 X133.787 Y120.544 E.43975
G1 X133.211 Y120.544 E.01852
G1 X143.456 Y130.789 E.46595
G1 X143.456 Y131.365 E.01852
G1 X132.635 Y120.544 E.49215
G1 X132.06 Y120.544 E.01849
G1 X143.456 Y131.94 E.5183
G1 X143.456 Y132.516 E.01852
G1 X131.484 Y120.544 E.54449
G1 X130.908 Y120.544 E.01852
G1 X143.456 Y133.092 E.57069
G1 X143.456 Y133.668 E.01852
G1 X130.332 Y120.544 E.59689
G1 X129.757 Y120.544 E.01849
G1 X143.456 Y134.243 E.62304
G1 X143.456 Y134.819 E.01852
G1 X129.181 Y120.544 E.64924
G1 X128.605 Y120.544 E.01852
G1 X143.456 Y135.395 E.67543
G1 X143.456 Y135.456 E.00196
G1 X142.94 Y135.456 E.01659
G1 X128.029 Y120.544 E.67818
G1 X127.453 Y120.544 E.01852
G1 X142.365 Y135.456 E.67821
G1 X141.789 Y135.456 E.01852
G1 X126.878 Y120.544 E.67818
G1 X126.302 Y120.544 E.01852
G1 X141.213 Y135.456 E.67818
G1 X140.637 Y135.456 E.01852
G1 X125.726 Y120.544 E.67818
G1 X125.15 Y120.544 E.01852
G1 X140.062 Y135.456 E.67821
G1 X139.486 Y135.456 E.01852
G1 X124.575 Y120.544 E.67818
G1 X123.999 Y120.544 E.01852
G1 X138.91 Y135.456 E.67818
G1 X138.334 Y135.456 E.01852
G1 X123.423 Y120.544 E.67818
G1 X122.847 Y120.544 E.01852
G1 X137.759 Y135.456 E.67821
G1 X137.183 Y135.456 E.01852
G1 X122.272 Y120.544 E.67818
G1 X121.696 Y120.544 E.01852
G1 X136.607 Y135.456 E.67818
G1 X136.031 Y135.456 E.01852
G1 X121.12 Y120.544 E.67818
G1 X120.544 Y120.544 E.01852
G1 X135.455 Y135.456 E.67818
G1 X134.88 Y135.456 E.01849
G1 X119.969 Y120.544 E.67818
G1 X119.393 Y120.544 E.01852
G1 X134.304 Y135.456 E.67818
G1 X133.728 Y135.456 E.01852
G1 X118.817 Y120.544 E.67818
G1 X118.241 Y120.544 E.01852
G1 X133.152 Y135.456 E.67818
G1 X132.577 Y135.456 E.01849
G1 X117.666 Y120.544 E.67818
G1 X117.09 Y120.544 E.01852
G1 X132.001 Y135.456 E.67818
G1 X131.425 Y135.456 E.01852
G1 X116.514 Y120.544 E.67818
G1 X115.938 Y120.544 E.01852
G1 X130.849 Y135.456 E.67818
G1 X130.274 Y135.456 E.01849
G1 X115.363 Y120.544 E.67818
G1 X114.787 Y120.544 E.01852
G1 X129.698 Y135.456 E.67818
G1 X129.122 Y135.456 E.01852
G1 X114.211 Y120.544 E.67818
G1 X113.635 Y120.544 E.01852
G1 X128.546 Y135.456 E.67818
G1 X127.971 Y135.456 E.01849
G1 X113.06 Y120.544 E.67818
G1 X112.544 Y120.544 E.01659
G1 X112.544 Y120.605 E.00196
G1 X127.395 Y135.456 E.67543
G1 X126.819 Y135.456 E.01852
G1 X112.544 Y121.181 E.64924
G1 X112.544 Y121.757 E.01852
G1 X126.243 Y135.456 E.62304
G1 X125.668 Y135.456 E.01849
G1 X112.544 Y122.332 E.59689
G1 X112.544 Y122.908 E.01852
G1 X125.092 Y135.456 E.57069
G1 X124.516 Y135.456 E.01852
G1 X112.544 Y123.484 E.54449
G1 X112.544 Y124.06 E.01852
G1 X123.94 Y135.456 E.5183
G1 X123.365 Y135.456 E.01849
G1 X112.544 Y124.635 E.49215
G1 X112.544 Y125.211 E.01852
G1 X122.789 Y135.456 E.46595
G1 X122.213 Y135.456 E.01852
G1 X112.544 Y125.787 E.43975
G1 X112.544 Y126.363 E.01852
G1 X121.637 Y135.456 E.41356
G1 X121.062 Y135.456 E.01849
G1 X112.544 Y126.938 E.3874
G1 X112.544 Y127.514 E.01852
G1 X120.486 Y135.456 E.36121
G1 X119.91 Y135.456 E.01852
G1 X112.544 Y128.09 E.33501
G1 X112.544 Y128.666 E.01852
G1 X119.334 Y135.456 E.30881
G1 X118.759 Y135.456 E.01849
G1 X112.544 Y129.241 E.28266
G1 X112.544 Y129.817 E.01852
G1 X118.183 Y135.456 E.25647
G1 X117.607 Y135.456 E.01852
G1 X112.544 Y130.393 E.23027
G1 X112.544 Y130.969 E.01852
G1 X117.031 Y135.456 E.20407
G1 X116.456 Y135.456 E.01849
G1 X112.544 Y131.544 E.17792
G1 X112.544 Y132.12 E.01852
G1 X115.88 Y135.456 E.15172
G1 X115.304 Y135.456 E.01852
G1 X112.544 Y132.696 E.12553
G1 X112.544 Y133.272 E.01852
G1 X114.728 Y135.456 E.09933
G1 X114.153 Y135.456 E.01849
G1 X112.544 Y133.847 E.07318
G1 X112.544 Y134.423 E.01852
G1 X113.577 Y135.456 E.04698
G1 X113.001 Y135.456 E.01852
G1 X112.361 Y134.816 E.02911
;LAYER_CHANGE
;Z:0.4
;HEIGHT:0.2
;BEFORE_LAYER_CHANGE
;0.4

G1 Z.4 F9000
;AFTER_LAYER_CHANGE
;0.4

M104 S235 ; set temperature
M140 S75 ; set bed temperature
G1 Z.4
G1 X112.039 Y135.961
;TYPE:Perimeter
;WIDTH:0.449999
G1 F3600
G1 X112.039 Y120.039 E.51199
G1 X143.961 Y120.039 E1.02649
G1 X143.961 Y128 E.256
G1 X143.961 Y135.961 E.256
G1 X112.099 Y135.961 E1.02456
G1 X111.632 Y136.368 F9000
G1 F3600
G1 X111.632 Y119.632 E.53817
G1 X144.368 Y119.632 E1.05267
G1 X144.368 Y128 E.26908
G1 X144.368 Y136.368 E.26908
G1 X111.692 Y136.368 E1.05074
G1 X111.225 Y136.775 F9000
;TYPE:External perimeter
G1 F1800
G1 X111.225 Y119.225 E.56434
G1 X144.775 Y119.225 E1.07884
G1 X144.775 Y128 E.28217
G1 X144.775 Y136.775 E.28217
G1 X111.285 Y136.775 E1.07692
G1 X111.226 Y136.379 F9000
G1 E-.8 F2100
G1 Z.8 F9000
G1 X112.455 Y120.377
G1 Z.4
G1 E.8 F2100
;TYPE:Solid infill
;WIDTH:0.548766
G1 F3600
G1 X112.41 Y120.333 E.00251
G1 X112.349 Y120.349 E.00252
G1 X112.333 Y120.41 E.00252
G1 X112.377 Y120.455 E.00251
G1 X112.439 Y120.439 E.00256
;WIDTH:0.449999
G1 X113.089 Y120.344 E.02112
G1 X112.278 Y121.161 E.03702
;WIDTH:0.41646
G1 X112.212 Y121.234 E.0029
;WIDTH:0.38292
G1 X112.141 Y121.215 E.00197
G1 X112.16 Y121.286 E.00197
G1 X112.201 Y121.275 E.00114
;WIDTH:0.449999
G1 X112.344 Y121.664 E.01333
G1 X113.664 Y120.344 E.06003
G1 X114.24 Y120.344 E.01852
G1 X112.344 Y122.24 E.08622
G1 X112.344 Y122.816 E.01852
G1 X114.816 Y120.344 E.11242
G1 X115.392 Y120.344 E.01852
G1 X112.344 Y123.392 E.13861
G1 X112.344 Y123.967 E.01849
G1 X115.967 Y120.344 E.16476
G1 X116.543 Y120.344 E.01852
G1 X112.344 Y124.543 E.19095
G1 X112.344 Y125.119 E.01852
G1 X117.119 Y120.344 E.21715
G1 X117.694 Y120.344 E.01849
G1 X112.344 Y125.694 E.2433
G1 X112.344 Y126.27 E.01852
G1 X118.27 Y120.344 E.26949
G1 X118.846 Y120.344 E.01852
G1 X112.344 Y126.846 E.29568
G1 X112.344 Y127.421 E.01849
G1 X119.421 Y120.344 E.32183
G1 X119.997 Y120.344 E.01852
G1 X112.344 Y127.997 E.34803
G1 X112.344 Y128.573 E.01852
G1 X120.573 Y120.344 E.37422
G1 X121.149 Y120.344 E.01852
G1 X112.344 Y129.149 E.40042
G1 X112.344 Y129.724 E.01849
G1 X121.724 Y120.344 E.42656
G1 X122.3 Y120.344 E.01852
G1 X112.344 Y130.3 E.45276
G1 X112.344 Y130.876 E.01852
G1 X122.876 Y120.344 E.47895
G1 X123.451 Y120.344 E.01849
G1 X112.344 Y131.451 E.5051
G1 X112.344 Y132.027 E.01852
G1 X124.027 Y120.344 E.5313
G1 X124.603 Y120.344 E.01852
G1 X112.344 Y132.603 E.55749
G1 X112.344 Y133.178 E.01849
G1 X125.178 Y120.344 E.58364
G1 X125.754 Y120.344 E.01852
G1 X112.344 Y133.754 E.60983
G1 X112.344 Y134.33 E.01852
G1 X126.33 Y120.344 E.63603
G1 X126.906 Y120.344 E.01852
G1 X112.344 Y134.906 E.66222
G1 X112.274 Y135.786 F9000
;WIDTH:0.38292
G1 F3600
G1 X112.233 Y135.797 E.00114
G1 X112.214 Y135.726 E.00197
G1 X112.285 Y135.745 E.00197
;WIDTH:0.41646
G1 X112.315 Y135.613 E.00399
;WIDTH:0.449999
G1 X112.344 Y135.481 E.00435
G1 X127.481 Y120.344 E.68837
G1 X128.057 Y120.344 E.01852
G1 X112.746 Y135.656 E.6963
G1 X113.322 Y135.656 E.01852
G1 X128.633 Y120.344 E.6963
G1 X129.208 Y120.344 E.01849
G1 X113.897 Y135.656 E.6963
G1 X114.473 Y135.656 E.01852
G1 X129.784 Y120.344 E.6963
G1 X130.36 Y120.344 E.01852
G1 X115.049 Y135.656 E.6963
G1 X115.624 Y135.656 E.01849
G1 X130.935 Y120.344 E.6963
G1 X131.511 Y120.344 E.01852
G1 X116.2 Y135.656 E.6963
G1 X116.776 Y135.656 E.01852
G1 X132.087 Y120.344 E.6963
G1 X132.662 Y120.344 E.01849
G1 X117.351 Y135.656 E.6963
G1 X117.927 Y135.656 E.01852
G1 X133.238 Y120.344 E.6963
G1 X133.814 Y120.344 E.01852
G1 X118.503 Y135.656 E.6963
G1 X119.078 Y135.656 E.01849
G1 X134.39 Y120.344 E.69633
G1 X134.965 Y120.344 E.01849
G1 X119.654 Y135.656 E.6963
G1 X120.23 Y135.656 E.01852
G1 X135.541 Y120.344 E.6963
G1 X136.117 Y120.344 E.01852
G1 X120.806 Y135.656 E.6963
G1 X121.381 Y135.656 E.01849
G1 X136.692 Y120.344 E.6963
G1 X137.268 Y120.344 E.01852
G1 X121.957 Y135.656 E.6963
G1 X122.533 Y135.656 E.01852
G1 X137.844 Y120.344 E.6963
G1 X138.419 Y120.344 E.01849
G1 X123.108 Y135.656 E.6963
G1 X123.684 Y135.656 E.01852
G1 X138.995 Y120.344 E.6963
G1 X139.571 Y120.344 E.01852
G1 X124.26 Y135.656 E.6963
G1 X124.835 Y135.656 E.01849
G1 X140.147 Y120.344 E.69633
G1 X140.722 Y120.344 E.01849
G1 X125.411 Y135.656 E.6963
G1 X125.987 Y135.656 E.01852
G1 X141.298 Y120.344 E.6963
G1 X141.874 Y120.344 E.01852
G1 X126.563 Y135.656 E.6963
G1 X127.138 Y135.656 E.01849
G1 X142.449 Y120.344 E.6963
G1 X143.025 Y120.344 E.01852
G1 X127.714 Y135.656 E.6963
G1 X128.29 Y135.656 E.01852
G1 X143.601 Y120.344 E.6963
G1 X143.705 Y120.336 E.00335
;WIDTH:0.41646
G1 X143.809 Y120.327 E.00308
;WIDTH:0.38292
G1 X143.802 Y120.198 E.00347
;WIDTH:0.449999
G1 X143.656 Y120.865 E.02196
G1 X128.865 Y135.656 E.67263
G1 X129.441 Y135.656 E.01852
G1 X143.656 Y121.441 E.64644
G1 X143.656 Y122.017 E.01852
G1 X130.017 Y135.656 E.62025
G1 X130.592 Y135.656 E.01849
G1 X143.656 Y122.592 E.5941
G1 X143.656 Y123.168 E.01852
G1 X131.168 Y135.656 E.5679
G1 X131.744 Y135.656 E.01852
G1 X143.656 Y123.744 E.54171
G1 X143.656 Y124.32 E.01852
G1 X132.32 Y135.656 E.51551
G1 X132.895 Y135.656 E.01849
G1 X143.656 Y124.895 E.48937
G1 X143.656 Y125.471 E.01852
G1 X133.471 Y135.656 E.46317
G1 X134.047 Y135.656 E.01852
G1 X143.656 Y126.047 E.43698
G1 X143.656 Y126.622 E.01849
G1 X134.622 Y135.656 E.41083
G1 X135.198 Y135.656 E.01852
G1 X143.656 Y127.198 E.38464
G1 X143.656 Y127.774 E.01852
G1 X135.774 Y135.656 E.35844
G1 X136.349 Y135.656 E.01849
G1 X143.656 Y128.349 E.33229
G1 X143.656 Y128.925 E.01852
G1 X136.925 Y135.656 E.3061
G1 X137.501 Y135.656 E.01852
G1 X143.656 Y129.501 E.2799
G1 X143.656 Y130.076 E.01849
G1 X138.076 Y135.656 E.25376
G1 X138.652 Y135.656 E.01852
G1 X143.656 Y130.652 E.22756
G1 X143.656 Y131.228 E.01852
G1 X139.228 Y135.656 E.20137
G1 X139.804 Y135.656 E.01852
G1 X143.656 Y131.804 E.17517
G1 X143.656 Y132.379 E.01849
G1 X140.379 Y135.656 E.14902
G1 X140.955 Y135.656 E.01852
G1 X143.656 Y132.955 E.12283
G1 X143.656 Y133.531 E.01852
G1 X141.531 Y135.656 E.09664
G1 E-.8 F2100
G1 Z.8 F9000
G1 X143.512 Y134.25
G1 Z.4
G1 E.8 F2100
G1 F3600
G1 X142.106 Y135.656 E.06394
G1 X143.656 Y135.656 E.04984
G1 X143.656 Y134.106 E.04984
G1 X143.262 Y135.186 F9000
;WIDTH:0.54332
G1 F3600
G1 X143.218 Y135.141 E.00249
G1 X143.158 Y135.158 E.00247
G1 X143.141 Y135.218 E.00247
G1 X143.186 Y135.262 E.00249
G1 X143.246 Y135.246 E.00245
;LAYER_CHANGE
;Z:0.6
;HEIGHT:0.2
;BEFORE_LAYER_CHANGE
;0.6

G1 E-.8 F2100
G1 Z.6 F9000
;AFTER_LAYER_CHANGE
;0.6

G1 Z1
G1 X112.039 Y135.961
G1 Z.6
G1 E.8 F2100
;TYPE:Perimeter
;WIDTH:0.449999
G1 F3600
G1 X112.039 Y120.039 E.51199
G1 X143.961 Y120.039 E1.02649
G1 X143.961 Y128 E.256
G1 X143.961 Y135.961 E.256
G1 X112.099 Y135.961 E1.02456
G1 X111.632 Y136.368 F9000
G1 F3600
G1 X111.632 Y119.632 E.53817
G1 X144.368 Y119.632 E1.05267
G1 X144.368 Y128 E.26908
G1 X144.368 Y136.368 E.26908
G1 X111.692 Y136.368 E1.05074
G1 X111.225 Y136.775 F9000
;TYPE:External perimeter
G1 F1800
G1 X111.225 Y119.225 E.56434
G1 X144.775 Y119.225 E1.07884
G1 X144.775 Y128 E.28217
G1 X144.775 Y136.775 E.28217
G1 X111.285 Y136.775 E1.07692
G1 X111.226 Y136.379 F9000
G1 X112.377 Y135.545
;TYPE:Solid infill
;WIDTH:0.548766
G1 F3600
G1 X112.333 Y135.59 E.00251
G1 X112.349 Y135.651 E.00252
G1 X112.41 Y135.667 E.00252
G1 X112.455 Y135.623 E.00251
G1 X112.439 Y135.561 E.00256
;WIDTH:0.449999
G1 X113.089 Y135.656 E.02112
G1 X112.344 Y134.911 E.03388
G1 X112.273 Y134.818 E.00376
;WIDTH:0.41646
G1 X112.201 Y134.725 E.00347
;WIDTH:0.38292
G1 X112.212 Y134.766 E.00114
G1 X112.141 Y134.785 E.00197
G1 X112.16 Y134.714 E.00197
;WIDTH:0.449999
G1 X112.344 Y134.336 E.01352
G1 X113.664 Y135.656 E.06003
G1 X114.24 Y135.656 E.01852
G1 X112.344 Y133.76 E.08622
G1 X112.344 Y133.184 E.01852
G1 X114.816 Y135.656 E.11242
G1 X115.392 Y135.656 E.01852
G1 X112.344 Y132.608 E.13861
G1 X112.344 Y132.033 E.01849
G1 X115.967 Y135.656 E.16476
G1 X116.543 Y135.656 E.01852
G1 X112.344 Y131.457 E.19095
G1 X112.344 Y130.881 E.01852
G1 X117.119 Y135.656 E.21715
G1 X117.694 Y135.656 E.01849
G1 X112.344 Y130.306 E.2433
G1 X112.344 Y129.73 E.01852
G1 X118.27 Y135.656 E.26949
G1 X118.846 Y135.656 E.01852
G1 X112.344 Y129.154 E.29568
G1 X112.344 Y128.579 E.01849
G1 X119.421 Y135.656 E.32183
G1 X119.997 Y135.656 E.01852
G1 X112.344 Y128.003 E.34803
G1 X112.344 Y127.427 E.01852
G1 X120.573 Y135.656 E.37422
G1 X121.149 Y135.656 E.01852
G1 X112.344 Y126.851 E.40042
G1 X112.344 Y126.276 E.01849
G1 X121.724 Y135.656 E.42656
G1 X122.3 Y135.656 E.01852
G1 X112.344 Y125.7 E.45276
G1 X112.344 Y125.124 E.01852
G1 X122.876 Y135.656 E.47895
G1 X123.451 Y135.656 E.01849
G1 X112.344 Y124.549 E.5051
G1 X112.344 Y123.973 E.01852
G1 X124.027 Y135.656 E.5313
G1 X124.603 Y135.656 E.01852
G1 X112.344 Y123.397 E.55749
G1 X112.344 Y122.822 E.01849
G1 X125.178 Y135.656 E.58364
G1 X125.754 Y135.656 E.01852
G1 X112.344 Y122.246 E.60983
G1 X112.344 Y121.67 E.01852
G1 X126.33 Y135.656 E.63603
G1 X126.906 Y135.656 E.01852
G1 X112.344 Y121.095 E.6622
G1 X112.344 Y120.519 E.01852
G1 X127.481 Y135.656 E.68837
G1 X128.057 Y135.656 E.01852
G1 X112.746 Y120.344 E.6963
