; generated by PrusaSlicer 2.9.1 on 2026-02-14 at 04:27:35 UTC

; 

; external perimeters extrusion width = 0.45mm
; perimeters extrusion width = 0.45mm
; infill extrusion width = 0.45mm
; solid infill extrusion width = 0.45mm
; top infill extrusion width = 0.40mm
; first layer extrusion width = 0.45mm

;TYPE:Custom
;Elegoo Centauri Carbon - Start G-code
M140 S80 ; set bed temp
M104 S150 ; preheat nozzle to 150 (prevent ooze)
G28 ; home all axes
G29 ; auto bed leveling (if configured in Klipper)
M190 S80 ; wait for bed temp
G1 Z5 F3000 ; move nozzle up
M109 S240 ; wait for nozzle temp
; Prime line
G92 E0
G1 X5 Y5 F3000
G1 Z0.3 F1500
G1 X5 Y150 E15 F1500 ; draw prime line
G1 X5.4 Y150 F5000
G1 X5.4 Y5 E30 F1500 ; draw second prime line
G92 E0
G1 Z2 F3000 ; lift nozzle
;End of start G-code
G21 ; set units to millimeters
G90 ; use absolute coordinates
M83 ; use relative distances for extrusion
; Filament gcode
M107
;LAYER_CHANGE
;Z:0.2
;HEIGHT:0.2
G1 E-.8 F2100
G1 Z.6 F9000
G1 X109.255 Y112.795
G1 Z.2
G1 E.8 F2100
;TYPE:Skirt/Brim
;WIDTH:0.45
G1 F1450
G1 X110.943 Y111.667 E.06528
G1 X113.448 Y110.647 E.08697
G1 X131.336 Y104.834 E.60482
G1 X133.353 Y104.596 E.06531
G1 X134.936 Y104.976 E.05235
G1 X137.057 Y105.854 E.07382
G1 X139.275 Y107.603 E.09083
G1 X150.331 Y122.82 E.60484
G1 X150.929 Y123.887 E.03933
G1 X151.807 Y126.009 E.07385
G1 X152.204 Y128 E.06528
G1 X151.807 Y129.991 E.06528
G1 X150.929 Y132.113 E.07385
G1 X150.331 Y133.18 E.03933
G1 X139.275 Y148.397 E.60484
G1 X137.057 Y150.146 E.09083
G1 X134.936 Y151.024 E.07382
G1 X132.944 Y151.42 E.06531
G1 X131.336 Y151.166 E.05235
G1 X113.448 Y145.353 E.60482
G1 X110.943 Y144.333 E.08697
G1 X109.255 Y143.205 E.06528
G1 X108.127 Y141.517 E.06528
G1 X107.248 Y139.396 E.07383
G1 X106.852 Y137.405 E.06528
G1 X106.852 Y118.595 E.60486
G1 X107.248 Y116.604 E.06528
G1 X108.127 Y114.483 E.07383
G1 X109.222 Y112.844 E.06338
G1 E-.8 F2100
G1 Z.6 F9000
G1 X131.357 Y144.805
G1 Z.2
G1 E.8 F2100
;TYPE:External perimeter
;WIDTH:0.444912
G1 F1450
G1 X131.302 Y144.75 E.00247
;WIDTH:0.449979
G1 X130.737 Y143.391 E.04732
;WIDTH:0.451493
G1 X130.684 Y143.178 E.00708
G1 X130.737 Y143.043 E.00468
;WIDTH:0.449977
G1 X131.303 Y141.683 E.04737
;WIDTH:0.444911
G1 X131.411 Y141.575 E.00485
;WIDTH:0.449967
G1 X132.767 Y141.011 E.04722
;WIDTH:0.460901
G1 X132.947 Y140.949 E.00629
G1 X133.139 Y141.018 E.00674
;WIDTH:0.449978
G1 X134.479 Y141.576 E.04667
;WIDTH:0.444924
G1 X134.586 Y141.684 E.00483
;WIDTH:0.449978
G1 X135.152 Y143.043 E.04734
;WIDTH:0.461551
G1 X135.213 Y143.215 E.00603
G1 X134.978 Y143.812 E.02122
;WIDTH:0.449985
G1 X134.586 Y144.752 E.03275
;WIDTH:0.446093
G1 X134.478 Y144.859 E.00484
;WIDTH:0.449985
G1 X133.02 Y145.463 E.05075
;WIDTH:0.448501
G1 X132.867 Y145.464 E.0049
;WIDTH:0.449978
G1 X131.41 Y144.858 E.05074
;WIDTH:0.444912
G1 X131.399 Y144.847 E.00049
G1 X131.204 Y144.498 F9000
G1 E-.8 F2100
G1 Z.6 F9000
G1 X134.855 Y141.306
G1 Z.2
G1 E.8 F2100
;WIDTH:0.46025
G1 F1450
G1 X134.956 Y141.526 E.00798
;WIDTH:0.449978
G1 X135.53 Y142.893 E.04767
;WIDTH:0.461551
G1 X135.647 Y143.215 E.01133
G1 X135.566 Y143.441 E.00794
;WIDTH:0.449985
G1 X134.957 Y144.906 E.05102
;WIDTH:0.460674
G1 X134.855 Y145.128 E.00806
G1 X134.64 Y145.229 E.00784
;WIDTH:0.449985
G1 X133.174 Y145.835 E.05101
;WIDTH:0.461352
G1 X132.942 Y145.919 E.00816
G1 X132.617 Y145.801 E.01143
;WIDTH:0.449978
G1 X131.256 Y145.23 E.04746
;WIDTH:0.460245
G1 X131.034 Y145.127 E.00807
G1 X130.933 Y144.908 E.00795
;WIDTH:0.449979
G1 X130.361 Y143.548 E.04744
;WIDTH:0.462176
G1 X130.241 Y143.217 E.01166
G1 X130.36 Y142.889 E.01156
;WIDTH:0.449977
G1 X130.932 Y141.529 E.04744
;WIDTH:0.460245
G1 X131.034 Y141.306 E.00808
G1 X131.253 Y141.205 E.00795
;WIDTH:0.449967
G1 X132.61 Y140.635 E.04733
;WIDTH:0.460901
G1 X132.951 Y140.517 E.01191
G1 X133.293 Y140.641 E.01201
;WIDTH:0.449978
G1 X134.633 Y141.204 E.04674
;WIDTH:0.46025
G1 X134.8 Y141.281 E.00606
G1 X134.994 Y141.631 F9000
G1 E-.8 F2100
G1 Z.6 F9000
G1 X113.468 Y138.992
G1 Z.2
G1 E.8 F2100
;WIDTH:0.445296
G1 F1450
G1 X113.414 Y138.938 E.00243
;WIDTH:0.449978
G1 X112.848 Y137.578 E.04737
G1 X112.798 Y137.362 E.00713
;WIDTH:0.448344
G1 X112.81 Y137.328 E.00115
;WIDTH:0.449986
G1 X113.414 Y135.869 E.05078
;WIDTH:0.460571
G1 X113.451 Y135.801 E.00255
G1 X113.523 Y135.763 E.00269
;WIDTH:0.449967
G1 X114.879 Y135.198 E.04723
;WIDTH:0.460902
G1 X115.058 Y135.136 E.00625
G1 X115.251 Y135.206 E.00678
;WIDTH:0.449978
G1 X116.59 Y135.763 E.04663
;WIDTH:0.444925
G1 X116.698 Y135.871 E.00485
;WIDTH:0.44998
G1 X117.263 Y137.231 E.04735
;WIDTH:0.462175
G1 X117.325 Y137.405 E.00612
G1 X117.263 Y137.578 E.00609
;WIDTH:0.449979
G1 X116.697 Y138.939 E.0474
;WIDTH:0.444911
G1 X116.589 Y139.046 E.00483
;WIDTH:0.449978
G1 X115.23 Y139.612 E.04734
G1 X115.014 Y139.663 E.00714
G1 X113.521 Y139.046 E.05194
;WIDTH:0.445296
G1 X113.51 Y139.035 E.00049
G1 X113.315 Y138.686 F9000
G1 E-.8 F2100
G1 Z.6 F9000
G1 X116.966 Y135.494
G1 Z.2
G1 E.8 F2100
;WIDTH:0.460251
G1 F1450
G1 X117.067 Y135.714 E.00798
;WIDTH:0.44998
G1 X117.639 Y137.074 E.04744
;WIDTH:0.462175
G1 X117.759 Y137.405 E.01166
G1 X117.73 Y137.479 E.00263
G1 X117.64 Y137.732 E.00889
;WIDTH:0.449979
G1 X117.068 Y139.093 E.04747
;WIDTH:0.460246
G1 X116.966 Y139.315 E.00805
G1 X116.747 Y139.416 E.00795
;WIDTH:0.449978
G1 X115.387 Y139.988 E.04744
;WIDTH:0.461551
G1 X115.058 Y140.107 E.01157
G1 X114.832 Y140.026 E.00794
;WIDTH:0.449984
G1 X113.367 Y139.418 E.051
;WIDTH:0.460353
G1 X113.145 Y139.315 E.00807
G1 X113.044 Y139.095 E.00798
;WIDTH:0.449978
G1 X112.473 Y137.736 E.0474
;WIDTH:0.461351
G1 X112.353 Y137.407 E.01158
G1 X112.437 Y137.179 E.00803
;WIDTH:0.449986
G1 X112.822 Y136.229 E.03296
;WIDTH:0.460571
G1 X113.144 Y135.495 E.02644
G1 X113.365 Y135.393 E.00803
;WIDTH:0.449967
G1 X114.722 Y134.823 E.04733
;WIDTH:0.460902
G1 X115.063 Y134.704 E.01192
G1 X115.405 Y134.829 E.01202
;WIDTH:0.449978
G1 X116.744 Y135.392 E.04671
;WIDTH:0.460251
G1 X116.912 Y135.469 E.00609
G1 X117.106 Y135.819 F9000
G1 E-.8 F2100
G1 Z.6 F9000
G1 X116.644 Y120.184
G1 Z.2
G1 E.8 F2100
;WIDTH:0.448503
G1 F1450
G1 X116.59 Y120.239 E.00247
;WIDTH:0.44998
G1 X115.131 Y120.841 E.05075
;WIDTH:0.446093
G1 X114.979 Y120.841 E.00484
;WIDTH:0.449986
G1 X113.521 Y120.237 E.05075
;WIDTH:0.445296
G1 X113.414 Y120.129 E.00483
;WIDTH:0.449979
G1 X112.848 Y118.769 E.04737
;WIDTH:0.451493
G1 X112.796 Y118.557 E.00704
G1 X112.848 Y118.422 E.00467
;WIDTH:0.449978
G1 X113.414 Y117.061 E.0474
;WIDTH:0.460245
G1 X113.452 Y116.992 E.0026
G1 X113.523 Y116.954 E.00265
;WIDTH:0.449966
G1 X114.879 Y116.389 E.04723
;WIDTH:0.460901
G1 X115.058 Y116.327 E.00625
G1 X115.251 Y116.397 E.00678
;WIDTH:0.449977
G1 X116.59 Y116.954 E.04663
;WIDTH:0.448502
G1 X116.699 Y117.062 E.00492
;WIDTH:0.449979
G1 X117.301 Y118.52 E.05072
;WIDTH:0.448501
G1 X117.302 Y118.673 E.0049
;WIDTH:0.44998
G1 X116.697 Y120.13 E.05073
;WIDTH:0.448503
G1 X116.686 Y120.141 E.0005
G1 X116.337 Y120.336 F9000
G1 X116.966 Y120.506
;WIDTH:0.461255
G1 F1450
G1 X116.965 Y120.508 E.00007
G1 X116.652 Y120.655 E.01143
;WIDTH:0.44998
G1 X115.285 Y121.212 E.04746
;WIDTH:0.460571
G1 X115.055 Y121.298 E.0081
G1 X114.832 Y121.217 E.00783
;WIDTH:0.449986
G1 X113.367 Y120.609 E.051
;WIDTH:0.460352
G1 X113.145 Y120.506 E.00807
G1 X113.044 Y120.286 E.00798
;WIDTH:0.449979
G1 X112.473 Y118.926 E.04743
;WIDTH:0.462176
G1 X112.353 Y118.595 E.01166
G1 X112.471 Y118.268 E.01151
;WIDTH:0.449978
G1 X113.043 Y116.907 E.04747
;WIDTH:0.460245
G1 X113.145 Y116.685 E.00805
G1 X113.365 Y116.584 E.00798
;WIDTH:0.449966
G1 X114.722 Y116.014 E.04733
;WIDTH:0.460901
G1 X115.063 Y115.895 E.01192
G1 X115.405 Y116.02 E.01202
;WIDTH:0.449977
G1 X116.744 Y116.583 E.04671
;WIDTH:0.46126
G1 X116.969 Y116.686 E.00818
G1 X117.115 Y116.999 E.01141
;WIDTH:0.449979
G1 X117.673 Y118.366 E.04748
;WIDTH:0.461254
G1 X117.758 Y118.598 E.00816
G1 X117.729 Y118.675 E.00272
G1 X117.64 Y118.923 E.00871
;WIDTH:0.44998
G1 X117.068 Y120.284 E.04747
;WIDTH:0.461255
G1 X116.991 Y120.452 E.00611
G1 X116.644 Y120.651 F9000
G1 E-.8 F2100
G1 Z.6 F9000
G1 X135.19 Y112.783
G1 Z.2
G1 E.8 F2100
;WIDTH:0.448501
G1 F1450
G1 X135.191 Y112.861 E.0025
;WIDTH:0.449978
G1 X134.586 Y114.317 E.0507
;WIDTH:0.445303
G1 X134.477 Y114.425 E.00488
;WIDTH:0.449986
G1 X133.019 Y115.03 E.05076
;WIDTH:0.446073
G1 X132.867 Y115.028 E.00484
;WIDTH:0.449978
G1 X131.506 Y114.467 E.04733
G1 X131.318 Y114.35 E.00712
;WIDTH:0.448345
G1 X131.302 Y114.316 E.0012
;WIDTH:0.449985
G1 X130.698 Y112.858 E.05075
;WIDTH:0.448502
G1 X130.698 Y112.705 E.0049
;WIDTH:0.449977
G1 X131.303 Y111.249 E.0507
;WIDTH:0.444911
G1 X131.411 Y111.141 E.00485
;WIDTH:0.449967
G1 X132.767 Y110.577 E.04722
;WIDTH:0.4609
G1 X132.947 Y110.515 E.00629
G1 X133.139 Y110.584 E.00674
;WIDTH:0.449977
G1 X134.479 Y111.142 E.04667
;WIDTH:0.448503
G1 X134.588 Y111.249 E.00489
;WIDTH:0.449979
G1 X135.19 Y112.707 E.05072
;WIDTH:0.448501
G1 X135.19 Y112.723 E.00051
G1 X135.081 Y113.108 F9000
G1 X135.646 Y112.783
;WIDTH:0.461253
G1 F1450
G1 X135.647 Y112.786 E.0001
G1 X135.617 Y112.863 E.00273
G1 X135.529 Y113.111 E.0087
;WIDTH:0.449978
G1 X134.957 Y114.471 E.04744
;WIDTH:0.460352
G1 X134.855 Y114.694 E.00809
G1 X134.637 Y114.795 E.00792
;WIDTH:0.449986
G1 X133.692 Y115.194 E.03298
;WIDTH:0.460571
G1 X132.945 Y115.485 E.02645
G1 X132.717 Y115.401 E.00802
;WIDTH:0.449978
G1 X131.352 Y114.844 E.0474
;WIDTH:0.461353
G1 X131.035 Y114.696 E.01156
G1 X130.933 Y114.475 E.00805
;WIDTH:0.449985
G1 X130.534 Y113.531 E.03295
;WIDTH:0.461551
G1 X130.242 Y112.781 E.02662
G1 X130.36 Y112.455 E.01146
;WIDTH:0.449977
G1 X130.932 Y111.095 E.04744
;WIDTH:0.460245
G1 X131.034 Y110.873 E.00805
G1 X131.253 Y110.771 E.00796
;WIDTH:0.449967
G1 X132.61 Y110.201 E.04733
;WIDTH:0.4609
G1 X132.951 Y110.083 E.01191
G1 X133.293 Y110.207 E.01201
;WIDTH:0.449977
G1 X134.633 Y110.77 E.04674
;WIDTH:0.461259
G1 X134.857 Y110.874 E.00816
G1 X135.004 Y111.187 E.01143
;WIDTH:0.449979
G1 X135.561 Y112.554 E.04746
;WIDTH:0.461253
G1 X135.625 Y112.727 E.0061
G1 X135.521 Y113.113 F9000
G1 E-.8 F2100
G1 Z.6 F9000
G1 X141.754 Y128
G1 Z.2
G1 E.8 F2100
;WIDTH:0.448501
G1 F1450
G1 X141.753 Y127.922 E.0025
;WIDTH:0.449978
G1 X142.359 Y126.466 E.05071
;WIDTH:0.444912
G1 X142.467 Y126.358 E.00485
;WIDTH:0.449967
G1 X143.823 Y125.794 E.04722
;WIDTH:0.4609
G1 X144.003 Y125.732 E.00629
G1 X144.195 Y125.801 E.00674
;WIDTH:0.449977
G1 X145.534 Y126.359 E.04664
;WIDTH:0.448502
G1 X145.644 Y126.466 E.00492
;WIDTH:0.449978
G1 X146.246 Y127.924 E.05072
;WIDTH:0.448501
G1 X146.247 Y128.078 E.00493
;WIDTH:0.449977
G1 X145.641 Y129.534 E.05071
;WIDTH:0.448502
G1 X145.534 Y129.644 E.00492
;WIDTH:0.449978
G1 X144.076 Y130.246 E.05072
;WIDTH:0.444909
G1 X143.923 Y130.245 E.00486
;WIDTH:0.449979
G1 X142.466 Y129.644 E.05068
;WIDTH:0.448503
G1 X142.356 Y129.534 E.00498
;WIDTH:0.449977
G1 X141.754 Y128.076 E.05072
;WIDTH:0.448501
G1 X141.754 Y128.06 E.00051
G1 X141.863 Y127.675 F9000
G1 X141.298 Y128
;WIDTH:0.461252
G1 F1450
G1 X141.298 Y127.997 E.0001
G1 X141.415 Y127.672 E.01141
;WIDTH:0.449978
G1 X141.987 Y126.312 E.04744
;WIDTH:0.460245
G1 X142.089 Y126.089 E.00808
G1 X142.309 Y125.988 E.00798
;WIDTH:0.449967
G1 X143.666 Y125.418 E.04733
;WIDTH:0.4609
G1 X144.007 Y125.3 E.01191
G1 X144.349 Y125.424 E.01201
;WIDTH:0.449977
G1 X145.688 Y125.987 E.04671
;WIDTH:0.461258
G1 X145.913 Y126.091 E.00819
G1 X146.059 Y126.404 E.01141
;WIDTH:0.449978
G1 X146.617 Y127.771 E.04748
;WIDTH:0.461252
G1 X146.702 Y128.003 E.00816
G1 X146.673 Y128.08 E.00272
G1 X146.585 Y128.328 E.0087
;WIDTH:0.449977
G1 X146.013 Y129.688 E.04744
;WIDTH:0.461253
G1 X145.909 Y129.913 E.00819
G1 X145.596 Y130.059 E.01141
;WIDTH:0.449978
G1 X144.229 Y130.617 E.04748
;WIDTH:0.460243
G1 X144 Y130.702 E.00805
G1 X143.773 Y130.618 E.00798
;WIDTH:0.449979
G1 X142.407 Y130.061 E.04743
;WIDTH:0.462177
G1 X142.089 Y129.911 E.01164
G1 X141.941 Y129.596 E.01153
;WIDTH:0.449977
G1 X141.383 Y128.229 E.04748
;WIDTH:0.461252
G1 X141.319 Y128.056 E.0061
G1 X141.423 Y127.67 F9000
;LAYER_CHANGE
;Z:0.4
;HEIGHT:0.2
;BEFORE_LAYER_CHANGE
;0.4

G1 E-.8 F2100
G1 Z.4 F9000
;AFTER_LAYER_CHANGE
;0.4

M104 S235 ; set temperature
M140 S75 ; set bed temperature
G1 Z.8
G1 X131.364 Y144.797
G1 Z.4
G1 E.8 F2100
;WIDTH:0.486737
G1 F699
G1 X131.326 Y144.767 E.0017
G1 X131.31 Y144.732 E.00135
;WIDTH:0.483399
G1 X130.718 Y143.301 E.05388
;WIDTH:0.486738
G1 X130.704 Y143.169 E.00465
G1 X130.718 Y143.133 E.00135
;WIDTH:0.483399
G1 X131.31 Y141.702 E.05388
;WIDTH:0.486737
G1 X131.395 Y141.599 E.00468
G1 X131.429 Y141.583 E.00132
;WIDTH:0.483399
G1 X132.86 Y140.99 E.0539
;WIDTH:0.500826
G1 X132.944 Y140.965 E.00317
G1 X133.029 Y140.99 E.0032
;WIDTH:0.483399
G1 X134.459 Y141.583 E.05386
;WIDTH:0.500827
G1 X134.537 Y141.624 E.00319
G1 X134.578 Y141.702 E.00319
;WIDTH:0.483399
G1 X135.171 Y143.133 E.0539
;WIDTH:0.500826
G1 X135.196 Y143.217 E.00317
G1 X135.171 Y143.301 E.00317
;WIDTH:0.483398
G1 X134.578 Y144.732 E.0539
;WIDTH:0.486736
G1 X134.494 Y144.835 E.00466
G1 X134.459 Y144.851 E.00135
;WIDTH:0.483398
G1 X133.029 Y145.444 E.05386
;WIDTH:0.486737
G1 X132.896 Y145.457 E.00468
G1 X132.86 Y145.444 E.00134
;WIDTH:0.483399
G1 X131.429 Y144.851 E.0539
;WIDTH:0.486737
G1 X131.41 Y144.835 E.00087
G1 X131.215 Y144.486 F9000
G1 E-.8 F2100
G1 Z.8 F9000
G1 X134.874 Y141.287
G1 Z.4
G1 E.8 F2100
;WIDTH:0.500827
G1 F699
G1 X134.985 Y141.533 E.00976
;WIDTH:0.483399
G1 X135.578 Y142.964 E.0539
;WIDTH:0.500826
G1 X135.673 Y143.217 E.00978
G1 X135.637 Y143.305 E.00344
G1 X135.578 Y143.47 E.00634
;WIDTH:0.483398
G1 X134.985 Y144.9 E.05386
;WIDTH:0.500826
G1 X134.874 Y145.147 E.0098
G1 X134.628 Y145.258 E.00976
;WIDTH:0.483398
G1 X133.197 Y145.851 E.0539
;WIDTH:0.500826
G1 X132.944 Y145.946 E.00978
G1 X132.691 Y145.851 E.00978
;WIDTH:0.483399
G1 X131.261 Y145.258 E.05386
;WIDTH:0.500826
G1 X131.015 Y145.147 E.00976
G1 X130.903 Y144.9 E.00981
;WIDTH:0.483399
G1 X130.311 Y143.47 E.05385
;WIDTH:0.500827
G1 X130.215 Y143.217 E.00979
G1 X130.311 Y142.964 E.00979
;WIDTH:0.483399
G1 X130.903 Y141.533 E.05388
;WIDTH:0.500828
G1 X131.015 Y141.287 E.00978
G1 X131.261 Y141.176 E.00976
;WIDTH:0.483399
G1 X132.691 Y140.583 E.05386
;WIDTH:0.500826
G1 X132.944 Y140.488 E.00978
G1 X133.197 Y140.583 E.00978
;WIDTH:0.483399
G1 X134.628 Y141.176 E.0539
;WIDTH:0.500827
G1 X134.819 Y141.263 E.00759
G1 X135.013 Y141.613 F9000
G1 E-.8 F2100
G1 Z.8 F9000
G1 X113.475 Y138.985
G1 Z.4
G1 E.8 F2100
;WIDTH:0.486737
G1 F699
G1 X113.438 Y138.954 E.00169
G1 X113.422 Y138.919 E.00135
;WIDTH:0.483399
G1 X112.829 Y137.489 E.05386
;WIDTH:0.486737
G1 X112.816 Y137.356 E.00468
G1 X112.829 Y137.32 E.00134
;WIDTH:0.483399
G1 X113.422 Y135.89 E.05386
;WIDTH:0.486737
G1 X113.506 Y135.787 E.00466
G1 X113.541 Y135.77 E.00136
;WIDTH:0.483399
G1 X114.971 Y135.178 E.05385
;WIDTH:0.500828
G1 X115.056 Y135.152 E.00322
G1 X115.14 Y135.178 E.00318
;WIDTH:0.483399
G1 X116.571 Y135.77 E.05388
;WIDTH:0.500828
G1 X116.648 Y135.812 E.00317
G1 X116.69 Y135.89 E.0032
;WIDTH:0.4834
G1 X117.282 Y137.32 E.05385
;WIDTH:0.500827
G1 X117.308 Y137.405 E.00322
G1 X117.282 Y137.489 E.00318
;WIDTH:0.4834
G1 X116.69 Y138.919 E.05385
;WIDTH:0.486736
G1 X116.605 Y139.022 E.00468
G1 X116.571 Y139.039 E.00133
;WIDTH:0.483399
G1 X115.14 Y139.631 E.05388
;WIDTH:0.486737
G1 X115.008 Y139.644 E.00465
G1 X114.971 Y139.631 E.00137
;WIDTH:0.483399
G1 X113.541 Y139.039 E.05385
;WIDTH:0.486737
G1 X113.522 Y139.023 E.00087
G1 X113.326 Y138.674 F9000
G1 E-.8 F2100
G1 Z.8 F9000
G1 X116.985 Y135.475
G1 Z.4
G1 E.8 F2100
;WIDTH:0.500828
G1 F699
G1 X117.097 Y135.721 E.00978
;WIDTH:0.4834
G1 X117.689 Y137.152 E.05388
;WIDTH:0.500827
G1 X117.785 Y137.405 E.00979
G1 X117.748 Y137.492 E.00342
G1 X117.689 Y137.657 E.00634
;WIDTH:0.4834
G1 X117.097 Y139.088 E.05388
;WIDTH:0.500827
G1 X116.985 Y139.334 E.00978
G1 X116.739 Y139.446 E.00978
;WIDTH:0.483399
G1 X115.309 Y140.038 E.05385
;WIDTH:0.500827
G1 X115.056 Y140.134 E.00979
G1 X114.803 Y140.038 E.00979
;WIDTH:0.483399
G1 X113.372 Y139.446 E.05388
;WIDTH:0.500828
G1 X113.126 Y139.334 E.00978
G1 X113.015 Y139.088 E.00976
;WIDTH:0.483399
