; generated by PrusaSlicer 2.9.1 on 2026-02-14 at 04:47:35 UTC

; 

; external perimeters extrusion width = 0.45mm
; perimeters extrusion width = 0.45mm
; infill extrusion width = 0.45mm
; solid infill extrusion width = 0.45mm
; top infill extrusion width = 0.40mm
; first layer extrusion width = 0.45mm

;TYPE:Custom
;Elegoo Centauri Carbon - Start G-code
M140 S80 ; set bed temp
M104 S150 ; preheat nozzle to 150 (prevent ooze)
G28 ; home all axes
G29 ; auto bed leveling (if configured in Klipper)
M190 S80 ; wait for bed temp
G1 Z5 F3000 ; move nozzle up
M109 S240 ; wait for nozzle temp
; Prime line
G92 E0
G1 X5 Y5 F3000
G1 Z0.3 F1500
G1 X5 Y150 E15 F1500 ; draw prime line
G1 X5.4 Y150 F5000
G1 X5.4 Y5 E30 F1500 ; draw second prime line
G92 E0
G1 Z2 F3000 ; lift nozzle
;End of start G-code
G21 ; set units to millimeters
G90 ; use absolute coordinates
M83 ; use relative distances for extrusion
; Filament gcode
M107
;LAYER_CHANGE
;Z:0.2
;HEIGHT:0.2
G1 E-.8 F2100
G1 Z.6 F9000
G1 X3.5 Y121.759
G1 Z.2
G1 E.8 F2100
;TYPE:Skirt/Brim
;WIDTH:0.45
G1 F1500
G1 X252.5 Y121.759 E8.00694
G1 X254.491 Y122.155 E.06528
G1 X256.18 Y123.283 E.06531
G1 X257.308 Y124.972 E.06531
G1 X257.704 Y126.963 E.06528
G1 X257.704 Y129.038 E.06672
G1 X257.307 Y131.029 E.06528
G1 X256.179 Y132.717 E.06528
G1 X254.491 Y133.845 E.06528
G1 X252.5 Y134.241 E.06528
G1 X3.5 Y134.241 E8.00694
G1 X1.509 Y133.845 E.06528
G1 X-.18 Y132.717 E.06531
G1 X-1.308 Y131.028 E.06531
G1 X-1.704 Y129.038 E.06525
G1 X-1.704 Y126.963 E.06672
G1 X-1.307 Y124.971 E.06532
G1 X-.179 Y123.283 E.06528
G1 X1.509 Y122.155 E.06528
G1 X3.441 Y121.771 E.06334
G1 E-.8 F2100
G1 Z.6 F9000
G1 X4.333 Y128.204
G1 Z.2
G1 E.8 F2100
;TYPE:Perimeter
;WIDTH:0.451881
G1 F1500
G1 X4.333 Y127.796 E.01318
G1 X251.667 Y127.796 E7.99012
G1 X251.667 Y128 E.00659
G1 X251.667 Y128.204 E.00659
G1 X4.393 Y128.204 E7.98818
G1 X3.925 Y128.613 F9000
;TYPE:External perimeter
;WIDTH:0.449999
G1 F1500
G1 X3.925 Y127.388 E.03939
G1 X252.075 Y127.388 E7.97959
G1 X252.075 Y128 E.01968
G1 X252.075 Y128.613 E.01971
G1 X3.985 Y128.613 E7.97766
G1 X3.926 Y128.217 F9000
;LAYER_CHANGE
;Z:0.4
;HEIGHT:0.2
;BEFORE_LAYER_CHANGE
;0.4

G1 E-.8 F2100
G1 Z.4 F9000
;AFTER_LAYER_CHANGE
;0.4

M104 S235 ; set temperature
M140 S75 ; set bed temperature
G1 Z.8
G1 X251.463 Y128
G1 Z.4
G1 E.8 F2100
;TYPE:Perimeter
;WIDTH:0.446684
G1 F3600
G1 X4.538 Y128 E7.87554
G1 X4.132 Y128.405 F9000
;WIDTH:0.449999
G1 F3600
G1 X4.132 Y127.595 E.02605
G1 X251.868 Y127.595 E7.96628
G1 X251.868 Y128 E.01302
G1 X251.868 Y128.405 E.01302
G1 X4.192 Y128.405 E7.96435
G1 X3.725 Y128.813 F9000
;TYPE:External perimeter
G1 F1800
G1 X3.725 Y127.188 E.05225
G1 X252.275 Y127.188 E7.99245
G1 X252.275 Y128 E.02611
G1 X252.275 Y128.813 E.02614
G1 X3.785 Y128.813 E7.99052
G1 X3.726 Y128.417 F9000
;LAYER_CHANGE
;Z:0.6
;HEIGHT:0.2
;BEFORE_LAYER_CHANGE
;0.6

G1 E-.8 F2100
G1 Z.6 F9000
;AFTER_LAYER_CHANGE
;0.6

G1 Z1
G1 X251.463 Y128
G1 Z.6
G1 E.8 F2100
;TYPE:Perimeter
;WIDTH:0.446684
G1 F3600
G1 X4.538 Y128 E7.87554
G1 X4.132 Y128.405 F9000
;WIDTH:0.449999
G1 F3600
G1 X4.132 Y127.595 E.02605
G1 X251.868 Y127.595 E7.96628
G1 X251.868 Y128 E.01302
G1 X251.868 Y128.405 E.01302
G1 X4.192 Y128.405 E7.96435
G1 X3.725 Y128.813 F9000
;TYPE:External perimeter
G1 F1800
G1 X3.725 Y127.188 E.05225
G1 X252.275 Y127.188 E7.99245
G1 X252.275 Y128 E.02611
G1 X252.275 Y128.813 E.02614
G1 X3.785 Y128.813 E7.99052
G1 X3.726 Y128.417 F9000
M106 S53.55
;LAYER_CHANGE
;Z:0.8
;HEIGHT:0.2
;BEFORE_LAYER_CHANGE
;0.8

G1 E-.8 F2100
G1 Z.8 F9000
;AFTER_LAYER_CHANGE
;0.8

G1 Z1.2
G1 X251.463 Y128
G1 Z.8
G1 E.8 F2100
;TYPE:Perimeter
;WIDTH:0.446684
G1 F3600
G1 X4.538 Y128 E7.87554
G1 X4.132 Y128.405 F9000
;WIDTH:0.449999
G1 F3600
G1 X4.132 Y127.595 E.02605
G1 X251.868 Y127.595 E7.96628
G1 X251.868 Y128 E.01302
G1 X251.868 Y128.405 E.01302
G1 X4.192 Y128.405 E7.96435
G1 X3.725 Y128.813 F9000
;TYPE:External perimeter
G1 F1800
G1 X3.725 Y127.188 E.05225
G1 X252.275 Y127.188 E7.99245
G1 X252.275 Y128 E.02611
G1 X252.275 Y128.813 E.02614
G1 X3.785 Y128.813 E7.99052
G1 X3.726 Y128.417 F9000
M106 S107.1
;LAYER_CHANGE
;Z:1
;HEIGHT:0.2
;BEFORE_LAYER_CHANGE
;1

G1 E-.8 F2100
G1 Z1 F9000
;AFTER_LAYER_CHANGE
;1

G1 Z1.4
G1 X251.463 Y128
G1 Z1
G1 E.8 F2100
;TYPE:Perimeter
;WIDTH:0.446684
G1 F3600
G1 X4.538 Y128 E7.87554
G1 X4.132 Y128.405 F9000
;WIDTH:0.449999
G1 F3600
G1 X4.132 Y127.595 E.02605
G1 X251.868 Y127.595 E7.96628
G1 X251.868 Y128 E.01302
G1 X251.868 Y128.405 E.01302
G1 X4.192 Y128.405 E7.96435
G1 X3.725 Y128.813 F9000
;TYPE:External perimeter
G1 F1800
G1 X3.725 Y127.188 E.05225
G1 X252.275 Y127.188 E7.99245
G1 X252.275 Y128 E.02611
G1 X252.275 Y128.813 E.02614
G1 X3.785 Y128.813 E7.99052
G1 X3.726 Y128.417 F9000
;LAYER_CHANGE
;Z:1.2
;HEIGHT:0.2
;BEFORE_LAYER_CHANGE
;1.2

G1 E-.8 F2100
G1 Z1.2 F9000
;AFTER_LAYER_CHANGE
;1.2

G1 Z1.6
G1 X251.463 Y128
G1 Z1.2
G1 E.8 F2100
;TYPE:Perimeter
;WIDTH:0.446684
G1 F3600
G1 X4.538 Y128 E7.87554
G1 X4.132 Y128.405 F9000
;WIDTH:0.449999
G1 F3600
G1 X4.132 Y127.595 E.02605
G1 X251.868 Y127.595 E7.96628
G1 X251.868 Y128 E.01302
G1 X251.868 Y128.405 E.01302
G1 X4.192 Y128.405 E7.96435
G1 X3.725 Y128.813 F9000
;TYPE:External perimeter
G1 F1800
G1 X3.725 Y127.188 E.05225
G1 X252.275 Y127.188 E7.99245
G1 X252.275 Y128 E.02611
G1 X252.275 Y128.813 E.02614
G1 X3.785 Y128.813 E7.99052
G1 X3.726 Y128.417 F9000
;LAYER_CHANGE
;Z:1.4
;HEIGHT:0.2
;BEFORE_LAYER_CHANGE
;1.4

G1 E-.8 F2100
G1 Z1.4 F9000
;AFTER_LAYER_CHANGE
;1.4

G1 Z1.8
G1 X251.463 Y128
G1 Z1.4
G1 E.8 F2100
;TYPE:Perimeter
;WIDTH:0.446686
G1 F3600
G1 X4.538 Y128 E7.87558
G1 X4.132 Y128.405 F9000
;WIDTH:0.449999
G1 F3600
G1 X4.132 Y127.595 E.02605
G1 X251.868 Y127.595 E7.96628
G1 X251.868 Y128 E.01302
G1 X251.868 Y128.405 E.01302
G1 X4.192 Y128.405 E7.96435
G1 X3.725 Y128.813 F9000
;TYPE:External perimeter
G1 F1800
G1 X3.725 Y127.187 E.05229
G1 X252.275 Y127.187 E7.99245
G1 X252.275 Y128 E.02614
G1 X252.275 Y128.813 E.02614
G1 X3.785 Y128.813 E7.99052
G1 X3.726 Y128.417 F9000
;LAYER_CHANGE
;Z:1.6
;HEIGHT:0.2
;BEFORE_LAYER_CHANGE
;1.6

G1 E-.8 F2100
G1 Z1.6 F9000
;AFTER_LAYER_CHANGE
;1.6

G1 Z2
G1 X251.463 Y128
G1 Z1.6
G1 E.8 F2100
;TYPE:Perimeter
;WIDTH:0.446684
G1 F3600
G1 X4.538 Y128 E7.87554
G1 X4.132 Y128.405 F9000
;WIDTH:0.449999
G1 F3600
G1 X4.132 Y127.595 E.02605
G1 X251.868 Y127.595 E7.96628
G1 X251.868 Y128 E.01302
G1 X251.868 Y128.405 E.01302
G1 X4.192 Y128.405 E7.96435
G1 X3.725 Y128.813 F9000
;TYPE:External perimeter
G1 F1800
G1 X3.725 Y127.188 E.05225
G1 X252.275 Y127.188 E7.99245
G1 X252.275 Y128 E.02611
G1 X252.275 Y128.813 E.02614
G1 X3.785 Y128.813 E7.99052
G1 X3.726 Y128.417 F9000
;LAYER_CHANGE
;Z:1.8
;HEIGHT:0.2
;BEFORE_LAYER_CHANGE
;1.8

G1 E-.8 F2100
G1 Z1.8 F9000
;AFTER_LAYER_CHANGE
;1.8

G1 Z2.2
G1 X251.463 Y128
G1 Z1.8
G1 E.8 F2100
;TYPE:Perimeter
;WIDTH:0.446686
G1 F3600
G1 X4.538 Y128 E7.87558
G1 X4.132 Y128.405 F9000
;WIDTH:0.449999
G1 F3600
G1 X4.132 Y127.595 E.02605
G1 X251.868 Y127.595 E7.96628
G1 X251.868 Y128 E.01302
G1 X251.868 Y128.405 E.01302
G1 X4.192 Y128.405 E7.96435
G1 X3.725 Y128.813 F9000
;TYPE:External perimeter
G1 F1800
G1 X3.725 Y127.187 E.05229
G1 X252.275 Y127.187 E7.99245
G1 X252.275 Y128 E.02614
G1 X252.275 Y128.813 E.02614
G1 X3.785 Y128.813 E7.99052
G1 X3.726 Y128.417 F9000
;LAYER_CHANGE
;Z:2
;HEIGHT:0.2
;BEFORE_LAYER_CHANGE
;2

G1 E-.8 F2100
G1 Z2 F9000
;AFTER_LAYER_CHANGE
;2

G1 Z2.4
G1 X251.463 Y128
G1 Z2
G1 E.8 F2100
;TYPE:Perimeter
;WIDTH:0.446684
G1 F3600
G1 X4.538 Y128 E7.87554
G1 X4.132 Y128.405 F9000
;WIDTH:0.449999
G1 F3600
G1 X4.132 Y127.595 E.02605
G1 X251.868 Y127.595 E7.96628
G1 X251.868 Y128 E.01302
G1 X251.868 Y128.405 E.01302
G1 X4.192 Y128.405 E7.96435
G1 X3.725 Y128.813 F9000
;TYPE:External perimeter
G1 F1800
G1 X3.725 Y127.188 E.05225
G1 X252.275 Y127.188 E7.99245
G1 X252.275 Y128 E.02611
G1 X252.275 Y128.813 E.02614
G1 X3.785 Y128.813 E7.99052
G1 X3.726 Y128.417 F9000
;LAYER_CHANGE
;Z:2.2
;HEIGHT:0.2
;BEFORE_LAYER_CHANGE
;2.2

G1 E-.8 F2100
G1 Z2.2 F9000
;AFTER_LAYER_CHANGE
;2.2

G1 Z2.6
G1 X251.463 Y128
G1 Z2.2
G1 E.8 F2100
;TYPE:Perimeter
;WIDTH:0.446684
G1 F3600
G1 X4.538 Y128 E7.87554
G1 X4.132 Y128.405 F9000
;WIDTH:0.449999
G1 F3600
G1 X4.132 Y127.595 E.02605
G1 X251.868 Y127.595 E7.96628
G1 X251.868 Y128 E.01302
G1 X251.868 Y128.405 E.01302
G1 X4.192 Y128.405 E7.96435
G1 X3.725 Y128.813 F9000
;TYPE:External perimeter
G1 F1800
G1 X3.725 Y127.188 E.05225
G1 X252.275 Y127.188 E7.99245
G1 X252.275 Y128 E.02611
G1 X252.275 Y128.813 E.02614
G1 X3.785 Y128.813 E7.99052
G1 X3.726 Y128.417 F9000
;LAYER_CHANGE
;Z:2.4
;HEIGHT:0.2
;BEFORE_LAYER_CHANGE
;2.4

G1 E-.8 F2100
G1 Z2.4 F9000
;AFTER_LAYER_CHANGE
;2.4

G1 Z2.8
G1 X251.463 Y128
G1 Z2.4
G1 E.8 F2100
;TYPE:Perimeter
;WIDTH:0.446684
G1 F3600
G1 X4.538 Y128 E7.87554
G1 X4.132 Y128.405 F9000
;WIDTH:0.449999
G1 F3600
G1 X4.132 Y127.595 E.02605
G1 X251.868 Y127.595 E7.96628
G1 X251.868 Y128 E.01302
G1 X251.868 Y128.405 E.01302
G1 X4.192 Y128.405 E7.96435
G1 X3.725 Y128.813 F9000
;TYPE:External perimeter
G1 F1800
G1 X3.725 Y127.188 E.05225
G1 X252.275 Y127.188 E7.99245
G1 X252.275 Y128 E.02611
G1 X252.275 Y128.813 E.02614
G1 X3.785 Y128.813 E7.99052
G1 X3.726 Y128.417 F9000
;LAYER_CHANGE
;Z:2.6
;HEIGHT:0.2
;BEFORE_LAYER_CHANGE
;2.6

G1 E-.8 F2100
G1 Z2.6 F9000
;AFTER_LAYER_CHANGE
;2.6

G1 Z3
G1 X251.463 Y128
G1 Z2.6
G1 E.8 F2100
;TYPE:Perimeter
;WIDTH:0.446684
G1 F3600
G1 X4.538 Y128 E7.87554
G1 X4.132 Y128.405 F9000
;WIDTH:0.449999
G1 F3600
G1 X4.132 Y127.595 E.02605
G1 X251.868 Y127.595 E7.96628
G1 X251.868 Y128 E.01302
G1 X251.868 Y128.405 E.01302
G1 X4.192 Y128.405 E7.96435
G1 X3.725 Y128.813 F9000
;TYPE:External perimeter
G1 F1800
G1 X3.725 Y127.188 E.05225
G1 X252.275 Y127.188 E7.99245
G1 X252.275 Y128 E.02611
G1 X252.275 Y128.813 E.02614
G1 X3.785 Y128.813 E7.99052
G1 X3.726 Y128.417 F9000
;LAYER_CHANGE
;Z:2.8
;HEIGHT:0.2
;BEFORE_LAYER_CHANGE
;2.8

G1 E-.8 F2100
G1 Z2.8 F9000
;AFTER_LAYER_CHANGE
;2.8

G1 Z3.2
G1 X251.463 Y128
G1 Z2.8
G1 E.8 F2100
;TYPE:Perimeter
;WIDTH:0.446684
G1 F3600
G1 X4.538 Y128 E7.87554
G1 X4.132 Y128.405 F9000
;WIDTH:0.449999
G1 F3600
G1 X4.132 Y127.595 E.02605
G1 X251.868 Y127.595 E7.96628
G1 X251.868 Y128 E.01302
G1 X251.868 Y128.405 E.01302
G1 X4.192 Y128.405 E7.96435
G1 X3.725 Y128.813 F9000
;TYPE:External perimeter
G1 F1800
G1 X3.725 Y127.188 E.05225
G1 X252.275 Y127.188 E7.99245
G1 X252.275 Y128 E.02611
G1 X252.275 Y128.813 E.02614
G1 X3.785 Y128.813 E7.99052
G1 X3.726 Y128.417 F9000
;LAYER_CHANGE
;Z:3
;HEIGHT:0.2
;BEFORE_LAYER_CHANGE
;3

G1 E-.8 F2100
G1 Z3 F9000
;AFTER_LAYER_CHANGE
;3

G1 Z3.4
G1 X251.463 Y128
G1 Z3
G1 E.8 F2100
;TYPE:Perimeter
;WIDTH:0.446684
G1 F3600
G1 X4.538 Y128 E7.87554
G1 X4.132 Y128.405 F9000
;WIDTH:0.449999
G1 F3600
G1 X4.132 Y127.595 E.02605
G1 X251.868 Y127.595 E7.96628
G1 X251.868 Y128 E.01302
G1 X251.868 Y128.405 E.01302
G1 X4.192 Y128.405 E7.96435
G1 X3.725 Y128.813 F9000
;TYPE:External perimeter
G1 F1800
G1 X3.725 Y127.188 E.05225
G1 X252.275 Y127.188 E7.99245
G1 X252.275 Y128 E.02611
G1 X252.275 Y128.813 E.02614
G1 X3.785 Y128.813 E7.99052
G1 X3.726 Y128.417 F9000
;LAYER_CHANGE
;Z:3.2
;HEIGHT:0.2
;BEFORE_LAYER_CHANGE
;3.2

G1 E-.8 F2100
G1 Z3.2 F9000
;AFTER_LAYER_CHANGE
;3.2

G1 Z3.6
G1 X251.463 Y128
G1 Z3.2
G1 E.8 F2100
;TYPE:Perimeter
;WIDTH:0.446684
G1 F3600
G1 X4.538 Y128 E7.87554
G1 X4.132 Y128.405 F9000
;WIDTH:0.449999
G1 F3600
G1 X4.132 Y127.595 E.02605
G1 X251.868 Y127.595 E7.96628
G1 X251.868 Y128 E.01302
G1 X251.868 Y128.405 E.01302
G1 X4.192 Y128.405 E7.96435
G1 X3.725 Y128.813 F9000
;TYPE:External perimeter
G1 F1800
G1 X3.725 Y127.188 E.05225
G1 X252.275 Y127.188 E7.99245
G1 X252.275 Y128 E.02611
G1 X252.275 Y128.813 E.02614
G1 X3.785 Y128.813 E7.99052
G1 X3.726 Y128.417 F9000
;LAYER_CHANGE
;Z:3.4
;HEIGHT:0.2
;BEFORE_LAYER_CHANGE
;3.4

G1 E-.8 F2100
G1 Z3.4 F9000
;AFTER_LAYER_CHANGE
;3.4

G1 Z3.8
G1 X251.463 Y128
G1 Z3.4
G1 E.8 F2100
;TYPE:Perimeter
;WIDTH:0.446684
G1 F3600
G1 X4.538 Y128 E7.87554
G1 X4.132 Y128.405 F9000
;WIDTH:0.449999
G1 F3600
G1 X4.132 Y127.595 E.02605
G1 X251.868 Y127.595 E7.96628
G1 X251.868 Y128 E.01302
G1 X251.868 Y128.405 E.01302
G1 X4.192 Y128.405 E7.96435
G1 X3.725 Y128.813 F9000
;TYPE:External perimeter
G1 F1800
G1 X3.725 Y127.188 E.05225
G1 X252.275 Y127.188 E7.99245
G1 X252.275 Y128 E.02611
G1 X252.275 Y128.813 E.02614
G1 X3.785 Y128.813 E7.99052
G1 X3.726 Y128.417 F9000
;LAYER_CHANGE
;Z:3.6
;HEIGHT:0.2
;BEFORE_LAYER_CHANGE
;3.6

G1 E-.8 F2100
G1 Z3.6 F9000
;AFTER_LAYER_CHANGE
;3.6

G1 Z4
G1 X251.463 Y128
G1 Z3.6
G1 E.8 F2100
;TYPE:Perimeter
;WIDTH:0.446684
G1 F3600
G1 X4.538 Y128 E7.87554
G1 X4.132 Y128.405 F9000
;WIDTH:0.449999
G1 F3600
G1 X4.132 Y127.595 E.02605
G1 X251.868 Y127.595 E7.96628
G1 X251.868 Y128 E.01302
G1 X251.868 Y128.405 E.01302
G1 X4.192 Y128.405 E7.96435
G1 X3.725 Y128.813 F9000
;TYPE:External perimeter
G1 F1800
G1 X3.725 Y127.188 E.05225
G1 X252.275 Y127.188 E7.99245
G1 X252.275 Y128 E.02611
G1 X252.275 Y128.813 E.02614
G1 X3.785 Y128.813 E7.99052
G1 X3.726 Y128.417 F9000
;LAYER_CHANGE
;Z:3.8
;HEIGHT:0.2
;BEFORE_LAYER_CHANGE
;3.8

G1 E-.8 F2100
G1 Z3.8 F9000
;AFTER_LAYER_CHANGE
;3.8

G1 Z4.2
G1 X251.463 Y128
G1 Z3.8
G1 E.8 F2100
;TYPE:Perimeter
;WIDTH:0.446684
G1 F3600
G1 X4.538 Y128 E7.87554
G1 X4.132 Y128.405 F9000
;WIDTH:0.449999
G1 F3600
G1 X4.132 Y127.595 E.02605
G1 X251.868 Y127.595 E7.96628
G1 X251.868 Y128 E.01302
G1 X251.868 Y128.405 E.01302
G1 X4.192 Y128.405 E7.96435
G1 X3.725 Y128.813 F9000
;TYPE:External perimeter
G1 F1800
G1 X3.725 Y127.188 E.05225
G1 X252.275 Y127.188 E7.99245
G1 X252.275 Y128 E.02611
G1 X252.275 Y128.813 E.02614
G1 X3.785 Y128.813 E7.99052
G1 X3.726 Y128.417 F9000
;LAYER_CHANGE
;Z:4
;HEIGHT:0.2
;BEFORE_LAYER_CHANGE
;4

G1 E-.8 F2100
G1 Z4 F9000
;AFTER_LAYER_CHANGE
;4

G1 Z4.4
G1 X251.463 Y128
G1 Z4
G1 E.8 F2100
;TYPE:Perimeter
;WIDTH:0.446684
G1 F3600
G1 X4.538 Y128 E7.87554
G1 X4.132 Y128.405 F9000
;WIDTH:0.449999
G1 F3600
G1 X4.132 Y127.595 E.02605
G1 X251.868 Y127.595 E7.96628
G1 X251.868 Y128 E.01302
G1 X251.868 Y128.405 E.01302
G1 X4.192 Y128.405 E7.96435
G1 X3.725 Y128.813 F9000
;TYPE:External perimeter
G1 F1800
G1 X3.725 Y127.188 E.05225
G1 X252.275 Y127.188 E7.99245
G1 X252.275 Y128 E.02611
G1 X252.275 Y128.813 E.02614
G1 X3.785 Y128.813 E7.99052
G1 X3.726 Y128.417 F9000
;LAYER_CHANGE
;Z:4.2
;HEIGHT:0.2
;BEFORE_LAYER_CHANGE
;4.2

G1 E-.8 F2100
G1 Z4.2 F9000
;AFTER_LAYER_CHANGE
;4.2

G1 Z4.6
G1 X251.463 Y128
G1 Z4.2
G1 E.8 F2100
;TYPE:Perimeter
;WIDTH:0.446684
G1 F3600
G1 X4.538 Y128 E7.87554
G1 X4.132 Y128.405 F9000
;WIDTH:0.449999
G1 F3600
G1 X4.132 Y127.595 E.02605
G1 X251.868 Y127.595 E7.96628
G1 X251.868 Y128 E.01302
G1 X251.868 Y128.405 E.01302
G1 X4.192 Y128.405 E7.96435
G1 X3.725 Y128.813 F9000
;TYPE:External perimeter
G1 F1800
G1 X3.725 Y127.188 E.05225
G1 X252.275 Y127.188 E7.99245
G1 X252.275 Y128 E.02611
G1 X252.275 Y128.813 E.02614
G1 X3.785 Y128.813 E7.99052
G1 X3.726 Y128.417 F9000
;LAYER_CHANGE
;Z:4.4
;HEIGHT:0.2
;BEFORE_LAYER_CHANGE
;4.4

G1 E-.8 F2100
G1 Z4.4 F9000
;AFTER_LAYER_CHANGE
;4.4

G1 Z4.8
G1 X251.463 Y128
G1 Z4.4
G1 E.8 F2100
;TYPE:Perimeter
;WIDTH:0.446684
G1 F3600
G1 X4.538 Y128 E7.87554
G1 X4.132 Y128.405 F9000
;WIDTH:0.449999
G1 F3600
G1 X4.132 Y127.595 E.02605
G1 X251.868 Y127.595 E7.96628
G1 X251.868 Y128 E.01302
G1 X251.868 Y128.405 E.01302
G1 X4.192 Y128.405 E7.96435
G1 X3.725 Y128.813 F9000
;TYPE:External perimeter
G1 F1800
G1 X3.725 Y127.188 E.05225
G1 X252.275 Y127.188 E7.99245
G1 X252.275 Y128 E.02611
G1 X252.275 Y128.813 E.02614
G1 X3.785 Y128.813 E7.99052
G1 X3.726 Y128.417 F9000
;LAYER_CHANGE
;Z:4.6
;HEIGHT:0.2
;BEFORE_LAYER_CHANGE
;4.6

G1 E-.8 F2100
G1 Z4.6 F9000
;AFTER_LAYER_CHANGE
;4.6

G1 Z5
G1 X251.463 Y128
G1 Z4.6
G1 E.8 F2100
;TYPE:Perimeter
;WIDTH:0.446684
G1 F3600
G1 X4.538 Y128 E7.87554
G1 X4.132 Y128.405 F9000
;WIDTH:0.449999
G1 F3600
G1 X4.132 Y127.595 E.02605
G1 X251.868 Y127.595 E7.96628
G1 X251.868 Y128 E.01302
G1 X251.868 Y128.405 E.01302
G1 X4.192 Y128.405 E7.96435
G1 X3.725 Y128.813 F9000
;TYPE:External perimeter
G1 F1800
