; generated by PrusaSlicer 2.9.1 on 2026-02-14 at 04:47:24 UTC

; 

; external perimeters extrusion width = 0.45mm
; perimeters extrusion width = 0.45mm
; infill extrusion width = 0.45mm
; solid infill extrusion width = 0.45mm
; top infill extrusion width = 0.40mm
; first layer extrusion width = 0.45mm

;TYPE:Custom
;Elegoo Centauri Carbon - Start G-code
M140 S80 ; set bed temp
M104 S150 ; preheat nozzle to 150 (prevent ooze)
G28 ; home all axes
G29 ; auto bed leveling (if configured in Klipper)
M190 S80 ; wait for bed temp
G1 Z5 F3000 ; move nozzle up
M109 S240 ; wait for nozzle temp
; Prime line
G92 E0
G1 X5 Y5 F3000
G1 Z0.3 F1500
G1 X5 Y150 E15 F1500 ; draw prime line
G1 X5.4 Y150 F5000
G1 X5.4 Y5 E30 F1500 ; draw second prime line
G92 E0
G1 Z2 F3000 ; lift nozzle
;End of start G-code
G21 ; set units to millimeters
G90 ; use absolute coordinates
M83 ; use relative distances for extrusion
; Filament gcode
M107
;LAYER_CHANGE
;Z:0.2
;HEIGHT:0.2
G1 E-.8 F2100
G1 Z.6 F9000
G1 X26.009 Y121.942
G1 Z.2
G1 E.8 F2100
;TYPE:Skirt/Brim
;WIDTH:0.45
G1 F1500
G1 X28 Y121.546 E.06528
G1 X228 Y121.546 E6.43127
G1 X229.991 Y121.943 E.06528
G1 X231.68 Y123.071 E.06531
G1 X232.808 Y124.759 E.06528
G1 X233.204 Y126.75 E.06528
G1 X233.204 Y129.25 E.08039
G1 X232.807 Y131.241 E.06528
G1 X231.679 Y132.93 E.06531
G1 X229.991 Y134.058 E.06528
G1 X228 Y134.454 E.06528
G1 X28 Y134.454 E6.43127
G1 X26.009 Y134.057 E.06528
G1 X24.32 Y132.929 E.06531
G1 X23.192 Y131.241 E.06528
G1 X22.796 Y129.25 E.06528
G1 X22.796 Y126.75 E.08039
G1 X23.193 Y124.759 E.06528
G1 X24.321 Y123.07 E.06531
G1 X25.959 Y121.976 E.06334
G1 E-.8 F2100
G1 Z.6 F9000
G1 X29.25 Y128
G1 Z.2
G1 E.8 F2100
;TYPE:Perimeter
;WIDTH:0.471684
G1 F1500
G1 X226.75 Y128 E6.68918
G1 E-.8 F2100
G1 Z.6 F9000
G1 X28.832 Y128.418
G1 Z.2
G1 E.8 F2100
;WIDTH:0.449999
G1 F1500
G1 X28.832 Y127.582 E.02688
G1 X227.168 Y127.582 E6.37776
G1 X227.168 Y128 E.01344
G1 X227.168 Y128.418 E.01344
G1 X28.892 Y128.418 E6.37583
G1 X28.425 Y128.825 F9000
;TYPE:External perimeter
G1 F1500
G1 X28.425 Y127.175 E.05306
G1 X227.575 Y127.175 E6.40393
G1 X227.575 Y128 E.02653
G1 X227.575 Y128.825 E.02653
G1 X28.485 Y128.825 E6.402
G1 X28.426 Y128.429 F9000
;LAYER_CHANGE
;Z:0.4
;HEIGHT:0.2
;BEFORE_LAYER_CHANGE
;0.4

G1 Z.4 F9000
;AFTER_LAYER_CHANGE
;0.4

M104 S235 ; set temperature
M140 S75 ; set bed temperature
G1 Z.4
G1 X29.043 Y128.207
;TYPE:Perimeter
;WIDTH:0.457302
G1 F3600
G1 X29.043 Y127.793 E.01355
G1 X226.957 Y127.793 E6.47836
G1 X226.957 Y128 E.00678
G1 X226.957 Y128.207 E.00678
G1 X29.103 Y128.207 E6.4764
G1 X28.632 Y128.618 F9000
;WIDTH:0.449999
G1 F3600
G1 X28.632 Y127.382 E.03975
G1 X227.368 Y127.382 E6.39062
G1 X227.368 Y128 E.01987
G1 X227.368 Y128.618 E.01987
G1 X28.692 Y128.618 E6.38869
G1 X28.225 Y129.025 F9000
;TYPE:External perimeter
G1 F1800
G1 X28.225 Y126.975 E.06592
G1 X227.775 Y126.975 E6.41679
G1 X227.775 Y128 E.03296
G1 X227.775 Y129.025 E.03296
G1 X28.285 Y129.025 E6.41486
G1 X28.226 Y128.629 F9000
;LAYER_CHANGE
;Z:0.6
;HEIGHT:0.2
;BEFORE_LAYER_CHANGE
;0.6

G1 Z.6 F9000
;AFTER_LAYER_CHANGE
;0.6

G1 Z.6
G1 X29.043 Y128.207
;TYPE:Perimeter
;WIDTH:0.457302
G1 F3600
G1 X29.043 Y127.793 E.01355
G1 X226.957 Y127.793 E6.47836
G1 X226.957 Y128 E.00678
G1 X226.957 Y128.207 E.00678
G1 X29.103 Y128.207 E6.4764
G1 X28.632 Y128.618 F9000
;WIDTH:0.449999
G1 F3600
G1 X28.632 Y127.382 E.03975
G1 X227.368 Y127.382 E6.39062
G1 X227.368 Y128 E.01987
G1 X227.368 Y128.618 E.01987
G1 X28.692 Y128.618 E6.38869
G1 X28.225 Y129.025 F9000
;TYPE:External perimeter
G1 F1800
G1 X28.225 Y126.975 E.06592
G1 X227.775 Y126.975 E6.41679
G1 X227.775 Y128 E.03296
G1 X227.775 Y129.025 E.03296
G1 X28.285 Y129.025 E6.41486
G1 X28.226 Y128.629 F9000
M106 S56.1
;LAYER_CHANGE
;Z:0.8
;HEIGHT:0.2
;BEFORE_LAYER_CHANGE
;0.8

G1 Z.8 F9000
;AFTER_LAYER_CHANGE
;0.8

G1 Z.8
G1 X29.043 Y128.207
;TYPE:Perimeter
;WIDTH:0.457302
G1 F3600
G1 X29.043 Y127.793 E.01355
G1 X226.957 Y127.793 E6.47836
G1 X226.957 Y128 E.00678
G1 X226.957 Y128.207 E.00678
G1 X29.103 Y128.207 E6.4764
G1 X28.632 Y128.618 F9000
;WIDTH:0.449999
G1 F3600
G1 X28.632 Y127.382 E.03975
G1 X227.368 Y127.382 E6.39062
G1 X227.368 Y128 E.01987
G1 X227.368 Y128.618 E.01987
G1 X28.692 Y128.618 E6.38869
G1 X28.225 Y129.025 F9000
;TYPE:External perimeter
G1 F1800
G1 X28.225 Y126.975 E.06592
G1 X227.775 Y126.975 E6.41679
G1 X227.775 Y128 E.03296
G1 X227.775 Y129.025 E.03296
G1 X28.285 Y129.025 E6.41486
G1 X28.226 Y128.629 F9000
M106 S112.2
;LAYER_CHANGE
;Z:1
;HEIGHT:0.2
;BEFORE_LAYER_CHANGE
;1

G1 Z1 F9000
;AFTER_LAYER_CHANGE
;1

G1 Z1
G1 X29.043 Y128.207
;TYPE:Perimeter
;WIDTH:0.457302
G1 F3600
G1 X29.043 Y127.793 E.01355
G1 X226.957 Y127.793 E6.47836
G1 X226.957 Y128 E.00678
G1 X226.957 Y128.207 E.00678
G1 X29.103 Y128.207 E6.4764
G1 X28.632 Y128.618 F9000
;WIDTH:0.449999
G1 F3600
G1 X28.632 Y127.382 E.03975
G1 X227.368 Y127.382 E6.39062
G1 X227.368 Y128 E.01987
G1 X227.368 Y128.618 E.01987
G1 X28.692 Y128.618 E6.38869
G1 X28.225 Y129.025 F9000
;TYPE:External perimeter
G1 F1800
G1 X28.225 Y126.975 E.06592
G1 X227.775 Y126.975 E6.41679
G1 X227.775 Y128 E.03296
G1 X227.775 Y129.025 E.03296
G1 X28.285 Y129.025 E6.41486
G1 X28.226 Y128.629 F9000
;LAYER_CHANGE
;Z:1.2
;HEIGHT:0.2
;BEFORE_LAYER_CHANGE
;1.2

G1 Z1.2 F9000
;AFTER_LAYER_CHANGE
;1.2

G1 Z1.2
G1 X29.043 Y128.207
;TYPE:Perimeter
;WIDTH:0.457302
G1 F3600
G1 X29.043 Y127.793 E.01355
G1 X226.957 Y127.793 E6.47836
G1 X226.957 Y128 E.00678
G1 X226.957 Y128.207 E.00678
G1 X29.103 Y128.207 E6.4764
G1 X28.632 Y128.618 F9000
;WIDTH:0.449999
G1 F3600
G1 X28.632 Y127.382 E.03975
G1 X227.368 Y127.382 E6.39062
G1 X227.368 Y128 E.01987
G1 X227.368 Y128.618 E.01987
G1 X28.692 Y128.618 E6.38869
G1 X28.225 Y129.025 F9000
;TYPE:External perimeter
G1 F1800
G1 X28.225 Y126.975 E.06592
G1 X227.775 Y126.975 E6.41679
G1 X227.775 Y128 E.03296
G1 X227.775 Y129.025 E.03296
G1 X28.285 Y129.025 E6.41486
G1 X28.226 Y128.629 F9000
;LAYER_CHANGE
;Z:1.4
;HEIGHT:0.2
;BEFORE_LAYER_CHANGE
;1.4

G1 Z1.4 F9000
;AFTER_LAYER_CHANGE
;1.4

G1 Z1.4
G1 X29.043 Y128.207
;TYPE:Perimeter
;WIDTH:0.457302
G1 F3600
G1 X29.043 Y127.793 E.01355
G1 X226.957 Y127.793 E6.47836
G1 X226.957 Y128 E.00678
G1 X226.957 Y128.207 E.00678
G1 X29.103 Y128.207 E6.4764
G1 X28.632 Y128.618 F9000
;WIDTH:0.449999
G1 F3600
G1 X28.632 Y127.382 E.03975
G1 X227.368 Y127.382 E6.39062
G1 X227.368 Y128 E.01987
G1 X227.368 Y128.618 E.01987
G1 X28.692 Y128.618 E6.38869
G1 X28.225 Y129.025 F9000
;TYPE:External perimeter
G1 F1800
G1 X28.225 Y126.975 E.06592
G1 X227.775 Y126.975 E6.41679
G1 X227.775 Y128 E.03296
G1 X227.775 Y129.025 E.03296
G1 X28.285 Y129.025 E6.41486
G1 X28.226 Y128.629 F9000
;LAYER_CHANGE
;Z:1.6
;HEIGHT:0.2
;BEFORE_LAYER_CHANGE
;1.6

G1 Z1.6 F9000
;AFTER_LAYER_CHANGE
;1.6

G1 Z1.6
G1 X29.043 Y128.207
;TYPE:Perimeter
;WIDTH:0.457302
G1 F3600
G1 X29.043 Y127.793 E.01355
G1 X226.957 Y127.793 E6.47836
G1 X226.957 Y128 E.00678
G1 X226.957 Y128.207 E.00678
G1 X29.103 Y128.207 E6.4764
G1 X28.632 Y128.618 F9000
;WIDTH:0.449999
G1 F3600
G1 X28.632 Y127.382 E.03975
G1 X227.368 Y127.382 E6.39062
G1 X227.368 Y128 E.01987
G1 X227.368 Y128.618 E.01987
G1 X28.692 Y128.618 E6.38869
G1 X28.225 Y129.025 F9000
;TYPE:External perimeter
G1 F1800
G1 X28.225 Y126.975 E.06592
G1 X227.775 Y126.975 E6.41679
G1 X227.775 Y128 E.03296
G1 X227.775 Y129.025 E.03296
G1 X28.285 Y129.025 E6.41486
G1 X28.226 Y128.629 F9000
;LAYER_CHANGE
;Z:1.8
;HEIGHT:0.2
;BEFORE_LAYER_CHANGE
;1.8

G1 Z1.8 F9000
;AFTER_LAYER_CHANGE
;1.8

G1 Z1.8
G1 X29.043 Y128.207
;TYPE:Perimeter
;WIDTH:0.457302
G1 F3600
G1 X29.043 Y127.793 E.01355
G1 X226.957 Y127.793 E6.47836
G1 X226.957 Y128 E.00678
G1 X226.957 Y128.207 E.00678
G1 X29.103 Y128.207 E6.4764
G1 X28.632 Y128.618 F9000
;WIDTH:0.449999
G1 F3600
G1 X28.632 Y127.382 E.03975
G1 X227.368 Y127.382 E6.39062
G1 X227.368 Y128 E.01987
G1 X227.368 Y128.618 E.01987
G1 X28.692 Y128.618 E6.38869
G1 X28.225 Y129.025 F9000
;TYPE:External perimeter
G1 F1800
G1 X28.225 Y126.975 E.06592
G1 X227.775 Y126.975 E6.41679
G1 X227.775 Y128 E.03296
G1 X227.775 Y129.025 E.03296
G1 X28.285 Y129.025 E6.41486
G1 X28.226 Y128.629 F9000
;LAYER_CHANGE
;Z:2
;HEIGHT:0.2
;BEFORE_LAYER_CHANGE
;2

G1 Z2 F9000
;AFTER_LAYER_CHANGE
;2

G1 Z2
G1 X29.043 Y128.207
;TYPE:Perimeter
;WIDTH:0.457302
G1 F3600
G1 X29.043 Y127.793 E.01355
G1 X226.957 Y127.793 E6.47836
G1 X226.957 Y128 E.00678
G1 X226.957 Y128.207 E.00678
G1 X29.103 Y128.207 E6.4764
G1 X28.632 Y128.618 F9000
;WIDTH:0.449999
G1 F3600
G1 X28.632 Y127.382 E.03975
G1 X227.368 Y127.382 E6.39062
G1 X227.368 Y128 E.01987
G1 X227.368 Y128.618 E.01987
G1 X28.692 Y128.618 E6.38869
G1 X28.225 Y129.025 F9000
;TYPE:External perimeter
G1 F1800
G1 X28.225 Y126.975 E.06592
G1 X227.775 Y126.975 E6.41679
G1 X227.775 Y128 E.03296
G1 X227.775 Y129.025 E.03296
G1 X28.285 Y129.025 E6.41486
G1 X28.226 Y128.629 F9000
;LAYER_CHANGE
;Z:2.2
;HEIGHT:0.2
;BEFORE_LAYER_CHANGE
;2.2

G1 Z2.2 F9000
;AFTER_LAYER_CHANGE
;2.2

G1 Z2.2
G1 X29.043 Y128.207
;TYPE:Perimeter
;WIDTH:0.457302
G1 F3600
G1 X29.043 Y127.793 E.01355
G1 X226.957 Y127.793 E6.47836
G1 X226.957 Y128 E.00678
G1 X226.957 Y128.207 E.00678
G1 X29.103 Y128.207 E6.4764
G1 X28.632 Y128.618 F9000
;WIDTH:0.449999
G1 F3600
G1 X28.632 Y127.382 E.03975
G1 X227.368 Y127.382 E6.39062
G1 X227.368 Y128 E.01987
G1 X227.368 Y128.618 E.01987
G1 X28.692 Y128.618 E6.38869
G1 X28.225 Y129.025 F9000
;TYPE:External perimeter
G1 F1800
G1 X28.225 Y126.975 E.06592
G1 X227.775 Y126.975 E6.41679
G1 X227.775 Y128 E.03296
G1 X227.775 Y129.025 E.03296
G1 X28.285 Y129.025 E6.41486
G1 X28.226 Y128.629 F9000
;LAYER_CHANGE
;Z:2.4
;HEIGHT:0.2
;BEFORE_LAYER_CHANGE
;2.4

G1 Z2.4 F9000
;AFTER_LAYER_CHANGE
;2.4

G1 Z2.4
G1 X29.043 Y128.207
;TYPE:Perimeter
;WIDTH:0.457302
G1 F3600
G1 X29.043 Y127.793 E.01355
G1 X226.957 Y127.793 E6.47836
G1 X226.957 Y128 E.00678
G1 X226.957 Y128.207 E.00678
G1 X29.103 Y128.207 E6.4764
G1 X28.632 Y128.618 F9000
;WIDTH:0.449999
G1 F3600
G1 X28.632 Y127.382 E.03975
G1 X227.368 Y127.382 E6.39062
G1 X227.368 Y128 E.01987
G1 X227.368 Y128.618 E.01987
G1 X28.692 Y128.618 E6.38869
G1 X28.225 Y129.025 F9000
;TYPE:External perimeter
G1 F1800
G1 X28.225 Y126.975 E.06592
G1 X227.775 Y126.975 E6.41679
G1 X227.775 Y128 E.03296
G1 X227.775 Y129.025 E.03296
G1 X28.285 Y129.025 E6.41486
G1 X28.226 Y128.629 F9000
;LAYER_CHANGE
;Z:2.6
;HEIGHT:0.2
;BEFORE_LAYER_CHANGE
;2.6

G1 Z2.6 F9000
;AFTER_LAYER_CHANGE
;2.6

G1 Z2.6
G1 X29.043 Y128.207
;TYPE:Perimeter
;WIDTH:0.457302
G1 F3600
G1 X29.043 Y127.793 E.01355
G1 X226.957 Y127.793 E6.47836
G1 X226.957 Y128 E.00678
G1 X226.957 Y128.207 E.00678
G1 X29.103 Y128.207 E6.4764
G1 X28.632 Y128.618 F9000
;WIDTH:0.449999
G1 F3600
G1 X28.632 Y127.382 E.03975
G1 X227.368 Y127.382 E6.39062
G1 X227.368 Y128 E.01987
G1 X227.368 Y128.618 E.01987
G1 X28.692 Y128.618 E6.38869
G1 X28.225 Y129.025 F9000
;TYPE:External perimeter
G1 F1800
G1 X28.225 Y126.975 E.06592
G1 X227.775 Y126.975 E6.41679
G1 X227.775 Y128 E.03296
G1 X227.775 Y129.025 E.03296
G1 X28.285 Y129.025 E6.41486
G1 X28.226 Y128.629 F9000
;LAYER_CHANGE
;Z:2.8
;HEIGHT:0.2
;BEFORE_LAYER_CHANGE
;2.8

G1 Z2.8 F9000
;AFTER_LAYER_CHANGE
;2.8

G1 Z2.8
G1 X29.043 Y128.207
;TYPE:Perimeter
;WIDTH:0.457302
G1 F3600
G1 X29.043 Y127.793 E.01355
G1 X226.957 Y127.793 E6.47836
G1 X226.957 Y128 E.00678
G1 X226.957 Y128.207 E.00678
G1 X29.103 Y128.207 E6.4764
G1 X28.632 Y128.618 F9000
;WIDTH:0.449999
G1 F3600
G1 X28.632 Y127.382 E.03975
G1 X227.368 Y127.382 E6.39062
G1 X227.368 Y128 E.01987
G1 X227.368 Y128.618 E.01987
G1 X28.692 Y128.618 E6.38869
G1 X28.225 Y129.025 F9000
;TYPE:External perimeter
G1 F1800
G1 X28.225 Y126.975 E.06592
G1 X227.775 Y126.975 E6.41679
G1 X227.775 Y128 E.03296
G1 X227.775 Y129.025 E.03296
G1 X28.285 Y129.025 E6.41486
G1 X28.226 Y128.629 F9000
;LAYER_CHANGE
;Z:3
;HEIGHT:0.2
;BEFORE_LAYER_CHANGE
;3

G1 Z3 F9000
;AFTER_LAYER_CHANGE
;3

G1 Z3
G1 X29.043 Y128.207
;TYPE:Perimeter
;WIDTH:0.457302
G1 F3600
G1 X29.043 Y127.793 E.01355
G1 X226.957 Y127.793 E6.47836
G1 X226.957 Y128 E.00678
G1 X226.957 Y128.207 E.00678
G1 X29.103 Y128.207 E6.4764
G1 X28.632 Y128.618 F9000
;WIDTH:0.449999
G1 F3600
G1 X28.632 Y127.382 E.03975
G1 X227.368 Y127.382 E6.39062
G1 X227.368 Y128 E.01987
G1 X227.368 Y128.618 E.01987
G1 X28.692 Y128.618 E6.38869
G1 X28.225 Y129.025 F9000
;TYPE:External perimeter
G1 F1800
G1 X28.225 Y126.975 E.06592
G1 X227.775 Y126.975 E6.41679
G1 X227.775 Y128 E.03296
G1 X227.775 Y129.025 E.03296
G1 X28.285 Y129.025 E6.41486
G1 X28.226 Y128.629 F9000
;LAYER_CHANGE
;Z:3.2
;HEIGHT:0.2
;BEFORE_LAYER_CHANGE
;3.2

G1 Z3.2 F9000
;AFTER_LAYER_CHANGE
;3.2

G1 Z3.2
G1 X29.043 Y128.207
;TYPE:Perimeter
;WIDTH:0.457302
G1 F3600
G1 X29.043 Y127.793 E.01355
G1 X226.957 Y127.793 E6.47836
G1 X226.957 Y128 E.00678
G1 X226.957 Y128.207 E.00678
G1 X29.103 Y128.207 E6.4764
G1 X28.632 Y128.618 F9000
;WIDTH:0.449999
G1 F3600
G1 X28.632 Y127.382 E.03975
G1 X227.368 Y127.382 E6.39062
G1 X227.368 Y128 E.01987
G1 X227.368 Y128.618 E.01987
G1 X28.692 Y128.618 E6.38869
G1 X28.225 Y129.025 F9000
;TYPE:External perimeter
G1 F1800
G1 X28.225 Y126.975 E.06592
G1 X227.775 Y126.975 E6.41679
G1 X227.775 Y128 E.03296
G1 X227.775 Y129.025 E.03296
G1 X28.285 Y129.025 E6.41486
G1 X28.226 Y128.629 F9000
;LAYER_CHANGE
;Z:3.4
;HEIGHT:0.2
;BEFORE_LAYER_CHANGE
;3.4

G1 Z3.4 F9000
;AFTER_LAYER_CHANGE
;3.4

G1 Z3.4
G1 X29.043 Y128.207
;TYPE:Perimeter
;WIDTH:0.457302
G1 F3600
G1 X29.043 Y127.793 E.01355
G1 X226.957 Y127.793 E6.47836
G1 X226.957 Y128 E.00678
G1 X226.957 Y128.207 E.00678
G1 X29.103 Y128.207 E6.4764
G1 X28.632 Y128.618 F9000
;WIDTH:0.449999
G1 F3600
G1 X28.632 Y127.382 E.03975
G1 X227.368 Y127.382 E6.39062
G1 X227.368 Y128 E.01987
G1 X227.368 Y128.618 E.01987
G1 X28.692 Y128.618 E6.38869
G1 X28.225 Y129.025 F9000
;TYPE:External perimeter
G1 F1800
G1 X28.225 Y126.975 E.06592
G1 X227.775 Y126.975 E6.41679
G1 X227.775 Y128 E.03296
G1 X227.775 Y129.025 E.03296
G1 X28.285 Y129.025 E6.41486
G1 X28.226 Y128.629 F9000
;LAYER_CHANGE
;Z:3.6
;HEIGHT:0.2
;BEFORE_LAYER_CHANGE
;3.6

G1 Z3.6 F9000
;AFTER_LAYER_CHANGE
;3.6

G1 Z3.6
G1 X29.043 Y128.207
;TYPE:Perimeter
;WIDTH:0.457302
G1 F3600
G1 X29.043 Y127.793 E.01355
G1 X226.957 Y127.793 E6.47836
G1 X226.957 Y128 E.00678
G1 X226.957 Y128.207 E.00678
G1 X29.103 Y128.207 E6.4764
G1 X28.632 Y128.618 F9000
;WIDTH:0.449999
G1 F3600
G1 X28.632 Y127.382 E.03975
G1 X227.368 Y127.382 E6.39062
G1 X227.368 Y128 E.01987
G1 X227.368 Y128.618 E.01987
G1 X28.692 Y128.618 E6.38869
G1 X28.225 Y129.025 F9000
;TYPE:External perimeter
G1 F1800
G1 X28.225 Y126.975 E.06592
G1 X227.775 Y126.975 E6.41679
G1 X227.775 Y128 E.03296
G1 X227.775 Y129.025 E.03296
G1 X28.285 Y129.025 E6.41486
G1 X28.226 Y128.629 F9000
;LAYER_CHANGE
;Z:3.8
;HEIGHT:0.2
;BEFORE_LAYER_CHANGE
;3.8

G1 Z3.8 F9000
;AFTER_LAYER_CHANGE
;3.8

G1 Z3.8
G1 X29.043 Y128.207
;TYPE:Perimeter
;WIDTH:0.457302
G1 F3600
G1 X29.043 Y127.793 E.01355
G1 X226.957 Y127.793 E6.47836
G1 X226.957 Y128 E.00678
G1 X226.957 Y128.207 E.00678
G1 X29.103 Y128.207 E6.4764
G1 X28.632 Y128.618 F9000
;WIDTH:0.449999
G1 F3600
G1 X28.632 Y127.382 E.03975
G1 X227.368 Y127.382 E6.39062
G1 X227.368 Y128 E.01987
G1 X227.368 Y128.618 E.01987
G1 X28.692 Y128.618 E6.38869
G1 X28.225 Y129.025 F9000
;TYPE:External perimeter
G1 F1800
G1 X28.225 Y126.975 E.06592
G1 X227.775 Y126.975 E6.41679
G1 X227.775 Y128 E.03296
G1 X227.775 Y129.025 E.03296
G1 X28.285 Y129.025 E6.41486
G1 X28.226 Y128.629 F9000
;LAYER_CHANGE
;Z:4
;HEIGHT:0.2
;BEFORE_LAYER_CHANGE
;4

G1 Z4 F9000
;AFTER_LAYER_CHANGE
;4

G1 Z4
G1 X29.043 Y128.207
;TYPE:Perimeter
;WIDTH:0.457302
G1 F3600
G1 X29.043 Y127.793 E.01355
G1 X226.957 Y127.793 E6.47836
G1 X226.957 Y128 E.00678
G1 X226.957 Y128.207 E.00678
G1 X29.103 Y128.207 E6.4764
G1 X28.632 Y128.618 F9000
;WIDTH:0.449999
G1 F3600
G1 X28.632 Y127.382 E.03975
G1 X227.368 Y127.382 E6.39062
G1 X227.368 Y128 E.01987
G1 X227.368 Y128.618 E.01987
G1 X28.692 Y128.618 E6.38869
G1 X28.225 Y129.025 F9000
;TYPE:External perimeter
G1 F1800
G1 X28.225 Y126.975 E.06592
G1 X227.775 Y126.975 E6.41679
G1 X227.775 Y128 E.03296
