; generated by PrusaSlicer 2.9.1 on 2026-02-14 at 04:47:23 UTC

; 

; external perimeters extrusion width = 0.45mm
; perimeters extrusion width = 0.45mm
; infill extrusion width = 0.45mm
; solid infill extrusion width = 0.45mm
; top infill extrusion width = 0.40mm
; first layer extrusion width = 0.45mm

;TYPE:Custom
;Elegoo Centauri Carbon - Start G-code
M140 S80 ; set bed temp
M104 S150 ; preheat nozzle to 150 (prevent ooze)
G28 ; home all axes
G29 ; auto bed leveling (if configured in Klipper)
M190 S80 ; wait for bed temp
G1 Z5 F3000 ; move nozzle up
M109 S240 ; wait for nozzle temp
; Prime line
G92 E0
G1 X5 Y5 F3000
G1 Z0.3 F1500
G1 X5 Y150 E15 F1500 ; draw prime line
G1 X5.4 Y150 F5000
G1 X5.4 Y5 E30 F1500 ; draw second prime line
G92 E0
G1 Z2 F3000 ; lift nozzle
;End of start G-code
G21 ; set units to millimeters
G90 ; use absolute coordinates
M83 ; use relative distances for extrusion
; Filament gcode
M107
;LAYER_CHANGE
;Z:0.2
;HEIGHT:0.2
G1 E-.8 F2100
G1 Z.6 F9000
G1 X79.321 Y92.32
G1 Z.2
G1 E.8 F2100
;TYPE:Skirt/Brim
;WIDTH:0.45
G1 F1500
G1 X81.009 Y91.192 E.06528
G1 X83 Y90.796 E.06528
G1 X173 Y90.796 E2.89407
G1 X174.991 Y91.193 E.06528
G1 X176.68 Y92.321 E.06531
G1 X177.808 Y94.009 E.06528
G1 X178.204 Y96 E.06528
G1 X178.204 Y161 E2.09016
G1 X177.807 Y162.991 E.06528
G1 X176.679 Y164.68 E.06531
G1 X174.991 Y165.808 E.06528
G1 X173 Y166.204 E.06528
G1 X83 Y166.204 E2.89407
G1 X81.009 Y165.807 E.06528
G1 X79.32 Y164.679 E.06531
G1 X78.192 Y162.991 E.06528
G1 X77.796 Y161 E.06528
G1 X77.796 Y96 E2.09016
G1 X78.193 Y94.009 E.06528
G1 X79.287 Y92.37 E.06337
G1 E-.8 F2100
G1 Z.6 F9000
G1 X171.761 Y97.239
G1 Z.2
G1 E.8 F2100
;TYPE:Perimeter
;WIDTH:0.449999
G1 F1500
G1 X171.761 Y128.5 E1.00524
G1 X171.761 Y159.761 E1.00524
G1 X84.239 Y159.761 E2.81439
G1 X84.239 Y97.239 E2.01048
G1 X171.701 Y97.239 E2.81246
G1 X172.168 Y96.832 F9000
G1 F1500
G1 X172.168 Y128.5 E1.01833
G1 X172.168 Y160.168 E1.01833
G1 X83.832 Y160.168 E2.84056
G1 X83.832 Y96.832 E2.03665
G1 X172.108 Y96.832 E2.83863
G1 X172.575 Y96.425 F9000
;TYPE:External perimeter
G1 F1500
G1 X172.575 Y128.5 E1.03141
G1 X172.575 Y160.575 E1.03141
G1 X83.425 Y160.575 E2.86674
G1 X83.425 Y96.425 E2.06283
G1 X172.515 Y96.425 E2.86481
G1 X172.574 Y96.821 F9000
G1 X171.639 Y98.187
;TYPE:Solid infill
;WIDTH:0.451448
G1 F1500
G1 X170.996 Y97.544 E.02935
G1 X170.418 Y97.544 E.01865
G1 X171.456 Y98.582 E.04737
G1 X171.456 Y99.16 E.01865
G1 X169.84 Y97.544 E.07375
G1 X169.263 Y97.544 E.01862
G1 X171.456 Y99.737 E.10008
G1 X171.456 Y100.315 E.01865
G1 X168.685 Y97.544 E.12646
G1 X168.107 Y97.544 E.01865
G1 X171.456 Y100.893 E.15284
G1 X171.456 Y101.471 E.01865
G1 X167.529 Y97.544 E.17922
G1 X166.952 Y97.544 E.01862
G1 X171.456 Y102.048 E.20555
G1 X171.456 Y102.626 E.01865
G1 X166.374 Y97.544 E.23193
G1 X165.796 Y97.544 E.01865
G1 X171.456 Y103.204 E.25831
G1 X171.456 Y103.782 E.01865
G1 X165.218 Y97.544 E.28469
G1 X164.641 Y97.544 E.01862
G1 X171.456 Y104.359 E.31102
G1 X171.456 Y104.937 E.01865
G1 X164.063 Y97.544 E.3374
G1 X163.485 Y97.544 E.01865
G1 X171.456 Y105.515 E.36378
G1 X171.456 Y106.093 E.01865
G1 X162.907 Y97.544 E.39016
G1 X162.33 Y97.544 E.01862
G1 X171.456 Y106.67 E.41649
G1 X171.456 Y107.248 E.01865
G1 X161.752 Y97.544 E.44287
G1 X161.174 Y97.544 E.01865
G1 X171.456 Y107.826 E.46925
G1 X171.456 Y108.404 E.01865
G1 X160.597 Y97.544 E.4956
G1 X160.019 Y97.544 E.01865
G1 X171.456 Y108.981 E.52196
G1 X171.456 Y109.559 E.01865
G1 X159.441 Y97.544 E.54834
G1 X158.863 Y97.544 E.01865
G1 X171.456 Y110.137 E.57472
G1 X171.456 Y110.714 E.01862
G1 X158.286 Y97.544 E.60105
G1 X157.708 Y97.544 E.01865
G1 X171.456 Y111.292 E.62743
G1 X171.456 Y111.87 E.01865
G1 X157.13 Y97.544 E.65381
G1 X156.552 Y97.544 E.01865
G1 X171.456 Y112.448 E.68019
G1 X171.456 Y113.025 E.01862
G1 X155.975 Y97.544 E.70652
G1 X155.397 Y97.544 E.01865
G1 X171.456 Y113.603 E.7329
G1 X171.456 Y114.181 E.01865
G1 X154.819 Y97.544 E.75928
G1 X154.241 Y97.544 E.01865
G1 X171.456 Y114.759 E.78565
G1 X171.456 Y115.336 E.01862
G1 X153.664 Y97.544 E.81199
G1 X153.086 Y97.544 E.01865
G1 X171.456 Y115.914 E.83837
G1 X171.456 Y116.492 E.01865
G1 X152.508 Y97.544 E.86474
G1 X151.93 Y97.544 E.01865
G1 X171.456 Y117.07 E.89112
G1 X171.456 Y117.647 E.01862
G1 X151.353 Y97.544 E.91746
G1 X150.775 Y97.544 E.01865
G1 X171.456 Y118.225 E.94383
G1 X171.456 Y118.803 E.01865
G1 X150.197 Y97.544 E.97021
G1 X149.619 Y97.544 E.01865
G1 X171.456 Y119.381 E.99659
G1 X171.456 Y119.958 E.01862
G1 X149.042 Y97.544 E1.02293
G1 X148.464 Y97.544 E.01865
G1 X171.456 Y120.536 E1.0493
G1 X171.456 Y121.114 E.01865
G1 X147.886 Y97.544 E1.07568
G1 X147.308 Y97.544 E.01865
G1 X171.456 Y121.692 E1.10206
G1 X171.456 Y122.269 E.01862
G1 X146.731 Y97.544 E1.12839
G1 X146.153 Y97.544 E.01865
G1 X171.456 Y122.847 E1.15477
G1 X171.456 Y123.425 E.01865
G1 X145.575 Y97.544 E1.18115
G1 X144.997 Y97.544 E.01865
G1 X171.456 Y124.003 E1.20753
G1 X171.456 Y124.58 E.01862
G1 X144.42 Y97.544 E1.23386
G1 X143.842 Y97.544 E.01865
G1 X171.456 Y125.158 E1.26024
G1 X171.456 Y125.736 E.01865
G1 X143.264 Y97.544 E1.28662
G1 X142.686 Y97.544 E.01865
G1 X171.456 Y126.314 E1.313
G1 X171.456 Y126.891 E.01862
G1 X142.109 Y97.544 E1.33933
G1 X141.531 Y97.544 E.01865
G1 X171.456 Y127.469 E1.36571
G1 X171.456 Y128.047 E.01865
G1 X140.953 Y97.544 E1.39209
G1 X140.375 Y97.544 E.01865
G1 X171.456 Y128.625 E1.41847
G1 X171.456 Y129.202 E.01862
G1 X139.798 Y97.544 E1.4448
G1 X139.22 Y97.544 E.01865
G1 X171.456 Y129.78 E1.47118
G1 X171.456 Y130.358 E.01865
G1 X138.642 Y97.544 E1.49756
G1 X138.064 Y97.544 E.01865
G1 X171.456 Y130.936 E1.52394
G1 X171.456 Y131.513 E.01862
G1 X137.487 Y97.544 E1.55027
G1 X136.909 Y97.544 E.01865
G1 X171.456 Y132.091 E1.57665
G1 X171.456 Y132.669 E.01865
G1 X136.331 Y97.544 E1.60303
G1 X135.753 Y97.544 E.01865
G1 X171.456 Y133.247 E1.62941
G1 X171.456 Y133.824 E.01862
G1 X135.176 Y97.544 E1.65574
G1 X134.598 Y97.544 E.01865
G1 X171.456 Y134.402 E1.68212
G1 X171.456 Y134.98 E.01865
G1 X134.02 Y97.544 E1.7085
G1 X133.442 Y97.544 E.01865
G1 X171.456 Y135.558 E1.73487
G1 X171.456 Y136.135 E.01862
G1 X132.865 Y97.544 E1.76121
G1 X132.287 Y97.544 E.01865
G1 X171.456 Y136.713 E1.78759
G1 X171.456 Y137.291 E.01865
G1 X131.709 Y97.544 E1.81396
G1 X131.131 Y97.544 E.01865
G1 X171.456 Y137.869 E1.84034
G1 X171.456 Y138.446 E.01862
G1 X130.554 Y97.544 E1.86668
G1 X129.976 Y97.544 E.01865
G1 X171.456 Y139.024 E1.89305
G1 X171.456 Y139.602 E.01865
G1 X129.398 Y97.544 E1.91943
G1 X128.82 Y97.544 E.01865
G1 X171.456 Y140.18 E1.94581
G1 X171.456 Y140.757 E.01862
G1 X128.243 Y97.544 E1.97215
G1 X127.665 Y97.544 E.01865
G1 X171.456 Y141.335 E1.99852
G1 X171.456 Y141.913 E.01865
G1 X127.087 Y97.544 E2.0249
G1 X126.509 Y97.544 E.01865
G1 X171.456 Y142.491 E2.05128
G1 X171.456 Y143.068 E.01862
G1 X125.932 Y97.544 E2.07761
G1 X125.354 Y97.544 E.01865
G1 X171.456 Y143.646 E2.10399
G1 X171.456 Y144.224 E.01865
G1 X124.776 Y97.544 E2.13037
G1 X124.199 Y97.544 E.01862
G1 X171.456 Y144.801 E2.1567
G1 X171.456 Y145.379 E.01865
G1 X123.621 Y97.544 E2.18308
G1 X123.043 Y97.544 E.01865
G1 X171.456 Y145.957 E2.20946
G1 X171.456 Y146.535 E.01865
G1 X122.465 Y97.544 E2.23584
G1 X121.888 Y97.544 E.01862
G1 X171.456 Y147.112 E2.26217
G1 X171.456 Y147.69 E.01865
G1 X121.31 Y97.544 E2.28855
G1 X120.732 Y97.544 E.01865
G1 X171.456 Y148.268 E2.31493
G1 X171.456 Y148.846 E.01865
G1 X120.154 Y97.544 E2.34131
G1 X119.577 Y97.544 E.01862
G1 X171.456 Y149.423 E2.36764
G1 X171.456 Y150.001 E.01865
G1 X118.999 Y97.544 E2.39402
G1 X118.421 Y97.544 E.01865
G1 X171.456 Y150.579 E2.4204
G1 X171.456 Y151.157 E.01865
G1 X117.843 Y97.544 E2.44678
G1 X117.266 Y97.544 E.01862
G1 X171.456 Y151.734 E2.47311
G1 X171.456 Y152.312 E.01865
G1 X116.688 Y97.544 E2.49949
G1 X116.11 Y97.544 E.01865
G1 X171.456 Y152.89 E2.52587
G1 X171.456 Y153.468 E.01865
G1 X115.532 Y97.544 E2.55225
G1 X114.955 Y97.544 E.01862
G1 X171.456 Y154.045 E2.57858
G1 X171.456 Y154.623 E.01865
G1 X114.377 Y97.544 E2.60496
G1 X113.799 Y97.544 E.01865
G1 X171.456 Y155.201 E2.63134
G1 X171.456 Y155.779 E.01865
G1 X113.221 Y97.544 E2.65772
G1 X112.644 Y97.544 E.01862
G1 X171.456 Y156.356 E2.68405
G1 X171.456 Y156.934 E.01865
G1 X112.066 Y97.544 E2.71043
G1 X111.488 Y97.544 E.01865
G1 X171.456 Y157.512 E2.73681
G1 X171.456 Y158.09 E.01865
G1 X110.91 Y97.544 E2.76318
G1 X110.333 Y97.544 E.01862
G1 X171.456 Y158.667 E2.78952
G1 X171.456 Y159.245 E.01865
G1 X109.755 Y97.544 E2.8159
G1 X109.177 Y97.544 E.01865
G1 X171.088 Y159.456 E2.8255
G1 X170.51 Y159.456 E.01865
G1 X108.599 Y97.544 E2.8255
G1 X108.022 Y97.544 E.01862
G1 X169.933 Y159.456 E2.8255
G1 X169.355 Y159.456 E.01865
G1 X107.444 Y97.544 E2.8255
G1 X106.866 Y97.544 E.01865
G1 X168.777 Y159.456 E2.8255
G1 X168.199 Y159.456 E.01865
G1 X106.288 Y97.544 E2.8255
G1 X105.711 Y97.544 E.01862
G1 X167.622 Y159.456 E2.8255
G1 X167.044 Y159.456 E.01865
G1 X105.133 Y97.544 E2.8255
G1 X104.555 Y97.544 E.01865
G1 X166.466 Y159.456 E2.8255
G1 X165.888 Y159.456 E.01865
G1 X103.977 Y97.544 E2.8255
G1 X103.4 Y97.544 E.01862
G1 X165.311 Y159.456 E2.8255
G1 X164.733 Y159.456 E.01865
G1 X102.822 Y97.544 E2.8255
G1 X102.244 Y97.544 E.01865
G1 X164.155 Y159.456 E2.8255
G1 X163.577 Y159.456 E.01865
G1 X101.666 Y97.544 E2.8255
G1 X101.089 Y97.544 E.01862
G1 X163 Y159.456 E2.8255
G1 X162.422 Y159.456 E.01865
G1 X100.511 Y97.544 E2.8255
G1 X99.933 Y97.544 E.01865
G1 X161.844 Y159.456 E2.8255
G1 X161.267 Y159.456 E.01862
G1 X99.355 Y97.544 E2.82553
G1 X98.778 Y97.544 E.01862
G1 X160.689 Y159.456 E2.8255
G1 X160.111 Y159.456 E.01865
G1 X98.2 Y97.544 E2.8255
G1 X97.622 Y97.544 E.01865
G1 X159.533 Y159.456 E2.8255
G1 X158.956 Y159.456 E.01862
G1 X97.044 Y97.544 E2.82553
G1 X96.467 Y97.544 E.01862
G1 X158.378 Y159.456 E2.8255
G1 X157.8 Y159.456 E.01865
G1 X95.889 Y97.544 E2.8255
G1 X95.311 Y97.544 E.01865
G1 X157.222 Y159.456 E2.8255
G1 X156.645 Y159.456 E.01862
G1 X94.733 Y97.544 E2.82553
G1 X94.156 Y97.544 E.01862
G1 X156.067 Y159.456 E2.8255
G1 X155.489 Y159.456 E.01865
G1 X93.578 Y97.544 E2.8255
G1 X93 Y97.544 E.01865
G1 X154.911 Y159.456 E2.8255
G1 X154.334 Y159.456 E.01862
G1 X92.422 Y97.544 E2.82553
G1 X91.845 Y97.544 E.01862
G1 X153.756 Y159.456 E2.8255
G1 X153.178 Y159.456 E.01865
G1 X91.267 Y97.544 E2.8255
G1 X90.689 Y97.544 E.01865
G1 X152.6 Y159.456 E2.8255
G1 X152.023 Y159.456 E.01862
G1 X90.112 Y97.544 E2.8255
G1 X89.534 Y97.544 E.01865
G1 X151.445 Y159.456 E2.8255
G1 X150.867 Y159.456 E.01865
G1 X88.956 Y97.544 E2.8255
G1 X88.378 Y97.544 E.01865
G1 X150.289 Y159.456 E2.8255
G1 X149.712 Y159.456 E.01862
G1 X87.801 Y97.544 E2.8255
G1 X87.223 Y97.544 E.01865
G1 X149.134 Y159.456 E2.8255
G1 X148.556 Y159.456 E.01865
G1 X86.645 Y97.544 E2.8255
G1 X86.067 Y97.544 E.01865
G1 X147.978 Y159.456 E2.8255
G1 X147.401 Y159.456 E.01862
G1 X85.49 Y97.544 E2.8255
G1 X84.912 Y97.544 E.01865
G1 X146.823 Y159.456 E2.8255
G1 X146.245 Y159.456 E.01865
G1 X84.544 Y97.755 E2.8159
G1 X84.544 Y98.333 E.01865
G1 X145.667 Y159.456 E2.78952
G1 X145.09 Y159.456 E.01862
G1 X84.544 Y98.91 E2.76318
G1 X84.544 Y99.488 E.01865
G1 X144.512 Y159.456 E2.73681
G1 X143.934 Y159.456 E.01865
G1 X84.544 Y100.066 E2.71043
G1 X84.544 Y100.644 E.01865
G1 X143.356 Y159.456 E2.68405
G1 X142.779 Y159.456 E.01862
G1 X84.544 Y101.221 E2.65772
G1 X84.544 Y101.799 E.01865
G1 X142.201 Y159.456 E2.63134
G1 X141.623 Y159.456 E.01865
G1 X84.544 Y102.377 E2.60496
G1 X84.544 Y102.955 E.01865
G1 X141.045 Y159.456 E2.57858
G1 X140.468 Y159.456 E.01862
G1 X84.544 Y103.532 E2.55225
G1 X84.544 Y104.11 E.01865
G1 X139.89 Y159.456 E2.52587
G1 X139.312 Y159.456 E.01865
G1 X84.544 Y104.688 E2.49949
G1 X84.544 Y105.266 E.01865
G1 X138.734 Y159.456 E2.47311
G1 X138.157 Y159.456 E.01862
G1 X84.544 Y105.843 E2.44678
G1 X84.544 Y106.421 E.01865
G1 X137.579 Y159.456 E2.4204
G1 X137.001 Y159.456 E.01865
G1 X84.544 Y106.999 E2.39402
G1 X84.544 Y107.577 E.01865
G1 X136.423 Y159.456 E2.36764
G1 X135.846 Y159.456 E.01862
G1 X84.544 Y108.154 E2.34131
G1 X84.544 Y108.732 E.01865
G1 X135.268 Y159.456 E2.31493
G1 X134.69 Y159.456 E.01865
G1 X84.544 Y109.31 E2.28855
G1 X84.544 Y109.888 E.01865
G1 X134.112 Y159.456 E2.26217
G1 X133.535 Y159.456 E.01862
G1 X84.544 Y110.465 E2.23584
G1 X84.544 Y111.043 E.01865
G1 X132.957 Y159.456 E2.20946
G1 X132.379 Y159.456 E.01865
G1 X84.544 Y111.621 E2.18308
G1 X84.544 Y112.199 E.01865
G1 X131.801 Y159.456 E2.1567
G1 X131.224 Y159.456 E.01862
G1 X84.544 Y112.776 E2.13037
G1 X84.544 Y113.354 E.01865
G1 X130.646 Y159.456 E2.10399
G1 X130.068 Y159.456 E.01865
G1 X84.544 Y113.932 E2.07761
G1 X84.544 Y114.51 E.01865
G1 X129.49 Y159.456 E2.05124
G1 X128.913 Y159.456 E.01862
G1 X84.544 Y115.087 E2.0249
G1 X84.544 Y115.665 E.01865
G1 X128.335 Y159.456 E1.99852
G1 X127.757 Y159.456 E.01865
G1 X84.544 Y116.243 E1.97215
G1 X84.544 Y116.821 E.01865
G1 X127.18 Y159.456 E1.94579
G1 X126.602 Y159.456 E.01865
G1 X84.544 Y117.398 E1.91943
G1 X84.544 Y117.976 E.01865
G1 X126.024 Y159.456 E1.89305
G1 X125.446 Y159.456 E.01865
G1 X84.544 Y118.554 E1.86668
G1 X84.544 Y119.131 E.01862
G1 X124.869 Y159.456 E1.84034
G1 X124.291 Y159.456 E.01865
G1 X84.544 Y119.709 E1.81396
G1 X84.544 Y120.287 E.01865
G1 X123.713 Y159.456 E1.78759
G1 X123.135 Y159.456 E.01865
G1 X84.544 Y120.865 E1.76121
G1 X84.544 Y121.442 E.01862
G1 X122.558 Y159.456 E1.73487
G1 X121.98 Y159.456 E.01865
G1 X84.544 Y122.02 E1.7085
G1 X84.544 Y122.598 E.01865
G1 X121.402 Y159.456 E1.68212
G1 X120.824 Y159.456 E.01865
G1 X84.544 Y123.176 E1.65574
G1 X84.544 Y123.753 E.01862
G1 X120.247 Y159.456 E1.62941
G1 X119.669 Y159.456 E.01865
G1 X84.544 Y124.331 E1.60303
G1 X84.544 Y124.909 E.01865
G1 X119.091 Y159.456 E1.57665
G1 X118.513 Y159.456 E.01865
G1 X84.544 Y125.487 E1.55027
G1 X84.544 Y126.064 E.01862
G1 X117.936 Y159.456 E1.52394
G1 X117.358 Y159.456 E.01865
G1 X84.544 Y126.642 E1.49756
G1 X84.544 Y127.22 E.01865
G1 X116.78 Y159.456 E1.47118
G1 X116.202 Y159.456 E.01865
G1 X84.544 Y127.798 E1.4448
G1 X84.544 Y128.375 E.01862
G1 X115.625 Y159.456 E1.41847
G1 X115.047 Y159.456 E.01865
G1 X84.544 Y128.953 E1.39209
G1 X84.544 Y129.531 E.01865
G1 X114.469 Y159.456 E1.36571
G1 X113.891 Y159.456 E.01865
G1 X84.544 Y130.109 E1.33933
G1 X84.544 Y130.686 E.01862
G1 X113.314 Y159.456 E1.313
G1 X112.736 Y159.456 E.01865
G1 X84.544 Y131.264 E1.28662
G1 X84.544 Y131.842 E.01865
G1 X112.158 Y159.456 E1.26024
G1 X111.58 Y159.456 E.01865
G1 X84.544 Y132.42 E1.23386
G1 X84.544 Y132.997 E.01862
G1 X111.003 Y159.456 E1.20753
G1 X110.425 Y159.456 E.01865
G1 X84.544 Y133.575 E1.18115
G1 X84.544 Y134.153 E.01865
G1 X109.847 Y159.456 E1.15477
G1 X109.269 Y159.456 E.01865
G1 X84.544 Y134.731 E1.12839
G1 X84.544 Y135.308 E.01862
G1 X108.692 Y159.456 E1.10206
G1 X108.114 Y159.456 E.01865
G1 X84.544 Y135.886 E1.07568
G1 X84.544 Y136.464 E.01865
G1 X107.536 Y159.456 E1.0493
G1 X106.958 Y159.456 E.01865
G1 X84.544 Y137.042 E1.02293
G1 X84.544 Y137.619 E.01862
G1 X106.381 Y159.456 E.99659
G1 X105.803 Y159.456 E.01865
G1 X84.544 Y138.197 E.97021
G1 X84.544 Y138.775 E.01865
G1 X105.225 Y159.456 E.94383
G1 X104.647 Y159.456 E.01865
G1 X84.544 Y139.353 E.91746
G1 X84.544 Y139.93 E.01862
G1 X104.07 Y159.456 E.89112
G1 X103.492 Y159.456 E.01865
G1 X84.544 Y140.508 E.86474
G1 X84.544 Y141.086 E.01865
G1 X102.914 Y159.456 E.83837
G1 X102.336 Y159.456 E.01865
G1 X84.544 Y141.664 E.81199
G1 X84.544 Y142.241 E.01862
G1 X101.759 Y159.456 E.78565
G1 X101.181 Y159.456 E.01865
G1 X84.544 Y142.819 E.75928
G1 X84.544 Y143.397 E.01865
G1 X100.603 Y159.456 E.7329
G1 X100.025 Y159.456 E.01865
G1 X84.544 Y143.975 E.70652
G1 X84.544 Y144.552 E.01862
G1 X99.448 Y159.456 E.68019
G1 X98.87 Y159.456 E.01865
G1 X84.544 Y145.13 E.65381
G1 X84.544 Y145.708 E.01865
G1 X98.292 Y159.456 E.62743
G1 X97.714 Y159.456 E.01865
G1 X84.544 Y146.286 E.60105
G1 X84.544 Y146.863 E.01862
G1 X97.137 Y159.456 E.57472
G1 X96.559 Y159.456 E.01865
G1 X84.544 Y147.441 E.54834
G1 X84.544 Y148.019 E.01865
G1 X95.981 Y159.456 E.52196
G1 X95.403 Y159.456 E.01865
G1 X84.544 Y148.597 E.49558
G1 X84.544 Y149.174 E.01862
G1 X94.826 Y159.456 E.46925
