; generated by PrusaSlicer 2.9.1 on 2026-02-14 at 04:47:15 UTC

; 

; external perimeters extrusion width = 0.45mm
; perimeters extrusion width = 0.45mm
; infill extrusion width = 0.45mm
; solid infill extrusion width = 0.45mm
; top infill extrusion width = 0.40mm
; first layer extrusion width = 0.45mm

;TYPE:Custom
;Elegoo Centauri Carbon - Start G-code
M140 S80 ; set bed temp
M104 S150 ; preheat nozzle to 150 (prevent ooze)
G28 ; home all axes
G29 ; auto bed leveling (if configured in Klipper)
M190 S80 ; wait for bed temp
G1 Z5 F3000 ; move nozzle up
M109 S240 ; wait for nozzle temp
; Prime line
G92 E0
G1 X5 Y5 F3000
G1 Z0.3 F1500
G1 X5 Y150 E15 F1500 ; draw prime line
G1 X5.4 Y150 F5000
G1 X5.4 Y5 E30 F1500 ; draw second prime line
G92 E0
G1 Z2 F3000 ; lift nozzle
;End of start G-code
G21 ; set units to millimeters
G90 ; use absolute coordinates
M83 ; use relative distances for extrusion
; Filament gcode
M107
;LAYER_CHANGE
;Z:0.2
;HEIGHT:0.2
G1 E-.8 F2100
G1 Z.6 F9000
G1 X106.993 Y93.833
G1 Z.2
G1 E.8 F2100
;TYPE:Skirt/Brim
;WIDTH:0.45
G1 F1500
G1 X107.292 Y93.491 E.01461
G1 X109.114 Y92.594 E.0653
G1 X110.46 Y92.416 E.04366
G1 X145.54 Y92.416 E1.12805
G1 X147.531 Y92.812 E.06528
G1 X149.22 Y93.941 E.06533
G1 X150.046 Y95.018 E.04365
G1 X167.586 Y125.398 E1.12804
G1 X168.239 Y127.321 E.0653
G1 X168.106 Y129.347 E.06529
G1 X167.586 Y130.602 E.04368
G1 X150.046 Y160.982 E1.12804
G1 X148.708 Y162.509 E.06529
G1 X146.886 Y163.406 E.0653
G1 X145.54 Y163.584 E.04366
G1 X110.46 Y163.584 E1.12805
G1 X108.469 Y163.188 E.06528
G1 X106.78 Y162.059 E.06533
G1 X105.954 Y160.982 E.04365
G1 X88.414 Y130.602 E1.12804
G1 X87.761 Y128.679 E.0653
G1 X87.894 Y126.653 E.06529
G1 X88.414 Y125.398 E.04368
G1 X105.954 Y95.018 E1.12804
G1 X106.953 Y93.878 E.04874
G1 E-.8 F2100
G1 Z.6 F9000
G1 X144.76 Y157.03
G1 Z.2
G1 E.8 F2100
;TYPE:External perimeter
;WIDTH:0.449999
G1 F1500
G1 X144.703 Y157.07 E.00224
G1 X111.332 Y157.073 E1.07309
G1 X111.176 Y157 E.00554
G1 X111.156 Y156.971 E.00113
G1 X94.488 Y128.102 E1.07194
G1 X94.473 Y127.93 E.00555
G1 X111.156 Y99.029 E1.07307
G1 X111.297 Y98.93 E.00554
G1 X144.668 Y98.927 E1.07309
G1 X144.77 Y98.954 E.00339
G1 X144.844 Y99.029 E.00339
G1 X161.512 Y127.898 E1.07194
G1 X161.527 Y128.07 E.00555
G1 X144.844 Y156.971 E1.07307
G1 X144.809 Y156.996 E.00138
G1 X144.415 Y157.063 F9000
G1 X145.013 Y157.468
;TYPE:Perimeter
;WIDTH:0.610448
G1 F1500
G1 X144.841 Y157.491 E.00778
;WIDTH:0.56417
G1 X144.668 Y157.514 E.00719
;WIDTH:0.517892
G1 X111.332 Y157.514 E1.25075
;WIDTH:0.56417
G1 X111.159 Y157.491 E.00719
;WIDTH:0.610448
G1 X110.987 Y157.468 E.00778
G1 X110.88 Y157.33 E.00783
;WIDTH:0.564171
G1 X110.774 Y157.192 E.00716
;WIDTH:0.517894
G1 X94.106 Y128.322 E1.25076
;WIDTH:0.564171
G1 X94.04 Y128.161 E.00716
;WIDTH:0.610448
G1 X93.973 Y128 E.00782
G1 X94.04 Y127.839 E.00782
;WIDTH:0.56417
G1 X94.106 Y127.678 E.00716
;WIDTH:0.517894
G1 X110.774 Y98.808 E1.25076
;WIDTH:0.564171
G1 X110.88 Y98.67 E.00716
;WIDTH:0.610448
G1 X110.987 Y98.532 E.00783
G1 X111.159 Y98.509 E.00778
;WIDTH:0.56417
G1 X111.332 Y98.486 E.00719
;WIDTH:0.517892
G1 X144.668 Y98.486 E1.25075
;WIDTH:0.56417
G1 X144.841 Y98.509 E.00719
;WIDTH:0.610448
G1 X145.013 Y98.532 E.00778
G1 X145.12 Y98.67 E.00783
;WIDTH:0.56417
G1 X145.226 Y98.808 E.00716
;WIDTH:0.517892
G1 X161.894 Y127.678 E1.25075
;WIDTH:0.56417
G1 X161.96 Y127.839 E.00716
;WIDTH:0.610448
G1 X162.027 Y128 E.00782
G1 X161.986 Y128.111 E.0053
;WIDTH:0.569055
G1 X161.946 Y128.223 E.00494
;WIDTH:0.527662
G1 X161.894 Y128.322 E.00428
;WIDTH:0.517892
G1 X145.226 Y157.192 E1.25075
;WIDTH:0.56417
G1 X145.12 Y157.33 E.00716
;WIDTH:0.610448
G1 X145.05 Y157.42 E.00511
G1 X145.295 Y157.955 F9000
;TYPE:External perimeter
;WIDTH:0.449999
G1 F1500
G1 X110.705 Y157.955 E1.11229
G1 X93.411 Y128 E1.11225
G1 X110.705 Y98.045 E1.11225
G1 X145.295 Y98.045 E1.11229
G1 X162.589 Y128 E1.11225
G1 X145.325 Y157.903 E1.11032
G1 X144.928 Y157.951 F9000
;LAYER_CHANGE
;Z:0.4
;HEIGHT:0.2
;BEFORE_LAYER_CHANGE
;0.4

G1 Z.4 F9000
;AFTER_LAYER_CHANGE
;0.4

M104 S235 ; set temperature
M140 S75 ; set bed temperature
G1 Z.4
G1 X144.947 Y157.379
;TYPE:Perimeter
;WIDTH:0.541043
G1 F3600
G1 X144.796 Y157.405 E.00603
;WIDTH:0.510725
G1 X144.632 Y157.434 E.00615
;WIDTH:0.480406
G1 X111.368 Y157.434 E1.14955
;WIDTH:0.510725
G1 X111.204 Y157.405 E.00615
;WIDTH:0.541043
G1 X111.04 Y157.376 E.00655
G1 X110.933 Y157.249 E.00653
;WIDTH:0.510725
G1 X110.826 Y157.121 E.00616
;WIDTH:0.480407
G1 X94.193 Y128.313 E1.14958
;WIDTH:0.510725
G1 X94.136 Y128.156 E.00617
;WIDTH:0.541043
G1 X94.079 Y128 E.00654
G1 X94.136 Y127.844 E.00654
;WIDTH:0.510725
G1 X94.193 Y127.687 E.00617
;WIDTH:0.480407
G1 X110.826 Y98.879 E1.14958
;WIDTH:0.510725
G1 X110.933 Y98.751 E.00616
;WIDTH:0.541043
G1 X111.04 Y98.624 E.00653
G1 X111.204 Y98.595 E.00655
;WIDTH:0.510725
G1 X111.368 Y98.566 E.00615
;WIDTH:0.480406
G1 X144.632 Y98.566 E1.14955
;WIDTH:0.510725
G1 X144.796 Y98.595 E.00615
;WIDTH:0.541043
G1 X144.96 Y98.624 E.00655
G1 X145.067 Y98.751 E.00653
;WIDTH:0.510724
G1 X145.174 Y98.879 E.00616
;WIDTH:0.480406
G1 X161.807 Y127.687 E1.14958
;WIDTH:0.510725
G1 X161.864 Y127.844 E.00617
;WIDTH:0.541043
G1 X161.921 Y128 E.00654
G1 X161.888 Y128.108 E.00444
;WIDTH:0.513924
G1 X161.856 Y128.216 E.00419
;WIDTH:0.486805
G1 X161.807 Y128.313 E.00381
;WIDTH:0.480406
G1 X145.174 Y157.121 E1.14958
;WIDTH:0.510724
G1 X145.067 Y157.249 E.00616
;WIDTH:0.541043
G1 X144.99 Y157.341 E.00472
G1 X144.725 Y156.968 F9000
;TYPE:External perimeter
;WIDTH:0.449999
G1 F1800
G1 X144.668 Y157.009 E.00226
G1 X111.368 Y157.012 E1.07081
G1 X111.212 Y156.939 E.00554
G1 X111.191 Y156.91 E.00115
G1 X94.559 Y128.102 E1.06966
G1 X94.544 Y127.93 E.00555
G1 X111.191 Y99.09 E1.0708
G1 X111.332 Y98.991 E.00554
G1 X144.632 Y98.988 E1.07081
G1 X144.734 Y99.016 E.0034
G1 X144.809 Y99.09 E.00339
G1 X161.441 Y127.898 E1.06966
G1 X161.456 Y128.07 E.00555
G1 X144.809 Y156.91 E1.0708
G1 X144.774 Y156.934 E.00136
G1 X144.38 Y157.001 F9000
G1 X145.229 Y157.841
;TYPE:Perimeter
;WIDTH:0.541043
G1 F3600
G1 X144.931 Y157.856 E.01174
;WIDTH:0.510725
G1 X144.632 Y157.871 E.01106
;WIDTH:0.480406
G1 X111.368 Y157.871 E1.14955
;WIDTH:0.510725
G1 X111.069 Y157.856 E.01106
;WIDTH:0.541043
G1 X110.771 Y157.841 E.01174
G1 X110.609 Y157.59 E.01175
;WIDTH:0.510725
G1 X110.447 Y157.34 E.01101
;WIDTH:0.480407
G1 X93.814 Y128.532 E1.14958
;WIDTH:0.510725
G1 X93.678 Y128.266 E.01104
;WIDTH:0.541043
G1 X93.542 Y128 E.01176
G1 X93.678 Y127.734 E.01176
;WIDTH:0.510725
G1 X93.814 Y127.468 E.01104
;WIDTH:0.480407
G1 X110.447 Y98.66 E1.14958
;WIDTH:0.510725
G1 X110.609 Y98.41 E.01101
;WIDTH:0.541043
G1 X110.771 Y98.159 E.01175
G1 X111.069 Y98.144 E.01174
;WIDTH:0.510725
G1 X111.368 Y98.129 E.01106
;WIDTH:0.480406
G1 X144.632 Y98.129 E1.14955
;WIDTH:0.510725
G1 X144.931 Y98.144 E.01106
;WIDTH:0.541043
G1 X145.229 Y98.159 E.01174
G1 X145.391 Y98.41 E.01175
;WIDTH:0.510724
G1 X145.553 Y98.66 E.01101
;WIDTH:0.480406
G1 X162.186 Y127.468 E1.14958
;WIDTH:0.510725
G1 X162.322 Y127.734 E.01104
;WIDTH:0.541043
G1 X162.458 Y128 E.01176
G1 X162.322 Y128.266 E.01176
;WIDTH:0.510725
G1 X162.186 Y128.532 E.01104
;WIDTH:0.480406
G1 X145.553 Y157.34 E1.14958
;WIDTH:0.510724
G1 X145.391 Y157.59 E.01101
;WIDTH:0.541043
G1 X145.261 Y157.791 E.00942
G1 X145.49 Y158.294 F9000
;TYPE:External perimeter
;WIDTH:0.449999
G1 F1800
G1 X110.51 Y158.294 E1.12483
G1 X93.02 Y128 E1.12484
G1 X110.51 Y97.706 E1.12484
G1 X145.49 Y97.706 E1.12483
G1 X162.98 Y128 E1.12484
G1 X145.52 Y158.242 E1.12291
G1 X145.123 Y158.29 F9000
;LAYER_CHANGE
;Z:0.6
;HEIGHT:0.2
;BEFORE_LAYER_CHANGE
;0.6

G1 Z.6 F9000
;AFTER_LAYER_CHANGE
;0.6

G1 Z.6
G1 X145.027 Y157.517
;TYPE:Perimeter
;WIDTH:0.541043
G1 F3600
G1 X144.876 Y157.544 E.00604
;WIDTH:0.510725
G1 X144.712 Y157.573 E.00615
;WIDTH:0.480406
G1 X111.288 Y157.573 E1.15508
;WIDTH:0.510725
G1 X111.124 Y157.544 E.00615
;WIDTH:0.541043
G1 X110.96 Y157.515 E.00655
G1 X110.853 Y157.387 E.00656
;WIDTH:0.510725
G1 X110.746 Y157.26 E.00614
;WIDTH:0.480407
G1 X94.033 Y128.313 E1.15512
;WIDTH:0.510725
G1 X93.976 Y128.156 E.00617
;WIDTH:0.541043
G1 X93.919 Y128 E.00654
G1 X93.976 Y127.844 E.00654
;WIDTH:0.510725
G1 X94.033 Y127.687 E.00617
;WIDTH:0.480407
G1 X110.746 Y98.74 E1.15512
;WIDTH:0.510725
G1 X110.853 Y98.613 E.00614
;WIDTH:0.541043
G1 X110.96 Y98.485 E.00656
G1 X111.124 Y98.456 E.00655
;WIDTH:0.510725
G1 X111.288 Y98.427 E.00615
;WIDTH:0.480406
G1 X144.712 Y98.427 E1.15508
;WIDTH:0.510725
G1 X144.876 Y98.456 E.00615
;WIDTH:0.541043
G1 X145.04 Y98.485 E.00655
G1 X145.147 Y98.613 E.00656
;WIDTH:0.510724
G1 X145.254 Y98.74 E.00614
;WIDTH:0.480406
G1 X161.967 Y127.687 E1.15512
;WIDTH:0.510725
G1 X162.024 Y127.844 E.00617
;WIDTH:0.541043
G1 X162.081 Y128 E.00654
G1 X162.048 Y128.108 E.00444
;WIDTH:0.513924
G1 X162.016 Y128.216 E.00419
;WIDTH:0.486805
G1 X161.967 Y128.313 E.00381
;WIDTH:0.480406
G1 X145.254 Y157.26 E1.15512
;WIDTH:0.510724
G1 X145.147 Y157.387 E.00614
;WIDTH:0.541043
G1 X145.07 Y157.48 E.00475
G1 X144.805 Y157.107 F9000
;TYPE:External perimeter
;WIDTH:0.449999
G1 F1800
G1 X144.748 Y157.147 E.00224
G1 X111.288 Y157.15 E1.07595
G1 X111.132 Y157.077 E.00554
G1 X111.111 Y157.048 E.00115
G1 X94.399 Y128.102 E1.07479
G1 X94.384 Y127.93 E.00555
G1 X111.111 Y98.952 E1.07592
G1 X111.252 Y98.853 E.00554
G1 X144.712 Y98.85 E1.07595
G1 X144.814 Y98.877 E.00339
G1 X144.889 Y98.952 E.00341
G1 X161.601 Y127.898 E1.07479
G1 X161.616 Y128.07 E.00555
G1 X144.889 Y157.048 E1.07592
G1 X144.854 Y157.073 E.00138
G1 X144.46 Y157.14 F9000
G1 X145.309 Y157.98
;TYPE:Perimeter
;WIDTH:0.541043
G1 F3600
G1 X145.011 Y157.995 E.01174
;WIDTH:0.510725
G1 X144.712 Y158.01 E.01106
;WIDTH:0.480406
G1 X111.288 Y158.01 E1.15508
;WIDTH:0.510725
G1 X110.989 Y157.995 E.01106
;WIDTH:0.541043
G1 X110.691 Y157.98 E.01174
G1 X110.529 Y157.729 E.01175
;WIDTH:0.510725
G1 X110.367 Y157.478 E.01104
;WIDTH:0.480407
G1 X93.654 Y128.532 E1.15509
;WIDTH:0.510725
G1 X93.518 Y128.266 E.01104
;WIDTH:0.541043
G1 X93.382 Y128 E.01176
G1 X93.518 Y127.734 E.01176
;WIDTH:0.510725
G1 X93.654 Y127.468 E.01104
;WIDTH:0.480407
G1 X110.367 Y98.522 E1.15509
;WIDTH:0.510725
G1 X110.529 Y98.271 E.01104
;WIDTH:0.541043
G1 X110.691 Y98.02 E.01175
G1 X110.989 Y98.005 E.01174
;WIDTH:0.510725
G1 X111.288 Y97.99 E.01106
;WIDTH:0.480406
G1 X144.712 Y97.99 E1.15508
;WIDTH:0.510725
G1 X145.011 Y98.005 E.01106
;WIDTH:0.541043
G1 X145.309 Y98.02 E.01174
G1 X145.471 Y98.271 E.01175
;WIDTH:0.510724
G1 X145.633 Y98.522 E.01104
;WIDTH:0.480406
G1 X162.346 Y127.468 E1.15509
;WIDTH:0.510725
G1 X162.482 Y127.734 E.01104
;WIDTH:0.541043
G1 X162.618 Y128 E.01176
G1 X162.482 Y128.266 E.01176
;WIDTH:0.510725
G1 X162.346 Y128.532 E.01104
;WIDTH:0.480406
G1 X145.633 Y157.478 E1.15509
;WIDTH:0.510724
G1 X145.471 Y157.729 E.01104
;WIDTH:0.541043
G1 X145.341 Y157.929 E.00939
G1 X145.57 Y158.432 F9000
;TYPE:External perimeter
;WIDTH:0.449999
G1 F1800
G1 X110.43 Y158.432 E1.12997
G1 X92.86 Y128 E1.12997
G1 X110.43 Y97.568 E1.12997
G1 X145.57 Y97.568 E1.12997
G1 X163.14 Y128 E1.12997
G1 X145.6 Y158.38 E1.12804
G1 X145.203 Y158.428 F9000
M106 S61.2
;LAYER_CHANGE
;Z:0.8
;HEIGHT:0.2
;BEFORE_LAYER_CHANGE
;0.8

G1 Z.8 F9000
;AFTER_LAYER_CHANGE
;0.8

G1 Z.8
G1 X145.107 Y157.656
;TYPE:Perimeter
;WIDTH:0.541043
G1 F3600
G1 X144.956 Y157.682 E.00603
;WIDTH:0.510725
G1 X144.792 Y157.711 E.00615
;WIDTH:0.480406
G1 X111.208 Y157.711 E1.1606
;WIDTH:0.510725
G1 X111.044 Y157.682 E.00615
;WIDTH:0.541043
G1 X110.88 Y157.653 E.00655
G1 X110.773 Y157.526 E.00653
;WIDTH:0.510725
G1 X110.666 Y157.398 E.00616
;WIDTH:0.480407
G1 X93.873 Y128.313 E1.16064
;WIDTH:0.510725
G1 X93.816 Y128.156 E.00617
;WIDTH:0.541043
G1 X93.759 Y128 E.00654
G1 X93.816 Y127.844 E.00654
;WIDTH:0.510725
G1 X93.873 Y127.687 E.00617
;WIDTH:0.480407
G1 X110.666 Y98.602 E1.16064
;WIDTH:0.510725
G1 X110.773 Y98.474 E.00616
;WIDTH:0.541043
G1 X110.88 Y98.346 E.00656
G1 X111.044 Y98.318 E.00655
;WIDTH:0.510725
G1 X111.208 Y98.289 E.00615
;WIDTH:0.480406
G1 X144.792 Y98.289 E1.1606
;WIDTH:0.510725
G1 X144.956 Y98.318 E.00615
;WIDTH:0.541043
G1 X145.12 Y98.346 E.00655
G1 X145.227 Y98.474 E.00656
;WIDTH:0.510724
G1 X145.334 Y98.602 E.00616
;WIDTH:0.480406
G1 X162.127 Y127.687 E1.16063
;WIDTH:0.510725
G1 X162.184 Y127.844 E.00617
;WIDTH:0.541043
G1 X162.241 Y128 E.00654
G1 X162.208 Y128.108 E.00444
;WIDTH:0.513924
G1 X162.176 Y128.216 E.00419
;WIDTH:0.486805
G1 X162.127 Y128.313 E.00381
;WIDTH:0.480406
G1 X145.334 Y157.398 E1.16063
;WIDTH:0.510724
G1 X145.227 Y157.526 E.00616
;WIDTH:0.541043
G1 X145.15 Y157.618 E.00472
G1 X144.885 Y157.246 F9000
;TYPE:External perimeter
;WIDTH:0.449999
G1 F1800
G1 X144.828 Y157.286 E.00224
G1 X111.208 Y157.289 E1.0811
G1 X111.052 Y157.216 E.00554
G1 X111.031 Y157.187 E.00115
G1 X94.239 Y128.102 E1.07995
G1 X94.224 Y127.93 E.00555
G1 X111.031 Y98.813 E1.08108
G1 X111.172 Y98.714 E.00554
G1 X144.792 Y98.711 E1.0811
G1 X144.894 Y98.738 E.00339
G1 X144.969 Y98.813 E.00341
G1 X161.761 Y127.898 E1.07995
G1 X161.776 Y128.07 E.00555
G1 X144.969 Y157.187 E1.08108
G1 X144.934 Y157.211 E.00136
G1 X144.54 Y157.279 F9000
G1 X145.389 Y158.118
;TYPE:Perimeter
;WIDTH:0.541043
G1 F3600
G1 X145.091 Y158.133 E.01174
;WIDTH:0.510725
G1 X144.792 Y158.149 E.01106
;WIDTH:0.480406
G1 X111.208 Y158.149 E1.1606
;WIDTH:0.510725
G1 X110.909 Y158.133 E.01106
;WIDTH:0.541043
G1 X110.611 Y158.118 E.01174
G1 X110.449 Y157.868 E.01172
;WIDTH:0.510725
G1 X110.287 Y157.617 E.01104
;WIDTH:0.480407
G1 X93.494 Y128.532 E1.16064
;WIDTH:0.510725
G1 X93.358 Y128.266 E.01104
;WIDTH:0.541043
G1 X93.222 Y128 E.01176
G1 X93.358 Y127.734 E.01176
;WIDTH:0.510725
G1 X93.494 Y127.468 E.01104
;WIDTH:0.480407
G1 X110.287 Y98.383 E1.16064
;WIDTH:0.510725
G1 X110.449 Y98.132 E.01104
;WIDTH:0.541043
G1 X110.611 Y97.882 E.01172
G1 X110.909 Y97.867 E.01174
;WIDTH:0.510725
G1 X111.208 Y97.851 E.01106
;WIDTH:0.480406
G1 X144.792 Y97.851 E1.1606
;WIDTH:0.510725
G1 X145.091 Y97.867 E.01106
;WIDTH:0.541043
G1 X145.389 Y97.882 E.01174
G1 X145.551 Y98.132 E.01172
;WIDTH:0.510724
G1 X145.713 Y98.383 E.01104
;WIDTH:0.480406
G1 X162.506 Y127.468 E1.16063
;WIDTH:0.510725
G1 X162.642 Y127.734 E.01104
;WIDTH:0.541043
G1 X162.778 Y128 E.01176
G1 X162.642 Y128.266 E.01176
;WIDTH:0.510725
G1 X162.506 Y128.532 E.01104
;WIDTH:0.480406
G1 X145.713 Y157.617 E1.16063
;WIDTH:0.510724
G1 X145.551 Y157.868 E.01104
;WIDTH:0.541043
G1 X145.421 Y158.068 E.00939
G1 X145.65 Y158.571 F9000
;TYPE:External perimeter
;WIDTH:0.449999
G1 F1800
G1 X110.35 Y158.571 E1.13512
G1 X92.7 Y128 E1.13513
G1 X110.35 Y97.429 E1.13513
G1 X145.65 Y97.429 E1.13512
G1 X163.3 Y128 E1.13513
G1 X145.68 Y158.519 E1.1332
G1 X145.283 Y158.567 F9000
M106 S119.85
;LAYER_CHANGE
;Z:1
;HEIGHT:0.2
;BEFORE_LAYER_CHANGE
;1

G1 Z1 F9000
;AFTER_LAYER_CHANGE
;1

G1 Z1
G1 X145.187 Y157.795
;TYPE:Perimeter
;WIDTH:0.541043
G1 F3600
G1 X145.036 Y157.821 E.00603
;WIDTH:0.510725
G1 X144.872 Y157.85 E.00615
;WIDTH:0.480406
G1 X111.128 Y157.85 E1.16613
;WIDTH:0.510725
G1 X110.964 Y157.821 E.00615
;WIDTH:0.541043
G1 X110.8 Y157.792 E.00655
G1 X110.693 Y157.664 E.00656
;WIDTH:0.510725
G1 X110.586 Y157.537 E.00614
;WIDTH:0.480407
G1 X93.713 Y128.313 E1.16618
;WIDTH:0.510725
G1 X93.656 Y128.156 E.00617
;WIDTH:0.541043
G1 X93.599 Y128 E.00654
G1 X93.656 Y127.844 E.00654
;WIDTH:0.510725
G1 X93.713 Y127.687 E.00617
;WIDTH:0.480407
G1 X110.586 Y98.463 E1.16618
;WIDTH:0.510725
G1 X110.693 Y98.336 E.00614
;WIDTH:0.541043
G1 X110.8 Y98.208 E.00656
G1 X110.964 Y98.179 E.00655
;WIDTH:0.510725
G1 X111.128 Y98.15 E.00615
;WIDTH:0.480406
G1 X144.872 Y98.15 E1.16613
;WIDTH:0.510725
G1 X145.036 Y98.179 E.00615
;WIDTH:0.541043
G1 X145.2 Y98.208 E.00655
G1 X145.307 Y98.336 E.00656
;WIDTH:0.510724
G1 X145.414 Y98.463 E.00614
;WIDTH:0.480406
G1 X162.287 Y127.687 E1.16618
;WIDTH:0.510725
G1 X162.344 Y127.844 E.00617
;WIDTH:0.541043
G1 X162.401 Y128 E.00654
G1 X162.368 Y128.108 E.00444
;WIDTH:0.513924
G1 X162.336 Y128.216 E.00419
;WIDTH:0.486805
G1 X162.287 Y128.313 E.00381
;WIDTH:0.480406
G1 X145.414 Y157.537 E1.16618
;WIDTH:0.510724
G1 X145.307 Y157.664 E.00614
