; generated by PrusaSlicer 2.9.1 on 2026-02-14 at 04:47:14 UTC

; 

; external perimeters extrusion width = 0.45mm
; perimeters extrusion width = 0.45mm
; infill extrusion width = 0.45mm
; solid infill extrusion width = 0.45mm
; top infill extrusion width = 0.40mm
; first layer extrusion width = 0.45mm

;TYPE:Custom
;Elegoo Centauri Carbon - Start G-code
M140 S80 ; set bed temp
M104 S150 ; preheat nozzle to 150 (prevent ooze)
G28 ; home all axes
G29 ; auto bed leveling (if configured in Klipper)
M190 S80 ; wait for bed temp
G1 Z5 F3000 ; move nozzle up
M109 S240 ; wait for nozzle temp
; Prime line
G92 E0
G1 X5 Y5 F3000
G1 Z0.3 F1500
G1 X5 Y150 E15 F1500 ; draw prime line
G1 X5.4 Y150 F5000
G1 X5.4 Y5 E30 F1500 ; draw second prime line
G92 E0
G1 Z2 F3000 ; lift nozzle
;End of start G-code
G21 ; set units to millimeters
G90 ; use absolute coordinates
M83 ; use relative distances for extrusion
; Filament gcode
M107
;LAYER_CHANGE
;Z:0.2
;HEIGHT:0.2
G1 E-.8 F2100
G1 Z.6 F9000
G1 X120.856 Y120.855
G1 Z.2
G1 E.8 F2100
;TYPE:Skirt/Brim
;WIDTH:0.45
G1 F1054
G1 X121.573 Y120.138 E.03261
G1 X123.196 Y119.054 E.06276
G1 X125.071 Y118.277 E.06527
G1 X126.985 Y117.896 E.06275
G1 X129.07 Y117.907 E.06705
G1 X130.929 Y118.277 E.06095
G1 X132.804 Y119.054 E.06527
G1 X134.426 Y120.138 E.06273
G1 X135.862 Y121.574 E.0653
G1 X136.946 Y123.196 E.06273
G1 X137.723 Y125.071 E.06527
G1 X138.104 Y126.985 E.06275
G1 X138.104 Y129.015 E.06528
G1 X137.723 Y130.929 E.06275
G1 X136.946 Y132.804 E.06527
G1 X135.862 Y134.426 E.06273
G1 X134.426 Y135.862 E.0653
G1 X132.804 Y136.946 E.06273
G1 X130.929 Y137.723 E.06527
G1 X129.015 Y138.104 E.06275
G1 X126.985 Y138.104 E.06528
G1 X125.071 Y137.723 E.06275
G1 X123.196 Y136.946 E.06527
G1 X121.574 Y135.862 E.06273
G1 X120.138 Y134.426 E.0653
G1 X119.054 Y132.804 E.06273
G1 X118.277 Y130.929 E.06527
G1 X117.896 Y129.015 E.06275
G1 X117.896 Y126.985 E.06528
G1 X118.277 Y125.071 E.06275
G1 X119.054 Y123.196 E.06527
G1 X120.138 Y121.574 E.06273
G1 X120.814 Y120.898 E.03074
G1 E-.8 F2100
G1 Z.6 F9000
G1 X125.358 Y125.358
G1 Z.2
G1 E.8 F2100
;TYPE:Perimeter
;WIDTH:0.449999
G1 F1054
G1 X126.569 Y124.549 E.04683
G1 X128.014 Y124.266 E.04735
G1 X129.43 Y124.548 E.04643
G1 X130.642 Y125.358 E.04688
G1 X131.452 Y126.57 E.04688
G1 X131.737 Y128 E.04689
G1 X131.594 Y128.714 E.02342
G1 X131.452 Y129.43 E.02347
G1 X130.642 Y130.642 E.04688
G1 X129.43 Y131.452 E.04688
G1 X128 Y131.737 E.04689
G1 X126.57 Y131.452 E.04689
G1 X125.358 Y130.642 E.04688
G1 X124.548 Y129.43 E.04688
G1 X124.263 Y128 E.04689
G1 X124.548 Y126.57 E.04689
G1 X125.325 Y125.408 E.04495
G1 X125.064 Y125.064 F9000
G1 F1054
G1 X126.41 Y124.165 E.05205
G1 X128.015 Y123.851 E.05259
G1 X129.589 Y124.164 E.05161
G1 X130.936 Y125.064 E.05209
G1 X131.836 Y126.411 E.05209
G1 X132.152 Y128 E.0521
G1 X131.994 Y128.794 E.02603
G1 X131.836 Y129.589 E.02606
G1 X130.936 Y130.936 E.05209
G1 X129.589 Y131.836 E.05209
G1 X128 Y132.152 E.0521
G1 X126.411 Y131.836 E.0521
G1 X125.064 Y130.936 E.05209
G1 X124.164 Y129.589 E.05209
G1 X123.848 Y128 E.0521
G1 X124.164 Y126.411 E.0521
G1 X125.031 Y125.114 E.05017
G1 X124.771 Y124.771 F9000
;TYPE:External perimeter
G1 F1054
G1 X126.252 Y123.781 E.05728
G1 X128.015 Y123.436 E.05777
G1 X129.748 Y123.781 E.05682
G1 X131.229 Y124.771 E.05728
G1 X132.219 Y126.252 E.05728
G1 X132.567 Y128 E.05731
G1 X132.393 Y128.873 E.02862
G1 X132.219 Y129.748 E.02869
G1 X131.229 Y131.229 E.05728
G1 X129.748 Y132.219 E.05728
G1 X128 Y132.567 E.05731
G1 X126.252 Y132.219 E.05731
G1 X124.771 Y131.229 E.05728
G1 X123.781 Y129.748 E.05728
G1 X123.433 Y128 E.05731
G1 X123.781 Y126.252 E.05731
G1 X124.738 Y124.821 E.05536
G1 X125.059 Y124.582 F9000
G1 E-.8 F2100
G1 Z.6 F9000
G1 X131.104 Y126.268
G1 Z.2
G1 E.8 F2100
;TYPE:Solid infill
;WIDTH:0.470308
G1 F1054
G1 X130.396 Y125.56 E.0338
G1 X129.311 Y124.835 E.04406
G1 X129.006 Y124.775 E.01049
G1 X131.225 Y126.994 E.10595
G1 X131.375 Y127.749 E.02599
G1 X128.251 Y124.625 E.14915
G1 X128.013 Y124.577 E.0082
G1 X127.667 Y124.645 E.0119
G1 X131.358 Y128.336 E.17623
G1 X131.258 Y128.84 E.01735
G1 X127.162 Y124.744 E.19556
G1 X126.687 Y124.837 E.01634
G1 X126.665 Y124.852 E.0009
G1 X131.148 Y129.335 E.21404
G1 X130.906 Y129.697 E.0147
G1 X126.303 Y125.094 E.21977
G1 X125.94 Y125.336 E.01473
G1 X130.664 Y130.06 E.22555
G1 X130.422 Y130.422 E.0147
G1 X125.578 Y125.578 E.23128
G1 X125.336 Y125.94 E.0147
G1 X130.06 Y130.664 E.22555
G1 X129.697 Y130.906 E.01473
G1 X125.094 Y126.303 E.21977
G1 X124.852 Y126.665 E.0147
G1 X129.335 Y131.148 E.21404
G1 X128.84 Y131.258 E.01712
G1 X124.742 Y127.16 E.19566
G1 X124.642 Y127.664 E.01735
G1 X128.336 Y131.358 E.17637
G1 X128 Y131.425 E.01157
G1 X127.749 Y131.375 E.00864
G1 X124.625 Y128.251 E.14915
G1 X124.775 Y129.006 E.02599
G1 X126.994 Y131.225 E.10595
G1 X126.689 Y131.165 E.01049
G1 X125.604 Y130.439 E.04407
G1 X124.897 Y129.732 E.03376
;LAYER_CHANGE
;Z:0.4
;HEIGHT:0.2
;BEFORE_LAYER_CHANGE
;0.4

G1 E-.8 F2100
G1 Z.4 F9000
;AFTER_LAYER_CHANGE
;0.4

M104 S235 ; set temperature
M140 S75 ; set bed temperature
G1 Z.8
G1 X125.214 Y125.214
G1 Z.4
G1 E.8 F2100
;TYPE:Perimeter
;WIDTH:0.449999
G1 F785
G1 X126.492 Y124.359 E.04944
G1 X128 Y124.06 E.04944
G1 X129.508 Y124.359 E.04944
G1 X130.786 Y125.214 E.04944
G1 X131.641 Y126.492 E.04944
G1 X131.94 Y128 E.04944
G1 X131.791 Y128.754 E.02471
G1 X131.641 Y129.508 E.02472
G1 X130.786 Y130.786 E.04944
G1 X129.508 Y131.641 E.04944
G1 X128 Y131.94 E.04944
G1 X126.492 Y131.641 E.04944
G1 X125.214 Y130.786 E.04944
G1 X124.359 Y129.508 E.04944
G1 X124.06 Y128 E.04944
G1 X124.359 Y126.492 E.04944
G1 X125.18 Y125.264 E.0475
G1 X124.92 Y124.92 F9000
G1 F785
G1 X126.333 Y123.976 E.05464
G1 X128 Y123.644 E.05466
G1 X129.667 Y123.976 E.05466
G1 X131.08 Y124.92 E.05464
G1 X132.024 Y126.333 E.05464
G1 X132.356 Y128 E.05466
G1 X132.19 Y128.833 E.02731
G1 X132.024 Y129.667 E.02734
G1 X131.08 Y131.08 E.05464
G1 X129.667 Y132.024 E.05464
G1 X128 Y132.356 E.05466
G1 X126.333 Y132.024 E.05466
G1 X124.92 Y131.08 E.05464
G1 X123.976 Y129.667 E.05464
G1 X123.644 Y128 E.05466
G1 X123.976 Y126.333 E.05466
G1 X124.887 Y124.97 E.05272
G1 X124.627 Y124.627 F9000
;TYPE:External perimeter
G1 F785
G1 X126.174 Y123.593 E.05983
G1 X128 Y123.229 E.05987
G1 X129.826 Y123.593 E.05987
G1 X131.373 Y124.627 E.05983
G1 X132.407 Y126.174 E.05983
G1 X132.771 Y128 E.05987
G1 X132.589 Y128.913 E.02994
G1 X132.407 Y129.826 E.02994
G1 X131.373 Y131.373 E.05983
G1 X129.826 Y132.407 E.05983
G1 X128 Y132.771 E.05987
G1 X126.174 Y132.407 E.05987
G1 X124.627 Y131.373 E.05983
G1 X123.593 Y129.826 E.05983
G1 X123.229 Y128 E.05987
G1 X123.593 Y126.174 E.05987
G1 X124.593 Y124.677 E.05789
G1 X124.914 Y124.438 F9000
G1 X126.61 Y124.618
;TYPE:Solid infill
;WIDTH:0.38292
G1 F785
G1 X126.539 Y124.599 E.00197
G1 X126.558 Y124.67 E.00197
G1 X126.599 Y124.659 E.00114
;WIDTH:0.41646
G1 X126.442 Y124.762 E.00554
;WIDTH:0.449999
G1 X126.284 Y124.866 E.00608
G1 X124.865 Y126.284 E.06451
G1 X124.762 Y126.443 E.00609
;WIDTH:0.41646
G1 X124.659 Y126.602 E.00559
;WIDTH:0.38292
G1 X124.618 Y126.613 E.00114
G1 X124.599 Y126.542 E.00197
G1 X124.67 Y126.561 E.00197
;WIDTH:0.449999
G1 X124.531 Y127.194 E.02084
G1 X127.194 Y124.531 E.1211
G1 X127.913 Y124.388 E.02357
G1 X124.388 Y127.913 E.1603
G1 X124.455 Y128.422 E.01651
G1 X128.422 Y124.455 E.1804
G1 X128.902 Y124.55 E.01573
G1 X124.55 Y128.902 E.19791
G1 X124.646 Y129.382 E.01574
G1 X129.382 Y124.646 E.21537
G1 X129.729 Y124.875 E.01337
G1 X124.875 Y129.729 E.22074
G1 X125.105 Y130.074 E.01333
G1 X130.074 Y125.105 E.22597
G1 X130.42 Y125.336 E.01338
G1 X125.336 Y130.42 E.2312
G1 X125.632 Y130.699 E.01308
G1 X130.699 Y125.632 E.23043
G1 X130.929 Y125.977 E.01333
G1 X125.977 Y130.929 E.2252
G1 X126.322 Y131.16 E.01335
G1 X131.16 Y126.322 E.22001
G1 X131.369 Y126.69 E.01361
G1 X126.69 Y131.369 E.21278
G1 X127.17 Y131.464 E.01573
G1 X131.464 Y127.17 E.19527
G1 X131.56 Y127.65 E.01574
G1 X127.65 Y131.56 E.17781
G1 X128.195 Y131.59 E.01755
G1 X131.59 Y128.195 E.15439
G1 X131.448 Y128.913 E.02354
G1 X128.913 Y131.448 E.11528
G1 E-.8 F2100
G1 Z.8 F9000
G1 X130.961 Y129.976
G1 Z.4
G1 E.8 F2100
G1 F785
G1 X129.976 Y130.961 E.04479
G1 X129.832 Y131.079 E.00599
;WIDTH:0.41646
G1 X129.688 Y131.197 E.00549
;WIDTH:0.38292
G1 X129.891 Y131.163 E.00553
;WIDTH:0.385566
G1 X130.589 Y130.589 E.02446
G1 X131.163 Y129.891 E.02446
;WIDTH:0.38292
G1 X131.197 Y129.688 E.00553
;LAYER_CHANGE
;Z:0.6
;HEIGHT:0.2
;BEFORE_LAYER_CHANGE
;0.6

G1 E-.8 F2100
G1 Z.6 F9000
;AFTER_LAYER_CHANGE
;0.6

G1 Z1
G1 X125.214 Y125.214
G1 Z.6
G1 E.8 F2100
;TYPE:Perimeter
;WIDTH:0.449999
G1 F793
G1 X126.492 Y124.359 E.04944
G1 X128 Y124.06 E.04944
G1 X129.508 Y124.359 E.04944
G1 X130.786 Y125.214 E.04944
G1 X131.641 Y126.492 E.04944
G1 X131.94 Y128 E.04944
G1 X131.791 Y128.754 E.02471
G1 X131.641 Y129.508 E.02472
G1 X130.786 Y130.786 E.04944
G1 X129.508 Y131.641 E.04944
G1 X128 Y131.94 E.04944
G1 X126.492 Y131.641 E.04944
G1 X125.214 Y130.786 E.04944
G1 X124.359 Y129.508 E.04944
G1 X124.06 Y128 E.04944
G1 X124.359 Y126.492 E.04944
G1 X125.18 Y125.264 E.0475
G1 X124.92 Y124.92 F9000
G1 F793
G1 X126.333 Y123.976 E.05464
G1 X128 Y123.644 E.05466
G1 X129.667 Y123.976 E.05466
G1 X131.08 Y124.92 E.05464
G1 X132.024 Y126.333 E.05464
G1 X132.356 Y128 E.05466
G1 X132.19 Y128.833 E.02731
G1 X132.024 Y129.667 E.02734
G1 X131.08 Y131.08 E.05464
G1 X129.667 Y132.024 E.05464
G1 X128 Y132.356 E.05466
G1 X126.333 Y132.024 E.05466
G1 X124.92 Y131.08 E.05464
G1 X123.976 Y129.667 E.05464
G1 X123.644 Y128 E.05466
G1 X123.976 Y126.333 E.05466
G1 X124.887 Y124.97 E.05272
G1 X124.627 Y124.627 F9000
;TYPE:External perimeter
G1 F793
G1 X126.174 Y123.593 E.05983
G1 X128 Y123.229 E.05987
G1 X129.826 Y123.593 E.05987
G1 X131.373 Y124.627 E.05983
G1 X132.407 Y126.174 E.05983
G1 X132.771 Y128 E.05987
G1 X132.589 Y128.913 E.02994
G1 X132.407 Y129.826 E.02994
G1 X131.373 Y131.373 E.05983
G1 X129.826 Y132.407 E.05983
G1 X128 Y132.771 E.05987
G1 X126.174 Y132.407 E.05987
G1 X124.627 Y131.373 E.05983
G1 X123.593 Y129.826 E.05983
G1 X123.229 Y128 E.05987
G1 X123.593 Y126.174 E.05987
G1 X124.593 Y124.677 E.05789
G1 X124.914 Y124.438 F9000
G1 E-.8 F2100
G1 Z1 F9000
G1 X124.618 Y129.39
G1 Z.6
G1 E.8 F2100
;TYPE:Solid infill
;WIDTH:0.38292
G1 F793
G1 X124.599 Y129.461 E.00197
G1 X124.67 Y129.442 E.00197
G1 X124.659 Y129.401 E.00114
;WIDTH:0.41646
G1 X124.762 Y129.558 E.00554
;WIDTH:0.449999
G1 X124.865 Y129.716 E.00606
G1 X126.284 Y131.135 E.06453
G1 X126.443 Y131.238 E.00609
;WIDTH:0.41646
G1 X126.602 Y131.341 E.00559
;WIDTH:0.38292
G1 X126.613 Y131.382 E.00114
G1 X126.542 Y131.401 E.00197
G1 X126.561 Y131.33 E.00197
;WIDTH:0.449999
G1 X127.194 Y131.469 E.02084
G1 X124.531 Y128.806 E.1211
G1 X124.388 Y128.087 E.02357
G1 X127.913 Y131.612 E.1603
G1 X128.422 Y131.545 E.01651
G1 X124.455 Y127.578 E.1804
G1 X124.55 Y127.098 E.01573
G1 X128.902 Y131.45 E.19791
G1 X129.382 Y131.354 E.01574
G1 X124.646 Y126.618 E.21537
G1 X124.875 Y126.271 E.01337
G1 X129.729 Y131.125 E.22074
G1 X130.074 Y130.895 E.01333
G1 X125.105 Y125.926 E.22597
G1 X125.336 Y125.58 E.01338
G1 X130.42 Y130.664 E.2312
G1 X130.699 Y130.368 E.01308
G1 X125.632 Y125.301 E.23043
G1 X125.977 Y125.071 E.01333
G1 X130.929 Y130.023 E.2252
G1 X131.16 Y129.678 E.01335
G1 X126.322 Y124.84 E.22001
G1 X126.69 Y124.631 E.01361
G1 X131.369 Y129.31 E.21278
G1 X131.464 Y128.83 E.01573
G1 X127.17 Y124.536 E.19527
G1 X127.65 Y124.44 E.01574
G1 X131.56 Y128.35 E.17781
G1 X131.59 Y127.805 E.01755
G1 X128.195 Y124.41 E.15439
G1 X128.913 Y124.552 E.02354
G1 X131.448 Y127.087 E.11528
G1 E-.8 F2100
G1 Z1 F9000
G1 X129.976 Y125.039
G1 Z.6
G1 E.8 F2100
G1 F793
G1 X130.961 Y126.024 E.04479
G1 X131.079 Y126.168 E.00599
;WIDTH:0.41646
G1 X131.197 Y126.312 E.00549
;WIDTH:0.38292
G1 X131.163 Y126.109 E.00553
;WIDTH:0.385562
G1 X130.589 Y125.411 E.02446
G1 X129.889 Y124.836 E.02452
;WIDTH:0.38292
G1 X129.688 Y124.803 E.00547
M106 S48.45
;LAYER_CHANGE
;Z:0.8
;HEIGHT:0.2
;BEFORE_LAYER_CHANGE
;0.8

G1 E-.8 F2100
G1 Z.8 F9000
;AFTER_LAYER_CHANGE
;0.8

G1 Z1.2
G1 X113.901 Y103.5
G1 Z.8
G1 E.8 F2100
;TYPE:Overhang perimeter
;WIDTH:0.389872
;HEIGHT:0.389872
M106 S89.25
G1 F1500
G1 X114.088 Y103.43 E.00941
G1 X114.194 Y103.421 E.00502
G1 X141.003 Y103.421 E1.26407
G1 X141.874 Y103.449 E.04109
G1 X142.15 Y103.525 E.0135
G1 X142.383 Y103.754 E.0154
G1 X155.788 Y126.972 E1.26411
G1 X156.199 Y127.74 E.04107
G1 X156.271 Y128.017 E.01349
G1 X156.234 Y128.237 E.01052
G1 X156.189 Y128.333 E.005
G1 X142.785 Y151.551 E1.26409
G1 X142.325 Y152.291 E.04108
G1 X142.121 Y152.492 E.0135
G1 X141.912 Y152.57 E.01052
G1 X141.806 Y152.579 E.00502
G1 X114.997 Y152.579 E1.26407
G1 X114.126 Y152.551 E.04109
G1 X113.85 Y152.475 E.0135
G1 X113.678 Y152.333 E.01052
G1 X113.617 Y152.246 E.00501
G1 X100.212 Y129.028 E1.26411
G1 X99.801 Y128.26 E.04107
G1 X99.729 Y127.983 E.01349
G1 X99.748 Y127.822 E.00764
G1 X99.811 Y127.667 E.00789
G1 X113.215 Y104.449 E1.26409
G1 X113.675 Y103.709 E.04108
G1 X113.853 Y103.534 E.01177
M106 S48.45
G1 X114.103 Y103.868 F9000
M106 S89.25
G1 F1500
G1 X114.159 Y103.831 E.00316
G1 X141.003 Y103.828 E1.26572
G1 X141.861 Y103.856 E.04048
G1 X141.996 Y103.913 E.00691
G1 X142.031 Y103.957 E.00265
G1 X155.435 Y127.175 E1.26409
G1 X155.84 Y127.932 E.04048
G1 X155.852 Y128.098 E.00785
G1 X142.432 Y151.347 E1.26573
G1 X141.979 Y152.076 E.04047
G1 X141.841 Y152.169 E.00785
G1 X114.997 Y152.172 E1.26572
G1 X114.139 Y152.144 E.04048
G1 X113.99 Y152.071 E.00782
G1 X113.969 Y152.043 E.00165
G1 X100.565 Y128.825 E1.26409
G1 X100.16 Y128.068 E.04048
G1 X100.142 Y127.922 E.00694
G1 X113.568 Y104.653 E1.26669
G1 X114.021 Y103.924 E.04047
G1 X114.054 Y103.902 E.00187
M106 S48.45
G1 X114.448 Y103.838 F9000
G1 X113.702 Y103.092
M106 S89.25
G1 F1500
G1 X114.194 Y103.028 E.02339
G1 X141.003 Y103.028 E1.26407
G1 X141.888 Y103.042 E.04173
G1 X142.38 Y103.11 E.02342
G1 X142.723 Y103.558 E.0266
G1 X156.128 Y126.775 E1.26407
G1 X156.558 Y127.548 E.04171
G1 X156.746 Y128.009 E.02347
G1 X156.529 Y128.53 E.02661
G1 X143.125 Y151.747 E1.26405
G1 X142.67 Y152.506 E.04173
G1 X142.365 Y152.899 E.02346
G1 X141.806 Y152.972 E.02658
G1 X114.997 Y152.972 E1.26407
G1 X114.112 Y152.958 E.04173
G1 X113.62 Y152.89 E.02342
G1 X113.277 Y152.442 E.0266
G1 X99.872 Y129.225 E1.26407
G1 X99.442 Y128.452 E.04171
G1 X99.254 Y127.991 E.02347
G1 X99.471 Y127.47 E.02661
G1 X112.875 Y104.253 E1.26405
G1 X113.33 Y103.494 E.04173
G1 X113.635 Y103.101 E.02346
G1 X113.643 Y103.1 E.00038
M106 S48.45
G1 E-.8 F2100
G1 Z1.2 F9000
G1 X142.634 Y153.383
G1 Z.8
G1 E.8 F2100
M106 S89.25
G1 F1500
G1 X142.084 Y153.365 E.02595
G1 X113.335 Y153.365 E1.35554
G1 X113.075 Y152.879 E.02599
G1 X98.701 Y127.982 E1.35552
G1 X98.991 Y127.515 E.02592
G1 X113.366 Y102.617 E1.35558
G1 X113.916 Y102.635 E.02595
G1 X142.665 Y102.635 E1.35554
G1 X142.925 Y103.121 E.02599
G1 X157.299 Y128.018 E1.35552
G1 X157.149 Y128.259 E.01338
G1 X142.664 Y153.331 E1.36528
M106 S48.45
G1 X142.865 Y153.797 F9000
M106 S89.25
G1 F1500
G1 X142.084 Y153.772 E.03684
G1 X113.091 Y153.772 E1.36705
G1 X112.723 Y153.083 E.03683
G1 X98.226 Y127.975 E1.36703
G1 X98.639 Y127.311 E.03687
G1 X113.135 Y102.203 E1.36701
G1 X113.916 Y102.228 E.03684
G1 X142.909 Y102.228 E1.36705
G1 X143.277 Y102.917 E.03683
G1 X157.774 Y128.025 E1.36703
G1 X157.494 Y128.474 E.02495
G1 X142.895 Y153.745 E1.37609
M106 S48.45
G1 X142.496 Y153.782 F9000
G1 E-.8 F2100
G1 Z1.2 F9000
G1 X125.214 Y125.214
G1 Z.8
G1 E.8 F2100
;TYPE:Perimeter
;WIDTH:0.449999
;HEIGHT:0.2
G1 F1800
G1 X126.492 Y124.359 E.04944
G1 X128 Y124.06 E.04944
G1 X129.508 Y124.359 E.04944
G1 X130.786 Y125.214 E.04944
G1 X131.641 Y126.492 E.04944
G1 X131.94 Y128 E.04944
G1 X131.791 Y128.754 E.02471
G1 X131.641 Y129.508 E.02472
G1 X130.786 Y130.786 E.04944
G1 X129.508 Y131.641 E.04944
G1 X128 Y131.94 E.04944
G1 X126.492 Y131.641 E.04944
G1 X125.214 Y130.786 E.04944
G1 X124.359 Y129.508 E.04944
G1 X124.06 Y128 E.04944
G1 X124.359 Y126.492 E.04944
G1 X125.18 Y125.264 E.0475
G1 X124.92 Y124.92 F9000
G1 F1800
G1 X126.333 Y123.976 E.05464
G1 X128 Y123.644 E.05466
