; generated by PrusaSlicer 2.9.1 on 2026-02-14 at 05:46:10 UTC

; 

; external perimeters extrusion width = 0.45mm
; perimeters extrusion width = 0.45mm
; infill extrusion width = 0.45mm
; solid infill extrusion width = 0.45mm
; top infill extrusion width = 0.40mm
; first layer extrusion width = 0.45mm

;TYPE:Custom
;Elegoo Centauri Carbon - Start G-code
M140 S80 ; set bed temp
M104 S150 ; preheat nozzle to 150 (prevent ooze)
G28 ; home all axes
G29 ; auto bed leveling (if configured in Klipper)
M190 S80 ; wait for bed temp
G1 Z5 F3000 ; move nozzle up
M109 S240 ; wait for nozzle temp
; Prime line
G92 E0
G1 X5 Y5 F3000
G1 Z0.3 F1500
G1 X5 Y150 E15 F1500 ; draw prime line
G1 X5.4 Y150 F5000
G1 X5.4 Y5 E30 F1500 ; draw second prime line
G92 E0
G1 Z2 F3000 ; lift nozzle
;End of start G-code
G21 ; set units to millimeters
G90 ; use absolute coordinates
M83 ; use relative distances for extrusion
; Filament gcode
M107
;LAYER_CHANGE
;Z:0.2
;HEIGHT:0.2
G1 E-.8 F2100
G1 Z.6 F9000
G1 X114.321 Y113.623
G1 Z.2
G1 E.8 F2100
;TYPE:Skirt/Brim
;WIDTH:0.45
G1 F1383
G1 X116.009 Y112.495 E.06528
G1 X118 Y112.099 E.06528
G1 X138 Y112.099 E.64313
G1 X139.991 Y112.496 E.06528
G1 X141.68 Y113.624 E.06531
G1 X142.808 Y115.312 E.06528
G1 X143.204 Y117.303 E.06528
G1 X143.204 Y122.303 E.16078
G1 X142.807 Y124.294 E.06528
G1 X141.679 Y125.983 E.06531
G1 X139.991 Y127.111 E.06528
G1 X138 Y127.506 E.06527
G1 X118 Y127.506 E.64313
G1 X116.009 Y127.11 E.06528
G1 X114.32 Y125.982 E.06531
G1 X113.192 Y124.294 E.06528
G1 X112.796 Y122.303 E.06528
G1 X112.796 Y117.303 E.16078
G1 X113.193 Y115.311 E.06532
G1 X114.287 Y113.673 E.06334
G1 E-.8 F2100
G1 Z.6 F9000
G1 X119.239 Y121.064
G1 Z.2
G1 E.8 F2100
;TYPE:Perimeter
;WIDTH:0.449999
G1 F1383
G1 X119.239 Y118.542 E.0811
G1 X136.761 Y118.542 E.56344
G1 X136.761 Y119.803 E.04055
G1 X136.761 Y121.064 E.04055
G1 X119.299 Y121.064 E.56151
G1 X118.832 Y121.471 F9000
G1 F1383
G1 X118.832 Y118.135 E.10727
G1 X137.168 Y118.135 E.58962
G1 X137.168 Y119.803 E.05364
G1 X137.168 Y121.471 E.05364
G1 X118.892 Y121.471 E.58769
G1 X118.425 Y121.878 F9000
;TYPE:External perimeter
G1 F1383
G1 X118.425 Y117.728 E.13345
G1 X137.575 Y117.728 E.61579
G1 X137.575 Y119.803 E.06672
G1 X137.575 Y121.878 E.06672
G1 X118.485 Y121.878 E.61386
G1 X118.426 Y121.482 F9000
G1 E-.8 F2100
G1 Z.6 F9000
G1 X136.639 Y119.49
G1 Z.2
G1 E.8 F2100
;TYPE:Solid infill
;WIDTH:0.451301
G1 F1383
G1 X135.996 Y118.847 E.02933
G1 X135.419 Y118.847 E.01861
G1 X136.456 Y119.884 E.04731
G1 X136.456 Y120.462 E.01865
G1 X134.841 Y118.847 E.07368
G1 X134.264 Y118.847 E.01861
G1 X136.175 Y120.758 E.08718
G1 X135.597 Y120.758 E.01865
G1 X133.686 Y118.847 E.08718
G1 X133.109 Y118.847 E.01861
G1 X135.02 Y120.758 E.08718
G1 X134.442 Y120.758 E.01865
G1 X132.531 Y118.847 E.08718
G1 X131.953 Y118.847 E.01865
G1 X133.865 Y120.758 E.08721
G1 X133.287 Y120.758 E.01865
G1 X131.376 Y118.847 E.08718
G1 X130.798 Y118.847 E.01865
G1 X132.709 Y120.758 E.08718
G1 X132.132 Y120.758 E.01861
G1 X130.221 Y118.847 E.08718
G1 X129.643 Y118.847 E.01865
G1 X131.554 Y120.758 E.08718
G1 X130.977 Y120.758 E.01861
G1 X129.066 Y118.847 E.08718
G1 X128.488 Y118.847 E.01865
G1 X130.399 Y120.758 E.08718
G1 X129.822 Y120.758 E.01861
G1 X127.911 Y118.847 E.08718
G1 X127.333 Y118.847 E.01865
G1 X129.244 Y120.758 E.08718
G1 X128.667 Y120.758 E.01861
G1 X126.756 Y118.847 E.08718
G1 X126.178 Y118.847 E.01865
G1 X128.089 Y120.758 E.08718
G1 X127.512 Y120.758 E.01861
G1 X125.601 Y118.847 E.08718
G1 X125.023 Y118.847 E.01865
G1 X126.934 Y120.758 E.08718
G1 X126.357 Y120.758 E.01861
G1 X124.445 Y118.847 E.08721
G1 X123.868 Y118.847 E.01861
G1 X125.779 Y120.758 E.08718
G1 X125.201 Y120.758 E.01865
G1 X123.29 Y118.847 E.08718
G1 X122.713 Y118.847 E.01861
G1 X124.624 Y120.758 E.08718
G1 X124.046 Y120.758 E.01865
G1 X122.135 Y118.847 E.08718
G1 X121.558 Y118.847 E.01861
G1 X123.469 Y120.758 E.08718
G1 X122.891 Y120.758 E.01865
G1 X120.98 Y118.847 E.08718
G1 X120.403 Y118.847 E.01861
G1 X122.314 Y120.758 E.08718
G1 X121.736 Y120.758 E.01865
G1 X119.825 Y118.847 E.08718
G1 X119.544 Y118.847 E.00906
G1 X119.544 Y119.144 E.00958
G1 X121.159 Y120.758 E.07366
G1 X120.581 Y120.758 E.01865
G1 X119.544 Y119.722 E.04729
G1 X119.544 Y120.299 E.01861
G1 X120.187 Y120.942 E.02933
;LAYER_CHANGE
;Z:0.4
;HEIGHT:0.2
;BEFORE_LAYER_CHANGE
;0.4

G1 Z.4 F9000
;AFTER_LAYER_CHANGE
;0.4

M104 S235 ; set temperature
M140 S75 ; set bed temperature
G1 Z.4
G1 X119.039 Y121.264
;TYPE:Perimeter
;WIDTH:0.449999
G1 F990
G1 X119.039 Y118.342 E.09396
G1 X136.961 Y118.342 E.57631
G1 X136.961 Y119.803 E.04698
G1 X136.961 Y121.264 E.04698
G1 X119.099 Y121.264 E.57438
G1 X118.632 Y121.671 F9000
G1 F990
G1 X118.632 Y117.935 E.12014
G1 X137.368 Y117.935 E.60248
G1 X137.368 Y119.803 E.06007
G1 X137.368 Y121.671 E.06007
G1 X118.692 Y121.671 E.60055
G1 X118.225 Y122.078 F9000
;TYPE:External perimeter
G1 F990
G1 X118.225 Y117.528 E.14631
G1 X137.775 Y117.528 E.62866
G1 X137.775 Y119.803 E.07316
G1 X137.775 Y122.078 E.07316
G1 X118.285 Y122.078 E.62673
G1 X118.226 Y121.682 F9000
G1 E-.8 F2100
G1 Z.8 F9000
G1 X136.452 Y118.647
G1 Z.4
G1 E.8 F2100
;TYPE:Solid infill
G1 F990
G1 X119.344 Y118.647 E.55013
G1 X119.344 Y120.958 E.07431
G1 X136.656 Y120.958 E.55669
G1 X136.656 Y118.647 E.07431
G1 X136.248 Y119.054 E.01853
G1 X136.248 Y120.551 E.04814
G1 X119.752 Y120.551 E.53045
G1 X119.752 Y119.054 E.04814
G1 X136.045 Y119.054 E.52392
G1 X135.772 Y119.53 E.01765
;WIDTH:0.587835
G1 X135.772 Y120.075 E.02346
G1 X120.228 Y120.075 E.66908
G1 X120.228 Y119.53 E.02346
G1 X135.569 Y119.53 E.66034
;LAYER_CHANGE
;Z:0.6
;HEIGHT:0.2
;BEFORE_LAYER_CHANGE
;0.6

G1 E-.8 F2100
G1 Z.6 F9000
;AFTER_LAYER_CHANGE
;0.6

G1 Z1
G1 X119.039 Y121.264
G1 Z.6
G1 E.8 F2100
;TYPE:Perimeter
;WIDTH:0.449999
G1 F991
G1 X119.039 Y118.342 E.09396
G1 X136.961 Y118.342 E.57631
G1 X136.961 Y119.803 E.04698
G1 X136.961 Y121.264 E.04698
G1 X119.099 Y121.264 E.57438
G1 X118.632 Y121.671 F9000
G1 F991
G1 X118.632 Y117.935 E.12014
G1 X137.368 Y117.935 E.60248
G1 X137.368 Y119.803 E.06007
G1 X137.368 Y121.671 E.06007
G1 X118.692 Y121.671 E.60055
G1 X118.225 Y122.078 F9000
;TYPE:External perimeter
G1 F991
G1 X118.225 Y117.528 E.14631
G1 X137.775 Y117.528 E.62866
G1 X137.775 Y119.803 E.07316
G1 X137.775 Y122.078 E.07316
G1 X118.285 Y122.078 E.62673
G1 X118.226 Y121.682 F9000
G1 X119.344 Y120.958
;TYPE:Solid infill
G1 F991
G1 X119.344 Y118.647 E.07431
G1 X136.656 Y118.647 E.55669
G1 X136.656 Y120.958 E.07431
G1 X119.548 Y120.958 E.55013
G1 X119.752 Y120.551 E.01464
G1 X119.752 Y119.054 E.04814
G1 X136.248 Y119.054 E.53045
G1 X136.248 Y120.551 E.04814
G1 X119.955 Y120.551 E.52392
G1 X120.228 Y120.075 E.01765
;WIDTH:0.587835
G1 X120.228 Y119.53 E.02346
G1 X135.772 Y119.53 E.66908
G1 X135.772 Y120.075 E.02346
G1 X120.431 Y120.075 E.66034
M106 S63.75
;LAYER_CHANGE
;Z:0.8
;HEIGHT:0.2
;BEFORE_LAYER_CHANGE
;0.8

G1 Z.8 F9000
;AFTER_LAYER_CHANGE
;0.8

G1 Z.8
G1 X119.039 Y121.264
;TYPE:Perimeter
;WIDTH:0.449999
G1 F993
G1 X119.039 Y118.342 E.09396
G1 X136.961 Y118.342 E.57631
G1 X136.961 Y119.803 E.04698
G1 X136.961 Y121.264 E.04698
G1 X119.099 Y121.264 E.57438
G1 X118.632 Y121.671 F9000
G1 F993
G1 X118.632 Y117.935 E.12014
G1 X137.368 Y117.935 E.60248
G1 X137.368 Y119.803 E.06007
G1 X137.368 Y121.671 E.06007
G1 X118.692 Y121.671 E.60055
G1 X118.225 Y122.078 F9000
;TYPE:External perimeter
G1 F993
G1 X118.225 Y117.528 E.14631
G1 X137.775 Y117.528 E.62866
G1 X137.775 Y119.803 E.07316
G1 X137.775 Y122.078 E.07316
G1 X118.285 Y122.078 E.62673
G1 X118.226 Y121.682 F9000
G1 E-.8 F2100
G1 Z1.2 F9000
G1 X136.452 Y118.647
G1 Z.8
G1 E.8 F2100
;TYPE:Solid infill
G1 F993
G1 X119.344 Y118.647 E.55013
G1 X119.344 Y120.958 E.07431
G1 X136.656 Y120.958 E.55669
G1 X136.656 Y118.647 E.07431
G1 X136.248 Y119.054 E.01853
G1 X136.248 Y120.551 E.04814
G1 X119.752 Y120.551 E.53045
G1 X119.752 Y119.054 E.04814
G1 X136.045 Y119.054 E.52392
G1 X135.772 Y119.53 E.01765
;WIDTH:0.587835
G1 X135.772 Y120.075 E.02346
G1 X120.228 Y120.075 E.66908
G1 X120.228 Y119.53 E.02346
G1 X135.569 Y119.53 E.66034
M106 S124.95
;LAYER_CHANGE
;Z:1
;HEIGHT:0.2
;BEFORE_LAYER_CHANGE
;1

G1 E-.8 F2100
G1 Z1 F9000
;AFTER_LAYER_CHANGE
;1

G1 Z1.4
G1 X119.039 Y121.264
G1 Z1
G1 E.8 F2100
;TYPE:Perimeter
;WIDTH:0.449999
G1 F997
G1 X119.039 Y118.342 E.09396
G1 X136.961 Y118.342 E.57631
G1 X136.961 Y119.803 E.04698
G1 X136.961 Y121.264 E.04698
G1 X119.099 Y121.264 E.57438
G1 X118.632 Y121.671 F9000
G1 F997
G1 X118.632 Y117.935 E.12014
G1 X137.368 Y117.935 E.60248
G1 X137.368 Y119.803 E.06007
G1 X137.368 Y121.671 E.06007
G1 X118.692 Y121.671 E.60055
G1 X118.225 Y122.078 F9000
;TYPE:External perimeter
G1 F997
G1 X118.225 Y117.528 E.14631
G1 X137.775 Y117.528 E.62866
G1 X137.775 Y119.803 E.07316
G1 X137.775 Y122.078 E.07316
G1 X118.285 Y122.078 E.62673
G1 X118.226 Y121.682 F9000
G1 E-.8 F2100
G1 Z1.4 F9000
G1 X119.344 Y118.851
G1 Z1
G1 E.8 F2100
;TYPE:Solid infill
G1 F997
G1 X119.344 Y120.958 E.06775
G1 X136.656 Y120.958 E.55669
G1 X136.656 Y118.647 E.07431
G1 X119.344 Y118.647 E.55669
G1 X119.752 Y119.054 E.01853
G1 X136.248 Y119.054 E.53045
G1 X136.248 Y120.551 E.04814
G1 X119.752 Y120.551 E.53045
G1 X119.752 Y119.258 E.04158
G1 X120.228 Y119.53 E.01763
;WIDTH:0.587835
G1 X135.772 Y119.53 E.66908
G1 X135.772 Y120.075 E.02346
G1 X120.228 Y120.075 E.66908
G1 X120.228 Y119.734 E.01468
;LAYER_CHANGE
;Z:1.2
;HEIGHT:0.2
;BEFORE_LAYER_CHANGE
;1.2

G1 Z1.2 F9000
;AFTER_LAYER_CHANGE
;1.2

G1 Z1.2
G1 X119.039 Y121.264
;TYPE:Perimeter
;WIDTH:0.449999
G1 F991
G1 X119.039 Y118.342 E.09396
G1 X136.961 Y118.342 E.57631
G1 X136.961 Y119.803 E.04698
G1 X136.961 Y121.264 E.04698
G1 X119.099 Y121.264 E.57438
G1 X118.632 Y121.671 F9000
G1 F991
G1 X118.632 Y117.935 E.12014
G1 X137.368 Y117.935 E.60248
G1 X137.368 Y119.803 E.06007
G1 X137.368 Y121.671 E.06007
G1 X118.692 Y121.671 E.60055
G1 X118.225 Y122.078 F9000
;TYPE:External perimeter
G1 F991
G1 X118.225 Y117.528 E.14631
G1 X137.775 Y117.528 E.62866
G1 X137.775 Y119.803 E.07316
G1 X137.775 Y122.078 E.07316
G1 X118.285 Y122.078 E.62673
G1 X118.226 Y121.682 F9000
G1 E-.8 F2100
G1 Z1.6 F9000
G1 X136.452 Y118.647
G1 Z1.2
G1 E.8 F2100
;TYPE:Solid infill
G1 F991
G1 X119.344 Y118.647 E.55013
G1 X119.344 Y120.958 E.07431
G1 X136.656 Y120.958 E.55669
G1 X136.656 Y118.647 E.07431
G1 X136.248 Y119.054 E.01853
G1 X136.248 Y120.551 E.04814
G1 X119.752 Y120.551 E.53045
G1 X119.752 Y119.054 E.04814
G1 X136.045 Y119.054 E.52392
G1 X135.772 Y119.53 E.01765
;WIDTH:0.587835
G1 X135.772 Y120.075 E.02346
G1 X120.228 Y120.075 E.66908
G1 X120.228 Y119.53 E.02346
G1 X135.569 Y119.53 E.66034
;LAYER_CHANGE
;Z:1.4
;HEIGHT:0.2
;BEFORE_LAYER_CHANGE
;1.4

G1 E-.8 F2100
G1 Z1.4 F9000
;AFTER_LAYER_CHANGE
;1.4

G1 Z1.8
G1 X119.039 Y121.264
G1 Z1.4
G1 E.8 F2100
;TYPE:Perimeter
;WIDTH:0.449999
G1 F991
G1 X119.039 Y118.342 E.09396
G1 X136.961 Y118.342 E.57631
G1 X136.961 Y119.803 E.04698
G1 X136.961 Y121.264 E.04698
G1 X119.099 Y121.264 E.57438
G1 X118.632 Y121.671 F9000
G1 F991
G1 X118.632 Y117.935 E.12014
G1 X137.368 Y117.935 E.60248
G1 X137.368 Y119.803 E.06007
G1 X137.368 Y121.671 E.06007
G1 X118.692 Y121.671 E.60055
G1 X118.225 Y122.078 F9000
;TYPE:External perimeter
G1 F991
G1 X118.225 Y117.528 E.14631
G1 X137.775 Y117.528 E.62866
G1 X137.775 Y119.803 E.07316
G1 X137.775 Y122.078 E.07316
G1 X118.285 Y122.078 E.62673
G1 X118.226 Y121.682 F9000
G1 X119.344 Y120.958
;TYPE:Solid infill
G1 F991
G1 X119.344 Y118.647 E.07431
G1 X136.656 Y118.647 E.55669
G1 X136.656 Y120.958 E.07431
G1 X119.548 Y120.958 E.55013
G1 X119.752 Y120.551 E.01464
G1 X119.752 Y119.054 E.04814
G1 X136.248 Y119.054 E.53045
G1 X136.248 Y120.551 E.04814
G1 X119.955 Y120.551 E.52392
G1 X120.228 Y120.075 E.01765
;WIDTH:0.587835
G1 X120.228 Y119.53 E.02346
G1 X135.772 Y119.53 E.66908
G1 X135.772 Y120.075 E.02346
G1 X120.431 Y120.075 E.66034
;LAYER_CHANGE
;Z:1.6
;HEIGHT:0.2
;BEFORE_LAYER_CHANGE
;1.6

G1 Z1.6 F9000
;AFTER_LAYER_CHANGE
;1.6

G1 Z1.6
G1 X119.039 Y121.264
;TYPE:Perimeter
;WIDTH:0.449999
G1 F993
G1 X119.039 Y118.342 E.09396
G1 X136.961 Y118.342 E.57631
G1 X136.961 Y119.803 E.04698
G1 X136.961 Y121.264 E.04698
G1 X119.099 Y121.264 E.57438
G1 X118.632 Y121.671 F9000
G1 F993
G1 X118.632 Y117.935 E.12014
G1 X137.368 Y117.935 E.60248
G1 X137.368 Y119.803 E.06007
G1 X137.368 Y121.671 E.06007
G1 X118.692 Y121.671 E.60055
G1 X118.225 Y122.078 F9000
;TYPE:External perimeter
G1 F993
G1 X118.225 Y117.528 E.14631
G1 X137.775 Y117.528 E.62866
G1 X137.775 Y119.803 E.07316
G1 X137.775 Y122.078 E.07316
G1 X118.285 Y122.078 E.62673
G1 X118.226 Y121.682 F9000
G1 E-.8 F2100
G1 Z2 F9000
G1 X136.452 Y118.647
G1 Z1.6
G1 E.8 F2100
;TYPE:Solid infill
G1 F993
G1 X119.344 Y118.647 E.55013
G1 X119.344 Y120.958 E.07431
G1 X136.656 Y120.958 E.55669
G1 X136.656 Y118.647 E.07431
G1 X136.248 Y119.054 E.01853
G1 X136.248 Y120.551 E.04814
G1 X119.752 Y120.551 E.53045
G1 X119.752 Y119.054 E.04814
G1 X136.045 Y119.054 E.52392
G1 X135.772 Y119.53 E.01765
;WIDTH:0.587835
G1 X135.772 Y120.075 E.02346
G1 X120.228 Y120.075 E.66908
G1 X120.228 Y119.53 E.02346
G1 X135.569 Y119.53 E.66034
;LAYER_CHANGE
;Z:1.8
;HEIGHT:0.2
;BEFORE_LAYER_CHANGE
;1.8

G1 E-.8 F2100
G1 Z1.8 F9000
;AFTER_LAYER_CHANGE
;1.8

G1 Z2.2
G1 X119.039 Y121.264
G1 Z1.8
G1 E.8 F2100
;TYPE:Perimeter
;WIDTH:0.449999
G1 F991
G1 X119.039 Y118.342 E.09396
G1 X136.961 Y118.342 E.57631
G1 X136.961 Y119.803 E.04698
G1 X136.961 Y121.264 E.04698
G1 X119.099 Y121.264 E.57438
G1 X118.632 Y121.671 F9000
G1 F991
G1 X118.632 Y117.935 E.12014
G1 X137.368 Y117.935 E.60248
G1 X137.368 Y119.803 E.06007
G1 X137.368 Y121.671 E.06007
G1 X118.692 Y121.671 E.60055
G1 X118.225 Y122.078 F9000
;TYPE:External perimeter
G1 F991
G1 X118.225 Y117.528 E.14631
G1 X137.775 Y117.528 E.62866
G1 X137.775 Y119.803 E.07316
G1 X137.775 Y122.078 E.07316
G1 X118.285 Y122.078 E.62673
G1 X118.226 Y121.682 F9000
G1 X119.344 Y120.958
;TYPE:Solid infill
G1 F991
G1 X119.344 Y118.647 E.07431
G1 X136.656 Y118.647 E.55669
G1 X136.656 Y120.958 E.07431
G1 X119.548 Y120.958 E.55013
G1 X119.752 Y120.551 E.01464
G1 X119.752 Y119.054 E.04814
G1 X136.248 Y119.054 E.53045
G1 X136.248 Y120.551 E.04814
G1 X119.955 Y120.551 E.52392
G1 X120.228 Y120.075 E.01765
;WIDTH:0.587835
G1 X120.228 Y119.53 E.02346
G1 X135.772 Y119.53 E.66908
G1 X135.772 Y120.075 E.02346
G1 X120.431 Y120.075 E.66034
;LAYER_CHANGE
;Z:2
;HEIGHT:0.2
;BEFORE_LAYER_CHANGE
;2

G1 Z2 F9000
;AFTER_LAYER_CHANGE
;2

G1 Z2
G1 X119.039 Y121.264
;TYPE:Perimeter
;WIDTH:0.449999
G1 F993
G1 X119.039 Y118.342 E.09396
G1 X136.961 Y118.342 E.57631
G1 X136.961 Y119.803 E.04698
G1 X136.961 Y121.264 E.04698
G1 X119.099 Y121.264 E.57438
G1 X118.632 Y121.671 F9000
G1 F993
G1 X118.632 Y117.935 E.12014
G1 X137.368 Y117.935 E.60248
G1 X137.368 Y119.803 E.06007
G1 X137.368 Y121.671 E.06007
G1 X118.692 Y121.671 E.60055
G1 X118.225 Y122.078 F9000
;TYPE:External perimeter
G1 F993
G1 X118.225 Y117.528 E.14631
G1 X137.775 Y117.528 E.62866
G1 X137.775 Y119.803 E.07316
G1 X137.775 Y122.078 E.07316
G1 X118.285 Y122.078 E.62673
G1 X118.226 Y121.682 F9000
G1 E-.8 F2100
G1 Z2.4 F9000
G1 X136.452 Y118.647
G1 Z2
G1 E.8 F2100
;TYPE:Solid infill
G1 F993
G1 X119.344 Y118.647 E.55013
G1 X119.344 Y120.958 E.07431
G1 X136.656 Y120.958 E.55669
G1 X136.656 Y118.647 E.07431
G1 X136.248 Y119.054 E.01853
G1 X136.248 Y120.551 E.04814
G1 X119.752 Y120.551 E.53045
G1 X119.752 Y119.054 E.04814
G1 X136.045 Y119.054 E.52392
G1 X135.772 Y119.53 E.01765
;WIDTH:0.587835
G1 X135.772 Y120.075 E.02346
G1 X120.228 Y120.075 E.66908
G1 X120.228 Y119.53 E.02346
G1 X135.569 Y119.53 E.66034
;LAYER_CHANGE
;Z:2.2
;HEIGHT:0.2
;BEFORE_LAYER_CHANGE
;2.2

G1 E-.8 F2100
G1 Z2.2 F9000
;AFTER_LAYER_CHANGE
;2.2

G1 Z2.6
G1 X119.039 Y121.264
G1 Z2.2
G1 E.8 F2100
;TYPE:Perimeter
;WIDTH:0.449999
G1 F991
G1 X119.039 Y118.342 E.09396
G1 X136.961 Y118.342 E.57631
G1 X136.961 Y119.803 E.04698
G1 X136.961 Y121.264 E.04698
G1 X119.099 Y121.264 E.57438
G1 X118.632 Y121.671 F9000
G1 F991
G1 X118.632 Y117.935 E.12014
G1 X137.368 Y117.935 E.60248
G1 X137.368 Y119.803 E.06007
G1 X137.368 Y121.671 E.06007
