; generated by PrusaSlicer 2.9.1 on 2026-02-14 at 05:46:11 UTC

; 

; external perimeters extrusion width = 0.45mm
; perimeters extrusion width = 0.45mm
; infill extrusion width = 0.45mm
; solid infill extrusion width = 0.45mm
; top infill extrusion width = 0.40mm
; first layer extrusion width = 0.45mm

;TYPE:Custom
;Elegoo Centauri Carbon - Start G-code
M140 S80 ; set bed temp
M104 S150 ; preheat nozzle to 150 (prevent ooze)
G28 ; home all axes
G29 ; auto bed leveling (if configured in Klipper)
M190 S80 ; wait for bed temp
G1 Z5 F3000 ; move nozzle up
M109 S240 ; wait for nozzle temp
; Prime line
G92 E0
G1 X5 Y5 F3000
G1 Z0.3 F1500
G1 X5 Y150 E15 F1500 ; draw prime line
G1 X5.4 Y150 F5000
G1 X5.4 Y5 E30 F1500 ; draw second prime line
G92 E0
G1 Z2 F3000 ; lift nozzle
;End of start G-code
G21 ; set units to millimeters
G90 ; use absolute coordinates
M83 ; use relative distances for extrusion
; Filament gcode
M107
;LAYER_CHANGE
;Z:0.2
;HEIGHT:0.2
G1 E-.8 F2100
G1 Z.6 F9000
G1 X111.821 Y108.623
G1 Z.2
G1 E.8 F2100
;TYPE:Skirt/Brim
;WIDTH:0.45
G1 F1500
G1 X113.509 Y107.495 E.06528
G1 X115.5 Y107.099 E.06528
G1 X140.5 Y107.099 E.80391
G1 X142.491 Y107.496 E.06528
G1 X144.18 Y108.624 E.06531
G1 X145.308 Y110.312 E.06528
G1 X145.704 Y112.303 E.06528
G1 X145.704 Y117.303 E.16078
G1 X145.307 Y119.294 E.06528
G1 X144.179 Y120.983 E.06531
G1 X142.491 Y122.111 E.06528
G1 X140.5 Y122.506 E.06527
G1 X115.5 Y122.506 E.80391
G1 X113.509 Y122.11 E.06528
G1 X111.82 Y120.982 E.06531
G1 X110.692 Y119.294 E.06528
G1 X110.296 Y117.303 E.06528
G1 X110.296 Y112.303 E.16078
G1 X110.693 Y110.311 E.06532
G1 X111.787 Y108.673 E.06334
G1 E-.8 F2100
G1 Z.6 F9000
G1 X116.739 Y116.064
G1 Z.2
G1 E.8 F2100
;TYPE:Perimeter
;WIDTH:0.449999
G1 F1500
G1 X116.739 Y113.542 E.0811
G1 X139.261 Y113.542 E.72422
G1 X139.261 Y114.803 E.04055
G1 X139.261 Y116.064 E.04055
G1 X116.799 Y116.064 E.7223
G1 X116.332 Y116.471 F9000
G1 F1500
G1 X116.332 Y113.135 E.10727
G1 X139.668 Y113.135 E.7504
G1 X139.668 Y114.803 E.05364
G1 X139.668 Y116.471 E.05364
G1 X116.392 Y116.471 E.74847
G1 X115.925 Y116.878 F9000
;TYPE:External perimeter
G1 F1500
G1 X115.925 Y112.728 E.13345
G1 X140.075 Y112.728 E.77658
G1 X140.075 Y114.803 E.06672
G1 X140.075 Y116.878 E.06672
G1 X115.985 Y116.878 E.77465
G1 X115.926 Y116.482 F9000
G1 E-.8 F2100
G1 Z.6 F9000
G1 X139.139 Y114.503
G1 Z.2
G1 E.8 F2100
;TYPE:Solid infill
;WIDTH:0.457693
G1 F1500
G1 X138.483 Y113.847 E.0304
G1 X137.896 Y113.847 E.01923
G1 X138.956 Y114.907 E.04912
G1 X138.956 Y115.493 E.0192
G1 X137.31 Y113.847 E.07627
G1 X136.723 Y113.847 E.01923
G1 X138.634 Y115.758 E.08855
G1 X138.047 Y115.758 E.01923
G1 X136.136 Y113.847 E.08855
G1 X135.55 Y113.847 E.0192
G1 X137.461 Y115.758 E.08855
G1 X136.874 Y115.758 E.01923
G1 X134.963 Y113.847 E.08855
G1 X134.377 Y113.847 E.0192
G1 X136.288 Y115.758 E.08855
G1 X135.701 Y115.758 E.01923
G1 X133.79 Y113.847 E.08855
G1 X133.203 Y113.847 E.01923
G1 X135.115 Y115.758 E.08857
G1 X134.528 Y115.758 E.01923
G1 X132.617 Y113.847 E.08855
G1 X132.03 Y113.847 E.01923
G1 X133.941 Y115.758 E.08855
G1 X133.355 Y115.758 E.0192
G1 X131.444 Y113.847 E.08855
G1 X130.857 Y113.847 E.01923
G1 X132.768 Y115.758 E.08855
G1 X132.182 Y115.758 E.0192
G1 X130.271 Y113.847 E.08855
G1 X129.684 Y113.847 E.01923
G1 X131.595 Y115.758 E.08855
G1 X131.009 Y115.758 E.0192
G1 X129.097 Y113.847 E.08857
G1 X128.511 Y113.847 E.0192
G1 X130.422 Y115.758 E.08855
G1 X129.835 Y115.758 E.01923
G1 X127.924 Y113.847 E.08855
G1 X127.338 Y113.847 E.0192
G1 X129.249 Y115.758 E.08855
G1 X128.662 Y115.758 E.01923
G1 X126.751 Y113.847 E.08855
G1 X126.165 Y113.847 E.0192
G1 X128.076 Y115.758 E.08855
G1 X127.489 Y115.758 E.01923
G1 X125.578 Y113.847 E.08855
G1 X124.991 Y113.847 E.01923
G1 X126.902 Y115.758 E.08855
G1 X126.316 Y115.758 E.0192
G1 X124.405 Y113.847 E.08855
G1 X123.818 Y113.847 E.01923
G1 X125.729 Y115.758 E.08855
G1 X125.143 Y115.758 E.0192
G1 X123.232 Y113.847 E.08855
G1 X122.645 Y113.847 E.01923
G1 X124.556 Y115.758 E.08855
G1 X123.97 Y115.758 E.0192
G1 X122.059 Y113.847 E.08855
G1 X121.472 Y113.847 E.01923
G1 X123.383 Y115.758 E.08855
G1 X122.796 Y115.758 E.01923
G1 X120.885 Y113.847 E.08855
G1 X120.299 Y113.847 E.0192
G1 X122.21 Y115.758 E.08855
G1 X121.623 Y115.758 E.01923
G1 X119.712 Y113.847 E.08855
G1 X119.126 Y113.847 E.0192
G1 X121.037 Y115.758 E.08855
G1 X120.45 Y115.758 E.01923
G1 X118.539 Y113.847 E.08855
G1 X117.952 Y113.847 E.01923
G1 X119.864 Y115.758 E.08857
G1 X119.277 Y115.758 E.01923
G1 X117.366 Y113.847 E.08855
G1 X117.044 Y113.847 E.01055
G1 X117.044 Y114.113 E.00872
G1 X118.69 Y115.758 E.07624
G1 X118.104 Y115.758 E.0192
G1 X117.044 Y114.699 E.04909
G1 X117.044 Y115.286 E.01923
G1 X117.7 Y115.942 E.0304
;LAYER_CHANGE
;Z:0.4
;HEIGHT:0.2
;BEFORE_LAYER_CHANGE
;0.4

G1 Z.4 F9000
;AFTER_LAYER_CHANGE
;0.4

M104 S235 ; set temperature
M140 S75 ; set bed temperature
G1 Z.4
G1 X116.539 Y116.264
;TYPE:Perimeter
;WIDTH:0.449999
G1 F1237
G1 X116.539 Y113.342 E.09396
G1 X139.461 Y113.342 E.73709
G1 X139.461 Y114.803 E.04698
G1 X139.461 Y116.264 E.04698
G1 X116.599 Y116.264 E.73516
G1 X116.132 Y116.671 F9000
G1 F1237
G1 X116.132 Y112.935 E.12014
G1 X139.868 Y112.935 E.76326
G1 X139.868 Y114.803 E.06007
G1 X139.868 Y116.671 E.06007
G1 X116.192 Y116.671 E.76133
G1 X115.725 Y117.078 F9000
;TYPE:External perimeter
G1 F1237
G1 X115.725 Y112.528 E.14631
G1 X140.275 Y112.528 E.78944
G1 X140.275 Y114.803 E.07316
G1 X140.275 Y117.078 E.07316
G1 X115.785 Y117.078 E.78751
G1 X115.726 Y116.682 F9000
G1 E-.8 F2100
G1 Z.8 F9000
G1 X138.952 Y113.647
G1 Z.4
G1 E.8 F2100
;TYPE:Solid infill
G1 F1237
G1 X116.844 Y113.647 E.71091
G1 X116.844 Y115.958 E.07431
G1 X139.156 Y115.958 E.71747
G1 X139.156 Y113.647 E.07431
G1 X138.748 Y114.054 E.01853
G1 X138.748 Y115.551 E.04814
G1 X117.252 Y115.551 E.69123
G1 X117.252 Y114.054 E.04814
G1 X138.545 Y114.054 E.6847
G1 X138.272 Y114.53 E.01765
;WIDTH:0.587835
G1 X138.272 Y115.075 E.02346
G1 X117.728 Y115.075 E.8843
G1 X117.728 Y114.53 E.02346
G1 X138.069 Y114.53 E.87557
;LAYER_CHANGE
;Z:0.6
;HEIGHT:0.2
;BEFORE_LAYER_CHANGE
;0.6

G1 E-.8 F2100
G1 Z.6 F9000
;AFTER_LAYER_CHANGE
;0.6

G1 Z1
G1 X116.539 Y116.264
G1 Z.6
G1 E.8 F2100
;TYPE:Perimeter
;WIDTH:0.449999
G1 F1239
G1 X116.539 Y113.342 E.09396
G1 X139.461 Y113.342 E.73709
G1 X139.461 Y114.803 E.04698
G1 X139.461 Y116.264 E.04698
G1 X116.599 Y116.264 E.73516
G1 X116.132 Y116.671 F9000
G1 F1239
G1 X116.132 Y112.935 E.12014
G1 X139.868 Y112.935 E.76326
G1 X139.868 Y114.803 E.06007
G1 X139.868 Y116.671 E.06007
G1 X116.192 Y116.671 E.76133
G1 X115.725 Y117.078 F9000
;TYPE:External perimeter
G1 F1239
G1 X115.725 Y112.528 E.14631
G1 X140.275 Y112.528 E.78944
G1 X140.275 Y114.803 E.07316
G1 X140.275 Y117.078 E.07316
G1 X115.785 Y117.078 E.78751
G1 X115.726 Y116.682 F9000
G1 X116.844 Y115.958
;TYPE:Solid infill
G1 F1239
G1 X116.844 Y113.647 E.07431
G1 X139.156 Y113.647 E.71747
G1 X139.156 Y115.958 E.07431
G1 X117.048 Y115.958 E.71091
G1 X117.252 Y115.551 E.01464
G1 X117.252 Y114.054 E.04814
G1 X138.748 Y114.054 E.69123
G1 X138.748 Y115.551 E.04814
G1 X117.455 Y115.551 E.6847
G1 X117.728 Y115.075 E.01765
;WIDTH:0.587835
G1 X117.728 Y114.53 E.02346
G1 X138.272 Y114.53 E.8843
G1 X138.272 Y115.075 E.02346
G1 X117.931 Y115.075 E.87557
M106 S63.75
;LAYER_CHANGE
;Z:0.8
;HEIGHT:0.2
;BEFORE_LAYER_CHANGE
;0.8

G1 Z.8 F9000
;AFTER_LAYER_CHANGE
;0.8

G1 Z.8
G1 X116.539 Y116.264
;TYPE:Perimeter
;WIDTH:0.449999
G1 F1241
G1 X116.539 Y113.342 E.09396
G1 X139.461 Y113.342 E.73709
G1 X139.461 Y114.803 E.04698
G1 X139.461 Y116.264 E.04698
G1 X116.599 Y116.264 E.73516
G1 X116.132 Y116.671 F9000
G1 F1241
G1 X116.132 Y112.935 E.12014
G1 X139.868 Y112.935 E.76326
G1 X139.868 Y114.803 E.06007
G1 X139.868 Y116.671 E.06007
G1 X116.192 Y116.671 E.76133
G1 X115.725 Y117.078 F9000
;TYPE:External perimeter
G1 F1241
G1 X115.725 Y112.528 E.14631
G1 X140.275 Y112.528 E.78944
G1 X140.275 Y114.803 E.07316
G1 X140.275 Y117.078 E.07316
G1 X115.785 Y117.078 E.78751
G1 X115.726 Y116.682 F9000
G1 E-.8 F2100
G1 Z1.2 F9000
G1 X138.952 Y113.647
G1 Z.8
G1 E.8 F2100
;TYPE:Solid infill
G1 F1241
G1 X116.844 Y113.647 E.71091
G1 X116.844 Y115.958 E.07431
G1 X139.156 Y115.958 E.71747
G1 X139.156 Y113.647 E.07431
G1 X138.748 Y114.054 E.01853
G1 X138.748 Y115.551 E.04814
G1 X117.252 Y115.551 E.69123
G1 X117.252 Y114.054 E.04814
G1 X138.545 Y114.054 E.6847
G1 X138.272 Y114.53 E.01765
;WIDTH:0.587835
G1 X138.272 Y115.075 E.02346
G1 X117.728 Y115.075 E.8843
G1 X117.728 Y114.53 E.02346
G1 X138.069 Y114.53 E.87557
M106 S124.95
;LAYER_CHANGE
;Z:1
;HEIGHT:0.2
;BEFORE_LAYER_CHANGE
;1

G1 E-.8 F2100
G1 Z1 F9000
;AFTER_LAYER_CHANGE
;1

G1 Z1.4
G1 X116.539 Y116.264
G1 Z1
G1 E.8 F2100
;TYPE:Perimeter
;WIDTH:0.449999
G1 F1239
G1 X116.539 Y113.342 E.09396
G1 X139.461 Y113.342 E.73709
G1 X139.461 Y114.803 E.04698
G1 X139.461 Y116.264 E.04698
G1 X116.599 Y116.264 E.73516
G1 X116.132 Y116.671 F9000
G1 F1239
G1 X116.132 Y112.935 E.12014
G1 X139.868 Y112.935 E.76326
G1 X139.868 Y114.803 E.06007
G1 X139.868 Y116.671 E.06007
G1 X116.192 Y116.671 E.76133
G1 X115.725 Y117.078 F9000
;TYPE:External perimeter
G1 F1239
G1 X115.725 Y112.528 E.14631
G1 X140.275 Y112.528 E.78944
G1 X140.275 Y114.803 E.07316
G1 X140.275 Y117.078 E.07316
G1 X115.785 Y117.078 E.78751
G1 X115.726 Y116.682 F9000
G1 X116.844 Y115.958
;TYPE:Solid infill
G1 F1239
G1 X116.844 Y113.647 E.07431
G1 X139.156 Y113.647 E.71747
G1 X139.156 Y115.958 E.07431
G1 X117.048 Y115.958 E.71091
G1 X117.252 Y115.551 E.01464
G1 X117.252 Y114.054 E.04814
G1 X138.748 Y114.054 E.69123
G1 X138.748 Y115.551 E.04814
G1 X117.455 Y115.551 E.6847
G1 X117.728 Y115.075 E.01765
;WIDTH:0.587835
G1 X117.728 Y114.53 E.02346
G1 X138.272 Y114.53 E.8843
G1 X138.272 Y115.075 E.02346
G1 X117.931 Y115.075 E.87557
;LAYER_CHANGE
;Z:1.2
;HEIGHT:0.2
;BEFORE_LAYER_CHANGE
;1.2

G1 Z1.2 F9000
;AFTER_LAYER_CHANGE
;1.2

G1 Z1.2
G1 X116.539 Y116.264
;TYPE:Perimeter
;WIDTH:0.449999
G1 F1241
G1 X116.539 Y113.342 E.09396
G1 X139.461 Y113.342 E.73709
G1 X139.461 Y114.803 E.04698
G1 X139.461 Y116.264 E.04698
G1 X116.599 Y116.264 E.73516
G1 X116.132 Y116.671 F9000
G1 F1241
G1 X116.132 Y112.935 E.12014
G1 X139.868 Y112.935 E.76326
G1 X139.868 Y114.803 E.06007
G1 X139.868 Y116.671 E.06007
G1 X116.192 Y116.671 E.76133
G1 X115.725 Y117.078 F9000
;TYPE:External perimeter
G1 F1241
G1 X115.725 Y112.528 E.14631
G1 X140.275 Y112.528 E.78944
G1 X140.275 Y114.803 E.07316
G1 X140.275 Y117.078 E.07316
G1 X115.785 Y117.078 E.78751
G1 X115.726 Y116.682 F9000
G1 E-.8 F2100
G1 Z1.6 F9000
G1 X138.952 Y113.647
G1 Z1.2
G1 E.8 F2100
;TYPE:Solid infill
G1 F1241
G1 X116.844 Y113.647 E.71091
G1 X116.844 Y115.958 E.07431
G1 X139.156 Y115.958 E.71747
G1 X139.156 Y113.647 E.07431
G1 X138.748 Y114.054 E.01853
G1 X138.748 Y115.551 E.04814
G1 X117.252 Y115.551 E.69123
G1 X117.252 Y114.054 E.04814
G1 X138.545 Y114.054 E.6847
G1 X138.272 Y114.53 E.01765
;WIDTH:0.587835
G1 X138.272 Y115.075 E.02346
G1 X117.728 Y115.075 E.8843
G1 X117.728 Y114.53 E.02346
G1 X138.069 Y114.53 E.87557
;LAYER_CHANGE
;Z:1.4
;HEIGHT:0.2
;BEFORE_LAYER_CHANGE
;1.4

G1 E-.8 F2100
G1 Z1.4 F9000
;AFTER_LAYER_CHANGE
;1.4

G1 Z1.8
G1 X116.539 Y116.264
G1 Z1.4
G1 E.8 F2100
;TYPE:Perimeter
;WIDTH:0.449999
G1 F1239
G1 X116.539 Y113.342 E.09396
G1 X139.461 Y113.342 E.73709
G1 X139.461 Y114.803 E.04698
G1 X139.461 Y116.264 E.04698
G1 X116.599 Y116.264 E.73516
G1 X116.132 Y116.671 F9000
G1 F1239
G1 X116.132 Y112.935 E.12014
G1 X139.868 Y112.935 E.76326
G1 X139.868 Y114.803 E.06007
G1 X139.868 Y116.671 E.06007
G1 X116.192 Y116.671 E.76133
G1 X115.725 Y117.078 F9000
;TYPE:External perimeter
G1 F1239
G1 X115.725 Y112.528 E.14631
G1 X140.275 Y112.528 E.78944
G1 X140.275 Y114.803 E.07316
G1 X140.275 Y117.078 E.07316
G1 X115.785 Y117.078 E.78751
G1 X115.726 Y116.682 F9000
G1 X116.844 Y115.958
;TYPE:Solid infill
G1 F1239
G1 X116.844 Y113.647 E.07431
G1 X139.156 Y113.647 E.71747
G1 X139.156 Y115.958 E.07431
G1 X117.048 Y115.958 E.71091
G1 X117.252 Y115.551 E.01464
G1 X117.252 Y114.054 E.04814
G1 X138.748 Y114.054 E.69123
G1 X138.748 Y115.551 E.04814
G1 X117.455 Y115.551 E.6847
G1 X117.728 Y115.075 E.01765
;WIDTH:0.587835
G1 X117.728 Y114.53 E.02346
G1 X138.272 Y114.53 E.8843
G1 X138.272 Y115.075 E.02346
G1 X117.931 Y115.075 E.87557
;LAYER_CHANGE
;Z:1.6
;HEIGHT:0.2
;BEFORE_LAYER_CHANGE
;1.6

G1 Z1.6 F9000
;AFTER_LAYER_CHANGE
;1.6

G1 Z1.6
G1 X116.539 Y116.264
;TYPE:Perimeter
;WIDTH:0.449999
G1 F1241
G1 X116.539 Y113.342 E.09396
G1 X139.461 Y113.342 E.73709
G1 X139.461 Y114.803 E.04698
G1 X139.461 Y116.264 E.04698
G1 X116.599 Y116.264 E.73516
G1 X116.132 Y116.671 F9000
G1 F1241
G1 X116.132 Y112.935 E.12014
G1 X139.868 Y112.935 E.76326
G1 X139.868 Y114.803 E.06007
G1 X139.868 Y116.671 E.06007
G1 X116.192 Y116.671 E.76133
G1 X115.725 Y117.078 F9000
;TYPE:External perimeter
G1 F1241
G1 X115.725 Y112.528 E.14631
G1 X140.275 Y112.528 E.78944
G1 X140.275 Y114.803 E.07316
G1 X140.275 Y117.078 E.07316
G1 X115.785 Y117.078 E.78751
G1 X115.726 Y116.682 F9000
G1 E-.8 F2100
G1 Z2 F9000
G1 X138.952 Y113.647
G1 Z1.6
G1 E.8 F2100
;TYPE:Solid infill
G1 F1241
G1 X116.844 Y113.647 E.71091
G1 X116.844 Y115.958 E.07431
G1 X139.156 Y115.958 E.71747
G1 X139.156 Y113.647 E.07431
G1 X138.748 Y114.054 E.01853
G1 X138.748 Y115.551 E.04814
G1 X117.252 Y115.551 E.69123
G1 X117.252 Y114.054 E.04814
G1 X138.545 Y114.054 E.6847
G1 X138.272 Y114.53 E.01765
;WIDTH:0.587835
G1 X138.272 Y115.075 E.02346
G1 X117.728 Y115.075 E.8843
G1 X117.728 Y114.53 E.02346
G1 X138.069 Y114.53 E.87557
;LAYER_CHANGE
;Z:1.8
;HEIGHT:0.2
;BEFORE_LAYER_CHANGE
;1.8

G1 E-.8 F2100
G1 Z1.8 F9000
;AFTER_LAYER_CHANGE
;1.8

G1 Z2.2
G1 X116.539 Y116.264
G1 Z1.8
G1 E.8 F2100
;TYPE:Perimeter
;WIDTH:0.449999
G1 F1239
G1 X116.539 Y113.342 E.09396
G1 X139.461 Y113.342 E.73709
G1 X139.461 Y114.803 E.04698
G1 X139.461 Y116.264 E.04698
G1 X116.599 Y116.264 E.73516
G1 X116.132 Y116.671 F9000
G1 F1239
G1 X116.132 Y112.935 E.12014
G1 X139.868 Y112.935 E.76326
G1 X139.868 Y114.803 E.06007
G1 X139.868 Y116.671 E.06007
G1 X116.192 Y116.671 E.76133
G1 X115.725 Y117.078 F9000
;TYPE:External perimeter
G1 F1239
G1 X115.725 Y112.528 E.14631
G1 X140.275 Y112.528 E.78944
G1 X140.275 Y114.803 E.07316
G1 X140.275 Y117.078 E.07316
G1 X115.785 Y117.078 E.78751
G1 X115.726 Y116.682 F9000
G1 X116.844 Y115.958
;TYPE:Solid infill
G1 F1239
G1 X116.844 Y113.647 E.07431
G1 X139.156 Y113.647 E.71747
G1 X139.156 Y115.958 E.07431
G1 X117.048 Y115.958 E.71091
G1 X117.252 Y115.551 E.01464
G1 X117.252 Y114.054 E.04814
G1 X138.748 Y114.054 E.69123
G1 X138.748 Y115.551 E.04814
G1 X117.455 Y115.551 E.6847
G1 X117.728 Y115.075 E.01765
;WIDTH:0.587835
G1 X117.728 Y114.53 E.02346
G1 X138.272 Y114.53 E.8843
G1 X138.272 Y115.075 E.02346
G1 X117.931 Y115.075 E.87557
;LAYER_CHANGE
;Z:2
;HEIGHT:0.2
;BEFORE_LAYER_CHANGE
;2

G1 Z2 F9000
;AFTER_LAYER_CHANGE
;2

G1 Z2
G1 X116.539 Y116.264
;TYPE:Perimeter
;WIDTH:0.449999
G1 F1241
G1 X116.539 Y113.342 E.09396
G1 X139.461 Y113.342 E.73709
G1 X139.461 Y114.803 E.04698
G1 X139.461 Y116.264 E.04698
G1 X116.599 Y116.264 E.73516
G1 X116.132 Y116.671 F9000
G1 F1241
G1 X116.132 Y112.935 E.12014
G1 X139.868 Y112.935 E.76326
G1 X139.868 Y114.803 E.06007
G1 X139.868 Y116.671 E.06007
G1 X116.192 Y116.671 E.76133
G1 X115.725 Y117.078 F9000
;TYPE:External perimeter
G1 F1241
G1 X115.725 Y112.528 E.14631
G1 X140.275 Y112.528 E.78944
G1 X140.275 Y114.803 E.07316
G1 X140.275 Y117.078 E.07316
G1 X115.785 Y117.078 E.78751
G1 X115.726 Y116.682 F9000
G1 E-.8 F2100
G1 Z2.4 F9000
G1 X138.952 Y113.647
G1 Z2
G1 E.8 F2100
;TYPE:Solid infill
G1 F1241
G1 X116.844 Y113.647 E.71091
G1 X116.844 Y115.958 E.07431
G1 X139.156 Y115.958 E.71747
G1 X139.156 Y113.647 E.07431
G1 X138.748 Y114.054 E.01853
G1 X138.748 Y115.551 E.04814
G1 X117.252 Y115.551 E.69123
G1 X117.252 Y114.054 E.04814
G1 X138.545 Y114.054 E.6847
G1 X138.272 Y114.53 E.01765
;WIDTH:0.587835
G1 X138.272 Y115.075 E.02346
G1 X117.728 Y115.075 E.8843
G1 X117.728 Y114.53 E.02346
G1 X138.069 Y114.53 E.87557
;LAYER_CHANGE
;Z:2.2
;HEIGHT:0.2
;BEFORE_LAYER_CHANGE
;2.2

G1 E-.8 F2100
G1 Z2.2 F9000
