; generated by PrusaSlicer 2.9.1 on 2026-02-14 at 05:46:11 UTC

; 

; external perimeters extrusion width = 0.45mm
; perimeters extrusion width = 0.45mm
; infill extrusion width = 0.45mm
; solid infill extrusion width = 0.45mm
; top infill extrusion width = 0.40mm
; first layer extrusion width = 0.45mm

;TYPE:Custom
;Elegoo Centauri Carbon - Start G-code
M140 S80 ; set bed temp
M104 S150 ; preheat nozzle to 150 (prevent ooze)
G28 ; home all axes
G29 ; auto bed leveling (if configured in Klipper)
M190 S80 ; wait for bed temp
G1 Z5 F3000 ; move nozzle up
M109 S240 ; wait for nozzle temp
; Prime line
G92 E0
G1 X5 Y5 F3000
G1 Z0.3 F1500
G1 X5 Y150 E15 F1500 ; draw prime line
G1 X5.4 Y150 F5000
G1 X5.4 Y5 E30 F1500 ; draw second prime line
G92 E0
G1 Z2 F3000 ; lift nozzle
;End of start G-code
G21 ; set units to millimeters
G90 ; use absolute coordinates
M83 ; use relative distances for extrusion
; Filament gcode
M107
;LAYER_CHANGE
;Z:0.2
;HEIGHT:0.2
G1 E-.8 F2100
G1 Z.6 F9000
G1 X109.321 Y103.611
G1 Z.2
G1 E.8 F2100
;TYPE:Skirt/Brim
;WIDTH:0.45
G1 F1500
G1 X111.009 Y102.483 E.06528
G1 X113 Y102.087 E.06528
G1 X143 Y102.087 E.96469
G1 X144.991 Y102.483 E.06528
G1 X146.68 Y103.611 E.06531
G1 X147.808 Y105.299 E.06528
G1 X148.204 Y107.29 E.06528
G1 X148.204 Y112.29 E.16078
G1 X147.807 Y114.282 E.06532
G1 X146.679 Y115.97 E.06528
G1 X144.991 Y117.098 E.06528
G1 X143 Y117.494 E.06528
G1 X113 Y117.494 E.96469
G1 X111.009 Y117.098 E.06528
G1 X109.32 Y115.97 E.06531
G1 X108.192 Y114.281 E.06531
G1 X107.796 Y112.29 E.06528
G1 X107.796 Y107.29 E.16078
G1 X108.193 Y105.299 E.06528
G1 X109.287 Y103.66 E.06337
G1 E-.8 F2100
G1 Z.6 F9000
G1 X141.761 Y111.051
G1 Z.2
G1 E.8 F2100
;TYPE:Perimeter
;WIDTH:0.449999
G1 F1500
G1 X114.239 Y111.051 E.88501
G1 X114.239 Y108.529 E.0811
G1 X141.761 Y108.529 E.88501
G1 X141.761 Y109.79 E.04055
G1 X141.761 Y110.991 E.03862
G1 X142.168 Y111.458 F9000
G1 F1500
G1 X113.832 Y111.458 E.91118
G1 X113.832 Y108.122 E.10727
G1 X142.168 Y108.122 E.91118
G1 X142.168 Y109.79 E.05364
G1 X142.168 Y111.398 E.05171
G1 X142.575 Y111.865 F9000
;TYPE:External perimeter
G1 F1500
G1 X113.425 Y111.865 E.93736
G1 X113.425 Y107.715 E.13345
G1 X142.575 Y107.715 E.93736
G1 X142.575 Y109.79 E.06672
G1 X142.575 Y111.805 E.06479
G1 X142.179 Y111.865 F9000
G1 E-.8 F2100
G1 Z.6 F9000
G1 X141.639 Y109.483
G1 Z.2
G1 E.8 F2100
;TYPE:Solid infill
;WIDTH:0.453822
G1 F1500
G1 X140.991 Y108.835 E.02975
G1 X140.41 Y108.835 E.01886
G1 X141.456 Y109.881 E.04801
G1 X141.456 Y110.462 E.01886
G1 X139.829 Y108.835 E.07468
G1 X139.248 Y108.835 E.01886
G1 X141.159 Y110.746 E.08772
G1 X140.578 Y110.746 E.01886
G1 X138.666 Y108.835 E.08774
G1 X138.085 Y108.835 E.01886
G1 X139.996 Y110.746 E.08772
G1 X139.415 Y110.746 E.01886
G1 X137.504 Y108.835 E.08772
G1 X136.923 Y108.835 E.01886
G1 X138.834 Y110.746 E.08772
G1 X138.253 Y110.746 E.01886
G1 X136.342 Y108.835 E.08772
G1 X135.761 Y108.835 E.01886
G1 X137.672 Y110.746 E.08772
G1 X137.091 Y110.746 E.01886
G1 X135.18 Y108.835 E.08772
G1 X134.599 Y108.835 E.01886
G1 X136.51 Y110.746 E.08772
G1 X135.929 Y110.746 E.01886
G1 X134.018 Y108.835 E.08772
G1 X133.437 Y108.835 E.01886
G1 X135.348 Y110.746 E.08772
G1 X134.767 Y110.746 E.01886
G1 X132.855 Y108.835 E.08774
G1 X132.274 Y108.835 E.01886
G1 X134.185 Y110.746 E.08772
G1 X133.604 Y110.746 E.01886
G1 X131.693 Y108.835 E.08772
G1 X131.112 Y108.835 E.01886
G1 X133.023 Y110.746 E.08772
G1 X132.442 Y110.746 E.01886
G1 X130.531 Y108.835 E.08772
G1 X129.95 Y108.835 E.01886
G1 X131.861 Y110.746 E.08772
G1 X131.28 Y110.746 E.01886
G1 X129.369 Y108.835 E.08772
G1 X128.788 Y108.835 E.01886
G1 X130.699 Y110.746 E.08772
G1 X130.118 Y110.746 E.01886
G1 X128.207 Y108.835 E.08772
G1 X127.626 Y108.835 E.01886
G1 X129.537 Y110.746 E.08772
G1 X128.955 Y110.746 E.01889
G1 X127.044 Y108.835 E.08772
G1 X126.463 Y108.835 E.01886
G1 X128.374 Y110.746 E.08772
G1 X127.793 Y110.746 E.01886
G1 X125.882 Y108.835 E.08772
G1 X125.301 Y108.835 E.01886
G1 X127.212 Y110.746 E.08772
G1 X126.631 Y110.746 E.01886
G1 X124.72 Y108.835 E.08772
G1 X124.139 Y108.835 E.01886
G1 X126.05 Y110.746 E.08772
G1 X125.469 Y110.746 E.01886
G1 X123.558 Y108.835 E.08772
G1 X122.977 Y108.835 E.01886
G1 X124.888 Y110.746 E.08772
G1 X124.307 Y110.746 E.01886
G1 X122.396 Y108.835 E.08772
G1 X121.814 Y108.835 E.01889
G1 X123.726 Y110.746 E.08774
G1 X123.144 Y110.746 E.01889
G1 X121.233 Y108.835 E.08772
G1 X120.652 Y108.835 E.01886
G1 X122.563 Y110.746 E.08772
G1 X121.982 Y110.746 E.01886
G1 X120.071 Y108.835 E.08772
G1 X119.49 Y108.835 E.01886
G1 X121.401 Y110.746 E.08772
G1 X120.82 Y110.746 E.01886
G1 X118.909 Y108.835 E.08772
G1 X118.328 Y108.835 E.01886
G1 X120.239 Y110.746 E.08772
G1 X119.658 Y110.746 E.01886
G1 X117.747 Y108.835 E.08772
G1 X117.166 Y108.835 E.01886
G1 X119.077 Y110.746 E.08772
G1 X118.496 Y110.746 E.01886
G1 X116.585 Y108.835 E.08772
G1 X116.003 Y108.835 E.01889
G1 X117.915 Y110.746 E.08774
G1 X117.333 Y110.746 E.01889
G1 X115.422 Y108.835 E.08772
G1 X114.841 Y108.835 E.01886
G1 X116.752 Y110.746 E.08772
G1 X116.171 Y110.746 E.01886
G1 X114.544 Y109.119 E.07468
G1 X114.544 Y109.7 E.01886
G1 X115.59 Y110.746 E.04801
G1 X115.009 Y110.746 E.01886
G1 X114.361 Y110.098 E.02975
;LAYER_CHANGE
;Z:0.4
;HEIGHT:0.2
;BEFORE_LAYER_CHANGE
;0.4

G1 E-.8 F2100
G1 Z.4 F9000
;AFTER_LAYER_CHANGE
;0.4

M104 S235 ; set temperature
M140 S75 ; set bed temperature
G1 Z.8
G1 X141.961 Y111.251
G1 Z.4
G1 E.8 F2100
;TYPE:Perimeter
;WIDTH:0.449999
G1 F1488
G1 X114.039 Y111.251 E.89787
G1 X114.039 Y108.329 E.09396
G1 X141.961 Y108.329 E.89787
G1 X141.961 Y109.79 E.04698
G1 X141.961 Y111.191 E.04505
G1 X142.368 Y111.658 F9000
G1 F1488
G1 X113.632 Y111.658 E.92404
G1 X113.632 Y107.922 E.12014
G1 X142.368 Y107.922 E.92404
G1 X142.368 Y109.79 E.06007
G1 X142.368 Y111.598 E.05814
G1 X142.775 Y112.065 F9000
;TYPE:External perimeter
G1 F1488
G1 X113.225 Y112.065 E.95022
G1 X113.225 Y107.515 E.14631
G1 X142.775 Y107.515 E.95022
G1 X142.775 Y109.79 E.07316
G1 X142.775 Y112.005 E.07123
G1 X142.379 Y112.065 F9000
G1 E-.8 F2100
G1 Z.8 F9000
G1 X141.452 Y108.635
G1 Z.4
G1 E.8 F2100
;TYPE:Solid infill
G1 F1488
G1 X114.344 Y108.635 E.87169
G1 X114.344 Y110.946 E.07431
G1 X141.656 Y110.946 E.87825
G1 X141.656 Y108.635 E.07431
G1 X141.248 Y109.042 E.01853
G1 X141.248 Y110.539 E.04814
G1 X114.752 Y110.539 E.85201
G1 X114.752 Y109.042 E.04814
G1 X141.045 Y109.042 E.84549
G1 X140.772 Y109.518 E.01765
;WIDTH:0.587835
G1 X140.772 Y110.063 E.02346
G1 X115.228 Y110.063 E1.09953
G1 X115.228 Y109.518 E.02346
G1 X140.569 Y109.518 E1.09079
;LAYER_CHANGE
;Z:0.6
;HEIGHT:0.2
;BEFORE_LAYER_CHANGE
;0.6

G1 E-.8 F2100
G1 Z.6 F9000
;AFTER_LAYER_CHANGE
;0.6

G1 Z1
G1 X141.961 Y111.251
G1 Z.6
G1 E.8 F2100
;TYPE:Perimeter
;WIDTH:0.449999
G1 F1487
G1 X114.039 Y111.251 E.89787
G1 X114.039 Y108.329 E.09396
G1 X141.961 Y108.329 E.89787
G1 X141.961 Y109.79 E.04698
G1 X141.961 Y111.191 E.04505
G1 X142.368 Y111.658 F9000
G1 F1487
G1 X113.632 Y111.658 E.92404
G1 X113.632 Y107.922 E.12014
G1 X142.368 Y107.922 E.92404
G1 X142.368 Y109.79 E.06007
G1 X142.368 Y111.598 E.05814
G1 X142.775 Y112.065 F9000
;TYPE:External perimeter
G1 F1487
G1 X113.225 Y112.065 E.95022
G1 X113.225 Y107.515 E.14631
G1 X142.775 Y107.515 E.95022
G1 X142.775 Y109.79 E.07316
G1 X142.775 Y112.005 E.07123
G1 X142.379 Y112.065 F9000
G1 E-.8 F2100
G1 Z1 F9000
G1 X114.344 Y110.946
G1 Z.6
G1 E.8 F2100
;TYPE:Solid infill
G1 F1487
G1 X114.344 Y108.635 E.07431
G1 X141.656 Y108.635 E.87825
G1 X141.656 Y110.946 E.07431
G1 X114.548 Y110.946 E.87169
G1 X114.752 Y110.539 E.01464
G1 X114.752 Y109.042 E.04814
G1 X141.248 Y109.042 E.85201
G1 X141.248 Y110.539 E.04814
G1 X114.955 Y110.539 E.84549
G1 X115.228 Y110.063 E.01765
;WIDTH:0.587835
G1 X115.228 Y109.518 E.02346
G1 X140.772 Y109.518 E1.09953
G1 X140.772 Y110.063 E.02346
G1 X115.431 Y110.063 E1.09079
M106 S63.75
;LAYER_CHANGE
;Z:0.8
;HEIGHT:0.2
;BEFORE_LAYER_CHANGE
;0.8

G1 E-.8 F2100
G1 Z.8 F9000
;AFTER_LAYER_CHANGE
;0.8

G1 Z1.2
G1 X141.961 Y111.251
G1 Z.8
G1 E.8 F2100
;TYPE:Perimeter
;WIDTH:0.449999
G1 F1487
G1 X114.039 Y111.251 E.89787
G1 X114.039 Y108.329 E.09396
G1 X141.961 Y108.329 E.89787
G1 X141.961 Y109.79 E.04698
G1 X141.961 Y111.191 E.04505
G1 X142.368 Y111.658 F9000
G1 F1487
G1 X113.632 Y111.658 E.92404
G1 X113.632 Y107.922 E.12014
G1 X142.368 Y107.922 E.92404
G1 X142.368 Y109.79 E.06007
G1 X142.368 Y111.598 E.05814
G1 X142.775 Y112.065 F9000
;TYPE:External perimeter
G1 F1487
G1 X113.225 Y112.065 E.95022
G1 X113.225 Y107.515 E.14631
G1 X142.775 Y107.515 E.95022
G1 X142.775 Y109.79 E.07316
G1 X142.775 Y112.005 E.07123
G1 X142.379 Y112.065 F9000
G1 E-.8 F2100
G1 Z1.2 F9000
G1 X141.452 Y108.635
G1 Z.8
G1 E.8 F2100
;TYPE:Solid infill
G1 F1487
G1 X114.344 Y108.635 E.87169
G1 X114.344 Y110.946 E.07431
G1 X141.656 Y110.946 E.87825
G1 X141.656 Y108.635 E.07431
G1 X141.248 Y109.042 E.01853
G1 X141.248 Y110.539 E.04814
G1 X114.752 Y110.539 E.85201
G1 X114.752 Y109.042 E.04814
G1 X141.045 Y109.042 E.84549
G1 X140.772 Y109.518 E.01765
;WIDTH:0.587835
G1 X140.772 Y110.063 E.02346
G1 X115.228 Y110.063 E1.09953
G1 X115.228 Y109.518 E.02346
G1 X140.569 Y109.518 E1.09079
M106 S124.95
;LAYER_CHANGE
;Z:1
;HEIGHT:0.2
;BEFORE_LAYER_CHANGE
;1

G1 E-.8 F2100
G1 Z1 F9000
;AFTER_LAYER_CHANGE
;1

G1 Z1.4
G1 X141.961 Y111.251
G1 Z1
G1 E.8 F2100
;TYPE:Perimeter
;WIDTH:0.449999
G1 F968
G1 X114.039 Y111.251 E.89787
G1 X114.039 Y108.329 E.09396
G1 X141.961 Y108.329 E.89787
G1 X141.961 Y109.79 E.04698
G1 X141.961 Y111.191 E.04505
G1 X142.368 Y111.658 F9000
G1 F968
G1 X113.632 Y111.658 E.92404
G1 X113.632 Y107.922 E.12014
G1 X142.368 Y107.922 E.92404
G1 X142.368 Y109.79 E.06007
G1 X142.368 Y111.598 E.05814
G1 X142.775 Y112.065 F9000
;TYPE:External perimeter
G1 F968
G1 X113.225 Y112.065 E.95022
G1 X113.225 Y107.515 E.14631
G1 X142.775 Y107.515 E.95022
G1 X142.775 Y109.79 E.07316
G1 X142.775 Y112.005 E.07123
G1 X142.379 Y112.065 F9000
G1 X141.531 Y110.946
;TYPE:Internal infill
;WIDTH:0.45
G1 F968
G1 X141.656 Y110.946 E.00402
G1 X141.656 Y108.635 E.07431
G1 X139.337 Y110.946 E.10528
G1 X139.69 Y110.946 E.01135
G1 X137.379 Y108.635 E.10509
G1 X135.892 Y108.635 E.04782
G1 X133.581 Y110.946 E.10509
G1 X133.933 Y110.946 E.01132
G1 X131.622 Y108.635 E.10509
G1 X130.135 Y108.635 E.04782
G1 X127.824 Y110.946 E.10509
G1 X128.176 Y110.946 E.01132
G1 X125.865 Y108.635 E.10509
G1 X124.378 Y108.635 E.04782
G1 X122.067 Y110.946 E.10509
G1 X122.419 Y110.946 E.01132
G1 X120.108 Y108.635 E.10509
G1 X118.621 Y108.635 E.04782
G1 X116.31 Y110.946 E.10509
G1 X116.663 Y110.946 E.01135
G1 X114.344 Y108.635 E.10528
G1 X114.344 Y110.946 E.07431
G1 X114.469 Y110.946 E.00402
;LAYER_CHANGE
;Z:1.2
;HEIGHT:0.2
;BEFORE_LAYER_CHANGE
;1.2

G1 E-.8 F2100
G1 Z1.2 F9000
;AFTER_LAYER_CHANGE
;1.2

G1 Z1.6
G1 X141.961 Y111.251
G1 Z1.2
G1 E.8 F2100
;TYPE:Perimeter
;WIDTH:0.449999
G1 F979
G1 X114.039 Y111.251 E.89787
G1 X114.039 Y108.329 E.09396
G1 X141.961 Y108.329 E.89787
G1 X141.961 Y109.79 E.04698
G1 X141.961 Y111.191 E.04505
G1 X142.368 Y111.658 F9000
G1 F979
G1 X113.632 Y111.658 E.92404
G1 X113.632 Y107.922 E.12014
G1 X142.368 Y107.922 E.92404
G1 X142.368 Y109.79 E.06007
G1 X142.368 Y111.598 E.05814
G1 X142.775 Y112.065 F9000
;TYPE:External perimeter
G1 F979
G1 X113.225 Y112.065 E.95022
G1 X113.225 Y107.515 E.14631
G1 X142.775 Y107.515 E.95022
G1 X142.775 Y109.79 E.07316
G1 X142.775 Y112.005 E.07123
G1 X142.379 Y112.065 F9000
G1 X141.531 Y110.946
;TYPE:Internal infill
;WIDTH:0.45
G1 F979
G1 X141.656 Y110.946 E.00402
G1 X141.656 Y108.635 E.07431
G1 X139.337 Y110.946 E.10528
G1 X139.69 Y110.946 E.01135
G1 X137.379 Y108.635 E.10509
G1 X135.892 Y108.635 E.04782
G1 X133.581 Y110.946 E.10509
G1 X133.933 Y110.946 E.01132
G1 X131.622 Y108.635 E.10509
G1 X130.135 Y108.635 E.04782
G1 X127.824 Y110.946 E.10509
G1 X128.176 Y110.946 E.01132
G1 X125.865 Y108.635 E.10509
G1 X124.378 Y108.635 E.04782
G1 X122.067 Y110.946 E.10509
G1 X122.419 Y110.946 E.01132
G1 X120.108 Y108.635 E.10509
G1 X118.621 Y108.635 E.04782
G1 X116.31 Y110.946 E.10509
G1 X116.663 Y110.946 E.01135
G1 X114.344 Y108.635 E.10528
G1 X114.344 Y110.946 E.07431
G1 X114.469 Y110.946 E.00402
;LAYER_CHANGE
;Z:1.4
;HEIGHT:0.2
;BEFORE_LAYER_CHANGE
;1.4

G1 E-.8 F2100
G1 Z1.4 F9000
;AFTER_LAYER_CHANGE
;1.4

G1 Z1.8
G1 X141.961 Y111.251
G1 Z1.4
G1 E.8 F2100
;TYPE:Perimeter
;WIDTH:0.449999
G1 F979
G1 X114.039 Y111.251 E.89787
G1 X114.039 Y108.329 E.09396
G1 X141.961 Y108.329 E.89787
G1 X141.961 Y109.79 E.04698
G1 X141.961 Y111.191 E.04505
G1 X142.368 Y111.658 F9000
G1 F979
G1 X113.632 Y111.658 E.92404
G1 X113.632 Y107.922 E.12014
G1 X142.368 Y107.922 E.92404
G1 X142.368 Y109.79 E.06007
G1 X142.368 Y111.598 E.05814
G1 X142.775 Y112.065 F9000
;TYPE:External perimeter
G1 F979
G1 X113.225 Y112.065 E.95022
G1 X113.225 Y107.515 E.14631
G1 X142.775 Y107.515 E.95022
G1 X142.775 Y109.79 E.07316
G1 X142.775 Y112.005 E.07123
G1 X142.379 Y112.065 F9000
G1 X141.531 Y110.946
;TYPE:Internal infill
;WIDTH:0.45
G1 F979
G1 X141.656 Y110.946 E.00402
G1 X141.656 Y108.635 E.07431
G1 X139.337 Y110.946 E.10528
G1 X139.69 Y110.946 E.01135
G1 X137.379 Y108.635 E.10509
G1 X135.892 Y108.635 E.04782
G1 X133.581 Y110.946 E.10509
G1 X133.933 Y110.946 E.01132
G1 X131.622 Y108.635 E.10509
G1 X130.135 Y108.635 E.04782
G1 X127.824 Y110.946 E.10509
G1 X128.176 Y110.946 E.01132
G1 X125.865 Y108.635 E.10509
G1 X124.378 Y108.635 E.04782
G1 X122.067 Y110.946 E.10509
G1 X122.419 Y110.946 E.01132
G1 X120.108 Y108.635 E.10509
G1 X118.621 Y108.635 E.04782
G1 X116.31 Y110.946 E.10509
G1 X116.663 Y110.946 E.01135
G1 X114.344 Y108.635 E.10528
G1 X114.344 Y110.946 E.07431
G1 X114.469 Y110.946 E.00402
;LAYER_CHANGE
;Z:1.6
;HEIGHT:0.2
;BEFORE_LAYER_CHANGE
;1.6

G1 E-.8 F2100
G1 Z1.6 F9000
;AFTER_LAYER_CHANGE
;1.6

G1 Z2
G1 X141.961 Y111.251
G1 Z1.6
G1 E.8 F2100
;TYPE:Perimeter
;WIDTH:0.449999
G1 F979
G1 X114.039 Y111.251 E.89787
G1 X114.039 Y108.329 E.09396
G1 X141.961 Y108.329 E.89787
G1 X141.961 Y109.79 E.04698
G1 X141.961 Y111.191 E.04505
G1 X142.368 Y111.658 F9000
G1 F979
G1 X113.632 Y111.658 E.92404
G1 X113.632 Y107.922 E.12014
G1 X142.368 Y107.922 E.92404
G1 X142.368 Y109.79 E.06007
G1 X142.368 Y111.598 E.05814
G1 X142.775 Y112.065 F9000
;TYPE:External perimeter
G1 F979
G1 X113.225 Y112.065 E.95022
G1 X113.225 Y107.515 E.14631
G1 X142.775 Y107.515 E.95022
G1 X142.775 Y109.79 E.07316
G1 X142.775 Y112.005 E.07123
G1 X142.379 Y112.065 F9000
G1 X141.531 Y110.946
;TYPE:Internal infill
;WIDTH:0.45
G1 F979
G1 X141.656 Y110.946 E.00402
G1 X141.656 Y108.635 E.07431
G1 X139.337 Y110.946 E.10528
G1 X139.69 Y110.946 E.01135
G1 X137.379 Y108.635 E.10509
G1 X135.892 Y108.635 E.04782
G1 X133.581 Y110.946 E.10509
G1 X133.933 Y110.946 E.01132
G1 X131.622 Y108.635 E.10509
G1 X130.135 Y108.635 E.04782
G1 X127.824 Y110.946 E.10509
G1 X128.176 Y110.946 E.01132
G1 X125.865 Y108.635 E.10509
G1 X124.378 Y108.635 E.04782
G1 X122.067 Y110.946 E.10509
G1 X122.419 Y110.946 E.01132
G1 X120.108 Y108.635 E.10509
G1 X118.621 Y108.635 E.04782
G1 X116.31 Y110.946 E.10509
G1 X116.663 Y110.946 E.01135
G1 X114.344 Y108.635 E.10528
G1 X114.344 Y110.946 E.07431
G1 X114.469 Y110.946 E.00402
;LAYER_CHANGE
;Z:1.8
;HEIGHT:0.2
;BEFORE_LAYER_CHANGE
;1.8

G1 E-.8 F2100
G1 Z1.8 F9000
;AFTER_LAYER_CHANGE
;1.8

G1 Z2.2
G1 X141.961 Y111.251
G1 Z1.8
G1 E.8 F2100
;TYPE:Perimeter
;WIDTH:0.449999
G1 F979
G1 X114.039 Y111.251 E.89787
G1 X114.039 Y108.329 E.09396
G1 X141.961 Y108.329 E.89787
G1 X141.961 Y109.79 E.04698
G1 X141.961 Y111.191 E.04505
G1 X142.368 Y111.658 F9000
G1 F979
G1 X113.632 Y111.658 E.92404
G1 X113.632 Y107.922 E.12014
G1 X142.368 Y107.922 E.92404
G1 X142.368 Y109.79 E.06007
G1 X142.368 Y111.598 E.05814
G1 X142.775 Y112.065 F9000
;TYPE:External perimeter
G1 F979
G1 X113.225 Y112.065 E.95022
G1 X113.225 Y107.515 E.14631
G1 X142.775 Y107.515 E.95022
G1 X142.775 Y109.79 E.07316
G1 X142.775 Y112.005 E.07123
G1 X142.379 Y112.065 F9000
G1 X141.531 Y110.946
;TYPE:Internal infill
;WIDTH:0.45
G1 F979
G1 X141.656 Y110.946 E.00402
G1 X141.656 Y108.635 E.07431
G1 X139.337 Y110.946 E.10528
G1 X139.69 Y110.946 E.01135
