; generated by PrusaSlicer 2.9.1 on 2026-02-14 at 04:47:20 UTC

; 

; external perimeters extrusion width = 0.45mm
; perimeters extrusion width = 0.45mm
; infill extrusion width = 0.45mm
; solid infill extrusion width = 0.45mm
; top infill extrusion width = 0.40mm
; first layer extrusion width = 0.45mm

;TYPE:Custom
;Elegoo Centauri Carbon - Start G-code
M140 S80 ; set bed temp
M104 S150 ; preheat nozzle to 150 (prevent ooze)
G28 ; home all axes
G29 ; auto bed leveling (if configured in Klipper)
M190 S80 ; wait for bed temp
G1 Z5 F3000 ; move nozzle up
M109 S240 ; wait for nozzle temp
; Prime line
G92 E0
G1 X5 Y5 F3000
G1 Z0.3 F1500
G1 X5 Y150 E15 F1500 ; draw prime line
G1 X5.4 Y150 F5000
G1 X5.4 Y5 E30 F1500 ; draw second prime line
G92 E0
G1 Z2 F3000 ; lift nozzle
;End of start G-code
G21 ; set units to millimeters
G90 ; use absolute coordinates
M83 ; use relative distances for extrusion
; Filament gcode
M107
;LAYER_CHANGE
;Z:0.2
;HEIGHT:0.2
G1 E-.8 F2100
G1 Z.6 F9000
G1 X103.193 Y27.988
G1 Z.2
G1 E.8 F2100
;TYPE:Skirt/Brim
;WIDTH:0.45
G1 F1500
G1 X104.321 Y26.3 E.06528
G1 X106.009 Y25.172 E.06528
G1 X108 Y24.776 E.06528
G1 X148 Y24.776 E1.28625
G1 X149.991 Y25.172 E.06528
G1 X151.68 Y26.301 E.06533
G1 X152.808 Y27.989 E.06528
G1 X153.204 Y29.98 E.06528
G1 X153.204 Y35.98 E.19294
G1 X152.807 Y37.971 E.06528
G1 X151.679 Y39.659 E.06528
G1 X149.991 Y40.787 E.06528
G1 X148 Y41.183 E.06528
G1 X108 Y41.183 E1.28625
G1 X106.009 Y40.787 E.06528
G1 X104.32 Y39.659 E.06531
G1 X103.192 Y37.971 E.06528
G1 X102.796 Y35.98 E.06528
G1 X102.796 Y29.98 E.19294
G1 X103.181 Y28.047 E.06338
G1 E-.8 F2100
G1 Z.6 F9000
G1 X146.761 Y34.741
G1 Z.2
G1 E.8 F2100
;TYPE:Perimeter
;WIDTH:0.449999
G1 F1500
G1 X109.239 Y34.741 E1.20657
G1 X109.239 Y31.219 E.11325
G1 X146.761 Y31.219 E1.20657
G1 X146.761 Y32.98 E.05663
G1 X146.761 Y34.681 E.0547
G1 X147.168 Y35.148 F9000
G1 F1500
G1 X108.832 Y35.148 E1.23274
G1 X108.832 Y30.812 E.13943
G1 X147.168 Y30.812 E1.23274
G1 X147.168 Y32.98 E.06971
G1 X147.168 Y35.088 E.06779
G1 X147.575 Y35.555 F9000
;TYPE:External perimeter
G1 F1500
G1 X108.425 Y35.555 E1.25892
G1 X108.425 Y30.405 E.16561
G1 X147.575 Y30.405 E1.25892
G1 X147.575 Y32.98 E.0828
G1 X147.575 Y35.495 E.08087
G1 X147.179 Y35.554 F9000
G1 E-.8 F2100
G1 Z.6 F9000
G1 X146.639 Y32.171
G1 Z.2
G1 E.8 F2100
;TYPE:Solid infill
;WIDTH:0.453408
G1 F1500
G1 X145.992 Y31.524 E.02967
G1 X145.411 Y31.524 E.01884
G1 X146.456 Y32.568 E.0479
G1 X146.456 Y33.149 E.01884
G1 X144.831 Y31.524 E.07452
G1 X144.25 Y31.524 E.01884
G1 X146.456 Y33.73 E.10116
G1 X146.456 Y34.31 E.01881
G1 X143.67 Y31.524 E.12776
G1 X143.089 Y31.524 E.01884
G1 X146 Y34.435 E.13349
G1 X145.42 Y34.435 E.01881
G1 X142.509 Y31.524 E.13349
G1 X141.928 Y31.524 E.01884
G1 X144.839 Y34.435 E.13349
G1 X144.259 Y34.435 E.01881
G1 X141.348 Y31.524 E.13349
G1 X140.767 Y31.524 E.01884
G1 X143.678 Y34.435 E.13349
G1 X143.098 Y34.435 E.01881
G1 X140.187 Y31.524 E.13349
G1 X139.606 Y31.524 E.01884
G1 X142.517 Y34.435 E.13349
G1 X141.937 Y34.435 E.01881
G1 X139.026 Y31.524 E.13349
G1 X138.445 Y31.524 E.01884
G1 X141.356 Y34.435 E.13349
G1 X140.776 Y34.435 E.01881
G1 X137.865 Y31.524 E.13349
G1 X137.284 Y31.524 E.01884
G1 X140.195 Y34.435 E.13349
G1 X139.615 Y34.435 E.01881
G1 X136.703 Y31.524 E.13351
G1 X136.123 Y31.524 E.01881
G1 X139.034 Y34.435 E.13349
G1 X138.454 Y34.435 E.01881
G1 X135.542 Y31.524 E.13351
G1 X134.962 Y31.524 E.01881
G1 X137.873 Y34.435 E.13349
G1 X137.292 Y34.435 E.01884
G1 X134.381 Y31.524 E.13349
G1 X133.801 Y31.524 E.01881
G1 X136.712 Y34.435 E.13349
G1 X136.131 Y34.435 E.01884
G1 X133.22 Y31.524 E.13349
G1 X132.64 Y31.524 E.01881
G1 X135.551 Y34.435 E.13349
G1 X134.97 Y34.435 E.01884
G1 X132.059 Y31.524 E.13349
G1 X131.479 Y31.524 E.01881
G1 X134.39 Y34.435 E.13349
G1 X133.809 Y34.435 E.01884
G1 X130.898 Y31.524 E.13349
G1 X130.318 Y31.524 E.01881
G1 X133.229 Y34.435 E.13349
G1 X132.648 Y34.435 E.01884
G1 X129.737 Y31.524 E.13349
G1 X129.157 Y31.524 E.01881
G1 X132.068 Y34.435 E.13349
G1 X131.487 Y34.435 E.01884
G1 X128.576 Y31.524 E.13349
G1 X127.996 Y31.524 E.01881
G1 X130.907 Y34.435 E.13349
G1 X130.326 Y34.435 E.01884
G1 X127.415 Y31.524 E.13349
G1 X126.835 Y31.524 E.01881
G1 X129.746 Y34.435 E.13349
G1 X129.165 Y34.435 E.01884
G1 X126.254 Y31.524 E.13349
G1 X125.674 Y31.524 E.01881
G1 X128.585 Y34.435 E.13349
G1 X128.004 Y34.435 E.01884
G1 X125.093 Y31.524 E.13349
G1 X124.513 Y31.524 E.01881
G1 X127.424 Y34.435 E.13349
G1 X126.843 Y34.435 E.01884
G1 X123.932 Y31.524 E.13349
G1 X123.352 Y31.524 E.01881
G1 X126.263 Y34.435 E.13349
G1 X125.682 Y34.435 E.01884
G1 X122.771 Y31.524 E.13349
G1 X122.191 Y31.524 E.01881
G1 X125.102 Y34.435 E.13349
G1 X124.521 Y34.435 E.01884
G1 X121.61 Y31.524 E.13349
G1 X121.03 Y31.524 E.01881
G1 X123.941 Y34.435 E.13349
G1 X123.36 Y34.435 E.01884
G1 X120.449 Y31.524 E.13349
G1 X119.868 Y31.524 E.01884
G1 X122.78 Y34.435 E.13351
G1 X122.199 Y34.435 E.01884
G1 X119.288 Y31.524 E.13349
G1 X118.707 Y31.524 E.01884
G1 X121.619 Y34.435 E.13351
G1 X121.038 Y34.435 E.01884
G1 X118.127 Y31.524 E.13349
G1 X117.546 Y31.524 E.01884
G1 X120.457 Y34.435 E.13349
G1 X119.877 Y34.435 E.01881
G1 X116.966 Y31.524 E.13349
G1 X116.385 Y31.524 E.01884
G1 X119.296 Y34.435 E.13349
G1 X118.716 Y34.435 E.01881
G1 X115.805 Y31.524 E.13349
G1 X115.224 Y31.524 E.01884
G1 X118.135 Y34.435 E.13349
G1 X117.555 Y34.435 E.01881
G1 X114.644 Y31.524 E.13349
G1 X114.063 Y31.524 E.01884
G1 X116.974 Y34.435 E.13349
G1 X116.394 Y34.435 E.01881
G1 X113.483 Y31.524 E.13349
G1 X112.902 Y31.524 E.01884
G1 X115.813 Y34.435 E.13349
G1 X115.233 Y34.435 E.01881
G1 X112.322 Y31.524 E.13349
G1 X111.741 Y31.524 E.01884
G1 X114.652 Y34.435 E.13349
G1 X114.072 Y34.435 E.01881
G1 X111.161 Y31.524 E.13349
G1 X110.58 Y31.524 E.01884
G1 X113.491 Y34.435 E.13349
G1 X112.911 Y34.435 E.01881
G1 X110 Y31.524 E.13349
G1 X109.544 Y31.524 E.01479
G1 X109.544 Y31.65 E.00409
G1 X112.33 Y34.435 E.12773
G1 X111.75 Y34.435 E.01881
G1 X109.544 Y32.23 E.10114
G1 X109.544 Y32.811 E.01884
G1 X111.169 Y34.435 E.07449
G1 X110.589 Y34.435 E.01881
G1 X109.544 Y33.391 E.0479
G1 X109.544 Y33.972 E.01884
G1 X110.191 Y34.618 E.02965
;LAYER_CHANGE
;Z:0.4
;HEIGHT:0.2
;BEFORE_LAYER_CHANGE
;0.4

G1 E-.8 F2100
G1 Z.4 F9000
;AFTER_LAYER_CHANGE
;0.4

M104 S235 ; set temperature
M140 S75 ; set bed temperature
G1 Z.8
G1 X146.961 Y34.941
G1 Z.4
G1 E.8 F2100
;TYPE:Perimeter
;WIDTH:0.449999
G1 F2726
G1 X109.039 Y34.941 E1.21943
G1 X109.039 Y31.019 E.12612
G1 X146.961 Y31.019 E1.21943
G1 X146.961 Y32.98 E.06306
G1 X146.961 Y34.881 E.06113
G1 X147.368 Y35.348 F9000
G1 F2726
G1 X108.632 Y35.348 E1.24561
G1 X108.632 Y30.612 E.15229
G1 X147.368 Y30.612 E1.24561
G1 X147.368 Y32.98 E.07615
G1 X147.368 Y35.288 E.07422
G1 X147.775 Y35.755 F9000
;TYPE:External perimeter
G1 F1800
G1 X108.225 Y35.755 E1.27178
G1 X108.225 Y30.205 E.17847
G1 X147.775 Y30.205 E1.27178
G1 X147.775 Y32.98 E.08923
G1 X147.775 Y35.695 E.0873
G1 X147.379 Y35.754 F9000
G1 E-.8 F2100
G1 Z.8 F9000
G1 X109.455 Y31.357
G1 Z.4
G1 E.8 F2100
;TYPE:Solid infill
;WIDTH:0.548766
G1 F2726
G1 X109.41 Y31.313 E.00251
G1 X109.349 Y31.329 E.00252
G1 X109.333 Y31.39 E.00252
G1 X109.377 Y31.435 E.00251
G1 X109.439 Y31.418 E.00257
G1 X109.212 Y32.214 F9000
;WIDTH:0.38292
G1 F2726
G1 X109.141 Y32.195 E.00197
G1 X109.16 Y32.266 E.00197
G1 X109.201 Y32.255 E.00114
;WIDTH:0.41646
G1 X109.273 Y32.162 E.00347
;WIDTH:0.449999
G1 X109.344 Y32.069 E.00376
G1 X110.089 Y31.324 E.03388
G1 X110.182 Y31.252 E.00378
;WIDTH:0.41646
G1 X110.275 Y31.181 E.00345
;WIDTH:0.38292
G1 X110.234 Y31.192 E.00114
G1 X110.215 Y31.12 E.002
G1 X110.286 Y31.139 E.00197
;WIDTH:0.449999
G1 X110.664 Y31.324 E.01353
G1 X109.344 Y32.644 E.06003
G1 X109.344 Y33.22 E.01852
G1 X111.24 Y31.324 E.08622
G1 X111.816 Y31.324 E.01852
G1 X109.344 Y33.796 E.11242
G1 X109.289 Y34.75 F9000
;WIDTH:0.38292
G1 F2726
G1 X109.248 Y34.761 E.00114
G1 X109.229 Y34.69 E.00197
G1 X109.3 Y34.709 E.00197
;WIDTH:0.41646
G1 X109.322 Y34.54 E.00503
;WIDTH:0.449999
G1 X109.344 Y34.371 E.00548
G1 X112.392 Y31.324 E.13859
G1 X112.967 Y31.324 E.01849
G1 X109.656 Y34.635 E.15057
G1 X110.232 Y34.635 E.01852
G1 X113.543 Y31.324 E.15057
G1 X114.119 Y31.324 E.01852
G1 X110.808 Y34.635 E.15057
G1 X111.383 Y34.635 E.01849
G1 X114.694 Y31.324 E.15057
G1 X115.27 Y31.324 E.01852
G1 X111.959 Y34.635 E.15057
G1 X112.535 Y34.635 E.01852
G1 X115.846 Y31.324 E.15057
G1 X116.421 Y31.324 E.01849
G1 X113.11 Y34.635 E.15057
G1 X113.686 Y34.635 E.01852
G1 X116.997 Y31.324 E.15057
G1 X117.573 Y31.324 E.01852
G1 X114.262 Y34.635 E.15057
G1 X114.837 Y34.635 E.01849
G1 X118.149 Y31.324 E.15059
G1 X118.724 Y31.324 E.01849
G1 X115.413 Y34.635 E.15057
G1 X115.989 Y34.635 E.01852
G1 X119.3 Y31.324 E.15057
G1 X119.876 Y31.324 E.01852
G1 X116.565 Y34.635 E.15057
G1 X117.14 Y34.635 E.01849
G1 X120.451 Y31.324 E.15057
G1 X121.027 Y31.324 E.01852
G1 X117.716 Y34.635 E.15057
G1 X118.292 Y34.635 E.01852
G1 X121.603 Y31.324 E.15057
G1 X122.178 Y31.324 E.01849
G1 X118.867 Y34.635 E.15057
G1 X119.443 Y34.635 E.01852
G1 X122.754 Y31.324 E.15057
G1 X123.33 Y31.324 E.01852
G1 X120.019 Y34.635 E.15057
G1 X120.594 Y34.635 E.01849
G1 X123.906 Y31.324 E.15059
G1 X124.481 Y31.324 E.01849
G1 X121.17 Y34.635 E.15057
G1 X121.746 Y34.635 E.01852
G1 X125.057 Y31.324 E.15057
G1 X125.633 Y31.324 E.01852
G1 X122.322 Y34.635 E.15057
G1 X122.897 Y34.635 E.01849
G1 X126.208 Y31.324 E.15057
G1 X126.784 Y31.324 E.01852
G1 X123.473 Y34.635 E.15057
G1 X124.049 Y34.635 E.01852
G1 X127.36 Y31.324 E.15057
G1 X127.935 Y31.324 E.01849
G1 X124.624 Y34.635 E.15057
G1 X125.2 Y34.635 E.01852
G1 X128.511 Y31.324 E.15057
G1 X129.087 Y31.324 E.01852
G1 X125.776 Y34.635 E.15057
G1 X126.351 Y34.635 E.01849
G1 X129.662 Y31.324 E.15057
G1 X130.238 Y31.324 E.01852
G1 X126.927 Y34.635 E.15057
G1 X127.503 Y34.635 E.01852
G1 X130.814 Y31.324 E.15057
G1 X131.39 Y31.324 E.01852
G1 X128.078 Y34.635 E.15059
G1 X128.654 Y34.635 E.01852
G1 X131.965 Y31.324 E.15057
G1 X132.541 Y31.324 E.01852
G1 X129.23 Y34.635 E.15057
G1 X129.806 Y34.635 E.01852
G1 X133.117 Y31.324 E.15057
G1 X133.692 Y31.324 E.01849
G1 X130.381 Y34.635 E.15057
G1 X130.957 Y34.635 E.01852
G1 X134.268 Y31.324 E.15057
G1 X134.844 Y31.324 E.01852
G1 X131.533 Y34.635 E.15057
G1 X132.108 Y34.635 E.01849
G1 X135.419 Y31.324 E.15057
G1 X135.995 Y31.324 E.01852
G1 X132.684 Y34.635 E.15057
G1 X133.26 Y34.635 E.01852
G1 X136.571 Y31.324 E.15057
G1 X137.147 Y31.324 E.01852
G1 X133.835 Y34.635 E.15059
G1 X134.411 Y34.635 E.01852
G1 X137.722 Y31.324 E.15057
G1 X138.298 Y31.324 E.01852
G1 X134.987 Y34.635 E.15057
G1 X135.563 Y34.635 E.01852
G1 X138.874 Y31.324 E.15057
G1 X139.449 Y31.324 E.01849
G1 X136.138 Y34.635 E.15057
G1 X136.714 Y34.635 E.01852
G1 X140.025 Y31.324 E.15057
G1 X140.601 Y31.324 E.01852
G1 X137.29 Y34.635 E.15057
G1 X137.865 Y34.635 E.01849
G1 X141.176 Y31.324 E.15057
G1 X141.752 Y31.324 E.01852
G1 X138.441 Y34.635 E.15057
G1 X139.017 Y34.635 E.01852
G1 X142.328 Y31.324 E.15057
G1 X142.903 Y31.324 E.01849
G1 X139.592 Y34.635 E.15057
G1 X140.168 Y34.635 E.01852
G1 X143.479 Y31.324 E.15057
G1 X144.055 Y31.324 E.01852
G1 X140.744 Y34.635 E.15057
G1 X141.32 Y34.635 E.01852
G1 X144.631 Y31.324 E.15057
G1 X145.206 Y31.324 E.01849
G1 X141.895 Y34.635 E.15057
G1 X142.471 Y34.635 E.01852
G1 X145.782 Y31.324 E.15057
G1 X146.358 Y31.324 E.01852
G1 X143.047 Y34.635 E.15057
G1 X143.622 Y34.635 E.01849
G1 X146.656 Y31.602 E.13795
G1 X146.713 Y31.436 E.00564
;WIDTH:0.41646
G1 X146.77 Y31.27 E.00518
;WIDTH:0.38292
G1 X146.729 Y31.281 E.00114
G1 X146.71 Y31.21 E.00197
G1 X146.781 Y31.229 E.00197
G1 X146.656 Y32.178 F9000
;WIDTH:0.449999
G1 F2726
G1 X144.198 Y34.635 E.11176
G1 X144.774 Y34.635 E.01852
G1 X146.656 Y32.753 E.08559
G1 X146.757 Y32.69 E.00383
;WIDTH:0.41646
G1 X146.859 Y32.627 E.00354
;WIDTH:0.38292
G1 X146.818 Y32.638 E.00114
G1 X146.799 Y32.567 E.00197
G1 X146.87 Y32.586 E.00197
;WIDTH:0.449999
G1 X146.656 Y33.329 E.02486
G1 X146.656 Y34.635 E.042
G1 X145.349 Y34.635 E.04203
G1 X146.512 Y33.473 E.05287
;LAYER_CHANGE
;Z:0.6
;HEIGHT:0.2
;BEFORE_LAYER_CHANGE
;0.6

G1 Z.6 F9000
;AFTER_LAYER_CHANGE
;0.6

G1 Z.6
G1 X146.961 Y34.941
;TYPE:Perimeter
G1 F2658
G1 X109.039 Y34.941 E1.21943
G1 X109.039 Y31.019 E.12612
G1 X146.961 Y31.019 E1.21943
G1 X146.961 Y32.98 E.06306
G1 X146.961 Y34.881 E.06113
G1 X147.368 Y35.348 F9000
G1 F2658
G1 X108.632 Y35.348 E1.24561
G1 X108.632 Y30.612 E.15229
G1 X147.368 Y30.612 E1.24561
G1 X147.368 Y32.98 E.07615
G1 X147.368 Y35.288 E.07422
G1 X147.775 Y35.755 F9000
;TYPE:External perimeter
G1 F1800
G1 X108.225 Y35.755 E1.27178
G1 X108.225 Y30.205 E.17847
G1 X147.775 Y30.205 E1.27178
G1 X147.775 Y32.98 E.08923
G1 X147.775 Y35.695 E.0873
G1 X147.379 Y35.754 F9000
G1 E-.8 F2100
G1 Z1 F9000
G1 X109.377 Y34.525
G1 Z.6
G1 E.8 F2100
;TYPE:Solid infill
;WIDTH:0.548766
G1 F2658
G1 X109.333 Y34.57 E.00251
G1 X109.349 Y34.631 E.00252
G1 X109.41 Y34.647 E.00252
G1 X109.455 Y34.602 E.00254
G1 X109.439 Y34.541 E.00252
;WIDTH:0.449999
G1 X110.089 Y34.635 E.02112
G1 X109.344 Y33.891 E.03386
G1 X109.273 Y33.798 E.00376
;WIDTH:0.41646
G1 X109.201 Y33.705 E.00347
;WIDTH:0.38292
G1 X109.212 Y33.746 E.00114
G1 X109.141 Y33.765 E.00197
G1 X109.16 Y33.694 E.00197
;WIDTH:0.449999
G1 X109.344 Y33.315 E.01355
G1 X110.664 Y34.635 E.06003
G1 X111.24 Y34.635 E.01852
G1 X109.344 Y32.74 E.0862
G1 X109.344 Y32.164 E.01852
G1 X111.816 Y34.635 E.11239
G1 X112.392 Y34.635 E.01852
G1 X109.344 Y31.588 E.13859
G1 X109.317 Y31.399 E.00614
;WIDTH:0.41646
G1 X109.289 Y31.209 E.00567
;WIDTH:0.38292
G1 X109.3 Y31.25 E.00114
G1 X109.229 Y31.269 E.00197
G1 X109.248 Y31.198 E.00197
;WIDTH:0.449999
G1 X109.656 Y31.324 E.01373
G1 X112.967 Y34.635 E.15057
G1 X113.543 Y34.635 E.01852
G1 X110.232 Y31.324 E.15057
G1 X110.808 Y31.324 E.01852
G1 X114.119 Y34.635 E.15057
G1 X114.694 Y34.635 E.01849
G1 X111.383 Y31.324 E.15057
G1 X111.959 Y31.324 E.01852
G1 X115.27 Y34.635 E.15057
G1 X115.846 Y34.635 E.01852
G1 X112.535 Y31.324 E.15057
G1 X113.11 Y31.324 E.01849
G1 X116.421 Y34.635 E.15057
G1 X116.997 Y34.635 E.01852
G1 X113.686 Y31.324 E.15057
G1 X114.262 Y31.324 E.01852
G1 X117.573 Y34.635 E.15057
G1 X118.149 Y34.635 E.01852
G1 X114.837 Y31.324 E.15059
G1 X115.413 Y31.324 E.01852
G1 X118.724 Y34.635 E.15057
G1 X119.3 Y34.635 E.01852
G1 X115.989 Y31.324 E.15057
G1 X116.565 Y31.324 E.01852
G1 X119.876 Y34.635 E.15057
G1 X120.451 Y34.635 E.01849
G1 X117.14 Y31.324 E.15057
G1 X117.716 Y31.324 E.01852
G1 X121.027 Y34.635 E.15057
G1 X121.603 Y34.635 E.01852
G1 X118.292 Y31.324 E.15057
G1 X118.867 Y31.324 E.01849
G1 X122.178 Y34.635 E.15057
G1 X122.754 Y34.635 E.01852
G1 X119.443 Y31.324 E.15057
G1 X120.019 Y31.324 E.01852
G1 X123.33 Y34.635 E.15057
G1 X123.906 Y34.635 E.01852
G1 X120.594 Y31.324 E.15059
G1 X121.17 Y31.324 E.01852
G1 X124.481 Y34.635 E.15057
G1 X125.057 Y34.635 E.01852
G1 X121.746 Y31.324 E.15057
G1 X122.322 Y31.324 E.01852
G1 X125.633 Y34.635 E.15057
G1 X126.208 Y34.635 E.01849
G1 X122.897 Y31.324 E.15057
G1 X123.473 Y31.324 E.01852
G1 X126.784 Y34.635 E.15057
G1 X127.36 Y34.635 E.01852
G1 X124.049 Y31.324 E.15057
G1 X124.624 Y31.324 E.01849
G1 X127.935 Y34.635 E.15057
G1 X128.511 Y34.635 E.01852
G1 X125.2 Y31.324 E.15057
G1 X125.776 Y31.324 E.01852
G1 X129.087 Y34.635 E.15057
G1 X129.662 Y34.635 E.01849
G1 X126.351 Y31.324 E.15057
G1 X126.927 Y31.324 E.01852
G1 X130.238 Y34.635 E.15057
G1 X130.814 Y34.635 E.01852
G1 X127.503 Y31.324 E.15057
G1 X128.078 Y31.324 E.01849
G1 X131.39 Y34.635 E.15059
G1 X131.965 Y34.635 E.01849
G1 X128.654 Y31.324 E.15057
G1 X129.23 Y31.324 E.01852
G1 X132.541 Y34.635 E.15057
G1 X133.117 Y34.635 E.01852
G1 X129.806 Y31.324 E.15057
G1 X130.381 Y31.324 E.01849
G1 X133.692 Y34.635 E.15057
G1 X134.268 Y34.635 E.01852
G1 X130.957 Y31.324 E.15057
G1 X131.533 Y31.324 E.01852
G1 X134.844 Y34.635 E.15057
G1 X135.419 Y34.635 E.01849
G1 X132.108 Y31.324 E.15057
G1 X132.684 Y31.324 E.01852
G1 X135.995 Y34.635 E.15057
G1 X136.571 Y34.635 E.01852
G1 X133.26 Y31.324 E.15057
G1 X133.835 Y31.324 E.01849
G1 X137.147 Y34.635 E.15059
