; generated by PrusaSlicer 2.9.1 on 2026-02-14 at 04:47:19 UTC

; 

; external perimeters extrusion width = 0.45mm
; perimeters extrusion width = 0.45mm
; infill extrusion width = 0.45mm
; solid infill extrusion width = 0.45mm
; top infill extrusion width = 0.40mm
; first layer extrusion width = 0.45mm

;TYPE:Custom
;Elegoo Centauri Carbon - Start G-code
M140 S80 ; set bed temp
M104 S150 ; preheat nozzle to 150 (prevent ooze)
G28 ; home all axes
G29 ; auto bed leveling (if configured in Klipper)
M190 S80 ; wait for bed temp
G1 Z5 F3000 ; move nozzle up
M109 S240 ; wait for nozzle temp
; Prime line
G92 E0
G1 X5 Y5 F3000
G1 Z0.3 F1500
G1 X5 Y150 E15 F1500 ; draw prime line
G1 X5.4 Y150 F5000
G1 X5.4 Y5 E30 F1500 ; draw second prime line
G92 E0
G1 Z2 F3000 ; lift nozzle
;End of start G-code
G21 ; set units to millimeters
G90 ; use absolute coordinates
M83 ; use relative distances for extrusion
; Filament gcode
M107
;LAYER_CHANGE
;Z:0.2
;HEIGHT:0.2
G1 E-.8 F2100
G1 Z.6 F9000
G1 X103.193 Y52.988
G1 Z.2
G1 E.8 F2100
;TYPE:Skirt/Brim
;WIDTH:0.45
G1 F1500
G1 X104.321 Y51.3 E.06528
G1 X106.009 Y50.172 E.06528
G1 X108 Y49.776 E.06528
G1 X148 Y49.776 E1.28625
G1 X149.991 Y50.172 E.06528
G1 X151.68 Y51.301 E.06533
G1 X152.808 Y52.989 E.06528
G1 X153.204 Y54.98 E.06528
G1 X153.204 Y60.98 E.19294
G1 X152.807 Y62.971 E.06528
G1 X151.679 Y64.659 E.06528
G1 X149.991 Y65.787 E.06528
G1 X148 Y66.183 E.06528
G1 X108 Y66.183 E1.28625
G1 X106.009 Y65.787 E.06528
G1 X104.32 Y64.659 E.06531
G1 X103.192 Y62.971 E.06528
G1 X102.796 Y60.98 E.06528
G1 X102.796 Y54.98 E.19294
G1 X103.181 Y53.047 E.06338
G1 E-.8 F2100
G1 Z.6 F9000
G1 X146.761 Y59.741
G1 Z.2
G1 E.8 F2100
;TYPE:Perimeter
;WIDTH:0.449999
G1 F1500
G1 X109.239 Y59.741 E1.20657
G1 X109.239 Y56.219 E.11325
G1 X146.761 Y56.219 E1.20657
G1 X146.761 Y57.98 E.05663
G1 X146.761 Y59.681 E.0547
G1 X147.168 Y60.148 F9000
G1 F1500
G1 X108.832 Y60.148 E1.23274
G1 X108.832 Y55.812 E.13943
G1 X147.168 Y55.812 E1.23274
G1 X147.168 Y57.98 E.06971
G1 X147.168 Y60.088 E.06779
G1 X147.575 Y60.555 F9000
;TYPE:External perimeter
G1 F1500
G1 X108.425 Y60.555 E1.25892
G1 X108.425 Y55.405 E.16561
G1 X147.575 Y55.405 E1.25892
G1 X147.575 Y57.98 E.0828
G1 X147.575 Y60.495 E.08087
G1 X147.179 Y60.554 F9000
G1 E-.8 F2100
G1 Z.6 F9000
G1 X146.639 Y57.171
G1 Z.2
G1 E.8 F2100
;TYPE:Solid infill
;WIDTH:0.453408
G1 F1500
G1 X145.992 Y56.524 E.02967
G1 X145.411 Y56.524 E.01884
G1 X146.456 Y57.568 E.0479
G1 X146.456 Y58.149 E.01884
G1 X144.831 Y56.524 E.07452
G1 X144.25 Y56.524 E.01884
G1 X146.456 Y58.73 E.10116
G1 X146.456 Y59.31 E.01881
G1 X143.67 Y56.524 E.12776
G1 X143.089 Y56.524 E.01884
G1 X146 Y59.435 E.13349
G1 X145.42 Y59.435 E.01881
G1 X142.509 Y56.524 E.13349
G1 X141.928 Y56.524 E.01884
G1 X144.839 Y59.435 E.13349
G1 X144.259 Y59.435 E.01881
G1 X141.348 Y56.524 E.13349
G1 X140.767 Y56.524 E.01884
G1 X143.678 Y59.435 E.13349
G1 X143.098 Y59.435 E.01881
G1 X140.187 Y56.524 E.13349
G1 X139.606 Y56.524 E.01884
G1 X142.517 Y59.435 E.13349
G1 X141.937 Y59.435 E.01881
G1 X139.026 Y56.524 E.13349
G1 X138.445 Y56.524 E.01884
G1 X141.356 Y59.435 E.13349
G1 X140.776 Y59.435 E.01881
G1 X137.865 Y56.524 E.13349
G1 X137.284 Y56.524 E.01884
G1 X140.195 Y59.435 E.13349
G1 X139.615 Y59.435 E.01881
G1 X136.703 Y56.524 E.13351
G1 X136.123 Y56.524 E.01881
G1 X139.034 Y59.435 E.13349
G1 X138.454 Y59.435 E.01881
G1 X135.542 Y56.524 E.13351
G1 X134.962 Y56.524 E.01881
G1 X137.873 Y59.435 E.13349
G1 X137.292 Y59.435 E.01884
G1 X134.381 Y56.524 E.13349
G1 X133.801 Y56.524 E.01881
G1 X136.712 Y59.435 E.13349
G1 X136.131 Y59.435 E.01884
G1 X133.22 Y56.524 E.13349
G1 X132.64 Y56.524 E.01881
G1 X135.551 Y59.435 E.13349
G1 X134.97 Y59.435 E.01884
G1 X132.059 Y56.524 E.13349
G1 X131.479 Y56.524 E.01881
G1 X134.39 Y59.435 E.13349
G1 X133.809 Y59.435 E.01884
G1 X130.898 Y56.524 E.13349
G1 X130.318 Y56.524 E.01881
G1 X133.229 Y59.435 E.13349
G1 X132.648 Y59.435 E.01884
G1 X129.737 Y56.524 E.13349
G1 X129.157 Y56.524 E.01881
G1 X132.068 Y59.435 E.13349
G1 X131.487 Y59.435 E.01884
G1 X128.576 Y56.524 E.13349
G1 X127.996 Y56.524 E.01881
G1 X130.907 Y59.435 E.13349
G1 X130.326 Y59.435 E.01884
G1 X127.415 Y56.524 E.13349
G1 X126.835 Y56.524 E.01881
G1 X129.746 Y59.435 E.13349
G1 X129.165 Y59.435 E.01884
G1 X126.254 Y56.524 E.13349
G1 X125.674 Y56.524 E.01881
G1 X128.585 Y59.435 E.13349
G1 X128.004 Y59.435 E.01884
G1 X125.093 Y56.524 E.13349
G1 X124.513 Y56.524 E.01881
G1 X127.424 Y59.435 E.13349
G1 X126.843 Y59.435 E.01884
G1 X123.932 Y56.524 E.13349
G1 X123.352 Y56.524 E.01881
G1 X126.263 Y59.435 E.13349
G1 X125.682 Y59.435 E.01884
G1 X122.771 Y56.524 E.13349
G1 X122.191 Y56.524 E.01881
G1 X125.102 Y59.435 E.13349
G1 X124.521 Y59.435 E.01884
G1 X121.61 Y56.524 E.13349
G1 X121.03 Y56.524 E.01881
G1 X123.941 Y59.435 E.13349
G1 X123.36 Y59.435 E.01884
G1 X120.449 Y56.524 E.13349
G1 X119.868 Y56.524 E.01884
G1 X122.78 Y59.435 E.13351
G1 X122.199 Y59.435 E.01884
G1 X119.288 Y56.524 E.13349
G1 X118.707 Y56.524 E.01884
G1 X121.618 Y59.435 E.13349
G1 X121.038 Y59.435 E.01881
G1 X118.127 Y56.524 E.13349
G1 X117.546 Y56.524 E.01884
G1 X120.457 Y59.435 E.13349
G1 X119.877 Y59.435 E.01881
G1 X116.966 Y56.524 E.13349
G1 X116.385 Y56.524 E.01884
G1 X119.296 Y59.435 E.13349
G1 X118.716 Y59.435 E.01881
G1 X115.805 Y56.524 E.13349
G1 X115.224 Y56.524 E.01884
G1 X118.135 Y59.435 E.13349
G1 X117.555 Y59.435 E.01881
G1 X114.644 Y56.524 E.13349
G1 X114.063 Y56.524 E.01884
G1 X116.974 Y59.435 E.13349
G1 X116.394 Y59.435 E.01881
G1 X113.483 Y56.524 E.13349
G1 X112.902 Y56.524 E.01884
G1 X115.813 Y59.435 E.13349
G1 X115.233 Y59.435 E.01881
G1 X112.322 Y56.524 E.13349
G1 X111.741 Y56.524 E.01884
G1 X114.652 Y59.435 E.13349
G1 X114.072 Y59.435 E.01881
G1 X111.161 Y56.524 E.13349
G1 X110.58 Y56.524 E.01884
G1 X113.491 Y59.435 E.13349
G1 X112.911 Y59.435 E.01881
G1 X110 Y56.524 E.13349
G1 X109.544 Y56.524 E.01479
G1 X109.544 Y56.65 E.00409
G1 X112.33 Y59.435 E.12773
G1 X111.75 Y59.435 E.01881
G1 X109.544 Y57.23 E.10114
G1 X109.544 Y57.811 E.01884
G1 X111.169 Y59.435 E.07449
G1 X110.589 Y59.435 E.01881
G1 X109.544 Y58.391 E.0479
G1 X109.544 Y58.972 E.01884
G1 X110.191 Y59.618 E.02965
;LAYER_CHANGE
;Z:0.4
;HEIGHT:0.2
;BEFORE_LAYER_CHANGE
;0.4

G1 E-.8 F2100
G1 Z.4 F9000
;AFTER_LAYER_CHANGE
;0.4

M104 S235 ; set temperature
M140 S75 ; set bed temperature
G1 Z.8
G1 X146.961 Y59.941
G1 Z.4
G1 E.8 F2100
;TYPE:Perimeter
;WIDTH:0.449999
G1 F2726
G1 X109.039 Y59.941 E1.21943
G1 X109.039 Y56.019 E.12612
G1 X146.961 Y56.019 E1.21943
G1 X146.961 Y57.98 E.06306
G1 X146.961 Y59.881 E.06113
G1 X147.368 Y60.348 F9000
G1 F2726
G1 X108.632 Y60.348 E1.24561
G1 X108.632 Y55.612 E.15229
G1 X147.368 Y55.612 E1.24561
G1 X147.368 Y57.98 E.07615
G1 X147.368 Y60.288 E.07422
G1 X147.775 Y60.755 F9000
;TYPE:External perimeter
G1 F1800
G1 X108.225 Y60.755 E1.27178
G1 X108.225 Y55.205 E.17847
G1 X147.775 Y55.205 E1.27178
G1 X147.775 Y57.98 E.08923
G1 X147.775 Y60.695 E.0873
G1 X147.379 Y60.754 F9000
G1 E-.8 F2100
G1 Z.8 F9000
G1 X109.455 Y56.357
G1 Z.4
G1 E.8 F2100
;TYPE:Solid infill
;WIDTH:0.548766
G1 F2726
G1 X109.41 Y56.313 E.00251
G1 X109.349 Y56.329 E.00252
G1 X109.333 Y56.39 E.00252
G1 X109.377 Y56.435 E.00251
G1 X109.439 Y56.418 E.00257
G1 X109.212 Y57.214 F9000
;WIDTH:0.38292
G1 F2726
G1 X109.141 Y57.195 E.00197
G1 X109.16 Y57.266 E.00197
G1 X109.201 Y57.255 E.00114
;WIDTH:0.41646
G1 X109.273 Y57.162 E.00347
;WIDTH:0.449999
G1 X109.344 Y57.069 E.00376
G1 X110.089 Y56.324 E.03388
G1 X110.182 Y56.252 E.00378
;WIDTH:0.41646
G1 X110.275 Y56.181 E.00345
;WIDTH:0.38292
G1 X110.234 Y56.192 E.00114
G1 X110.215 Y56.12 E.002
G1 X110.286 Y56.139 E.00197
;WIDTH:0.449999
G1 X110.664 Y56.324 E.01353
G1 X109.344 Y57.644 E.06003
G1 X109.344 Y58.22 E.01852
G1 X111.24 Y56.324 E.08622
G1 X111.816 Y56.324 E.01852
G1 X109.344 Y58.796 E.11242
G1 X109.289 Y59.75 F9000
;WIDTH:0.38292
G1 F2726
G1 X109.248 Y59.761 E.00114
G1 X109.229 Y59.69 E.00197
G1 X109.3 Y59.709 E.00197
;WIDTH:0.41646
G1 X109.322 Y59.54 E.00503
;WIDTH:0.449999
G1 X109.344 Y59.371 E.00548
G1 X112.392 Y56.324 E.13859
G1 X112.967 Y56.324 E.01849
G1 X109.656 Y59.635 E.15057
G1 X110.232 Y59.635 E.01852
G1 X113.543 Y56.324 E.15057
G1 X114.119 Y56.324 E.01852
G1 X110.808 Y59.635 E.15057
G1 X111.383 Y59.635 E.01849
G1 X114.694 Y56.324 E.15057
G1 X115.27 Y56.324 E.01852
G1 X111.959 Y59.635 E.15057
G1 X112.535 Y59.635 E.01852
G1 X115.846 Y56.324 E.15057
G1 X116.421 Y56.324 E.01849
G1 X113.11 Y59.635 E.15057
G1 X113.686 Y59.635 E.01852
G1 X116.997 Y56.324 E.15057
G1 X117.573 Y56.324 E.01852
G1 X114.262 Y59.635 E.15057
G1 X114.837 Y59.635 E.01849
G1 X118.149 Y56.324 E.15059
G1 X118.724 Y56.324 E.01849
G1 X115.413 Y59.635 E.15057
G1 X115.989 Y59.635 E.01852
G1 X119.3 Y56.324 E.15057
G1 X119.876 Y56.324 E.01852
G1 X116.565 Y59.635 E.15057
G1 X117.14 Y59.635 E.01849
G1 X120.451 Y56.324 E.15057
G1 X121.027 Y56.324 E.01852
G1 X117.716 Y59.635 E.15057
G1 X118.292 Y59.635 E.01852
G1 X121.603 Y56.324 E.15057
G1 X122.178 Y56.324 E.01849
G1 X118.867 Y59.635 E.15057
G1 X119.443 Y59.635 E.01852
G1 X122.754 Y56.324 E.15057
G1 X123.33 Y56.324 E.01852
G1 X120.019 Y59.635 E.15057
G1 X120.594 Y59.635 E.01849
G1 X123.906 Y56.324 E.15059
G1 X124.481 Y56.324 E.01849
G1 X121.17 Y59.635 E.15057
G1 X121.746 Y59.635 E.01852
G1 X125.057 Y56.324 E.15057
G1 X125.633 Y56.324 E.01852
G1 X122.322 Y59.635 E.15057
G1 X122.897 Y59.635 E.01849
G1 X126.208 Y56.324 E.15057
G1 X126.784 Y56.324 E.01852
G1 X123.473 Y59.635 E.15057
G1 X124.049 Y59.635 E.01852
G1 X127.36 Y56.324 E.15057
G1 X127.935 Y56.324 E.01849
G1 X124.624 Y59.635 E.15057
G1 X125.2 Y59.635 E.01852
G1 X128.511 Y56.324 E.15057
G1 X129.087 Y56.324 E.01852
G1 X125.776 Y59.635 E.15057
G1 X126.351 Y59.635 E.01849
G1 X129.662 Y56.324 E.15057
G1 X130.238 Y56.324 E.01852
G1 X126.927 Y59.635 E.15057
G1 X127.503 Y59.635 E.01852
G1 X130.814 Y56.324 E.15057
G1 X131.39 Y56.324 E.01852
G1 X128.078 Y59.635 E.15059
G1 X128.654 Y59.635 E.01852
G1 X131.965 Y56.324 E.15057
G1 X132.541 Y56.324 E.01852
G1 X129.23 Y59.635 E.15057
G1 X129.806 Y59.635 E.01852
G1 X133.117 Y56.324 E.15057
G1 X133.692 Y56.324 E.01849
G1 X130.381 Y59.635 E.15057
G1 X130.957 Y59.635 E.01852
G1 X134.268 Y56.324 E.15057
G1 X134.844 Y56.324 E.01852
G1 X131.533 Y59.635 E.15057
G1 X132.108 Y59.635 E.01849
G1 X135.419 Y56.324 E.15057
G1 X135.995 Y56.324 E.01852
G1 X132.684 Y59.635 E.15057
G1 X133.26 Y59.635 E.01852
G1 X136.571 Y56.324 E.15057
G1 X137.147 Y56.324 E.01852
G1 X133.835 Y59.635 E.15059
G1 X134.411 Y59.635 E.01852
G1 X137.722 Y56.324 E.15057
G1 X138.298 Y56.324 E.01852
G1 X134.987 Y59.635 E.15057
G1 X135.563 Y59.635 E.01852
G1 X138.874 Y56.324 E.15057
G1 X139.449 Y56.324 E.01849
G1 X136.138 Y59.635 E.15057
G1 X136.714 Y59.635 E.01852
G1 X140.025 Y56.324 E.15057
G1 X140.601 Y56.324 E.01852
G1 X137.29 Y59.635 E.15057
G1 X137.865 Y59.635 E.01849
G1 X141.176 Y56.324 E.15057
G1 X141.752 Y56.324 E.01852
G1 X138.441 Y59.635 E.15057
G1 X139.017 Y59.635 E.01852
G1 X142.328 Y56.324 E.15057
G1 X142.903 Y56.324 E.01849
G1 X139.592 Y59.635 E.15057
G1 X140.168 Y59.635 E.01852
G1 X143.479 Y56.324 E.15057
G1 X144.055 Y56.324 E.01852
G1 X140.744 Y59.635 E.15057
G1 X141.32 Y59.635 E.01852
G1 X144.631 Y56.324 E.15057
G1 X145.206 Y56.324 E.01849
G1 X141.895 Y59.635 E.15057
G1 X142.471 Y59.635 E.01852
G1 X145.782 Y56.324 E.15057
G1 X146.358 Y56.324 E.01852
G1 X143.047 Y59.635 E.15057
G1 X143.622 Y59.635 E.01849
G1 X146.656 Y56.602 E.13795
G1 X146.713 Y56.436 E.00564
;WIDTH:0.41646
G1 X146.77 Y56.27 E.00518
;WIDTH:0.38292
G1 X146.729 Y56.281 E.00114
G1 X146.71 Y56.21 E.00197
G1 X146.781 Y56.229 E.00197
G1 X146.656 Y57.178 F9000
;WIDTH:0.449999
G1 F2726
G1 X144.198 Y59.635 E.11176
G1 X144.774 Y59.635 E.01852
G1 X146.656 Y57.753 E.08559
G1 X146.757 Y57.69 E.00383
;WIDTH:0.41646
G1 X146.859 Y57.627 E.00354
;WIDTH:0.38292
G1 X146.818 Y57.638 E.00114
G1 X146.799 Y57.567 E.00197
G1 X146.87 Y57.586 E.00197
;WIDTH:0.449999
G1 X146.656 Y58.329 E.02486
G1 X146.656 Y59.635 E.042
G1 X145.349 Y59.635 E.04203
G1 X146.512 Y58.473 E.05287
;LAYER_CHANGE
;Z:0.6
;HEIGHT:0.2
;BEFORE_LAYER_CHANGE
;0.6

G1 Z.6 F9000
;AFTER_LAYER_CHANGE
;0.6

G1 Z.6
G1 X146.961 Y59.941
;TYPE:Perimeter
G1 F2658
G1 X109.039 Y59.941 E1.21943
G1 X109.039 Y56.019 E.12612
G1 X146.961 Y56.019 E1.21943
G1 X146.961 Y57.98 E.06306
G1 X146.961 Y59.881 E.06113
G1 X147.368 Y60.348 F9000
G1 F2658
G1 X108.632 Y60.348 E1.24561
G1 X108.632 Y55.612 E.15229
G1 X147.368 Y55.612 E1.24561
G1 X147.368 Y57.98 E.07615
G1 X147.368 Y60.288 E.07422
G1 X147.775 Y60.755 F9000
;TYPE:External perimeter
G1 F1800
G1 X108.225 Y60.755 E1.27178
G1 X108.225 Y55.205 E.17847
G1 X147.775 Y55.205 E1.27178
G1 X147.775 Y57.98 E.08923
G1 X147.775 Y60.695 E.0873
G1 X147.379 Y60.754 F9000
G1 E-.8 F2100
G1 Z1 F9000
G1 X109.377 Y59.525
G1 Z.6
G1 E.8 F2100
;TYPE:Solid infill
;WIDTH:0.548766
G1 F2658
G1 X109.333 Y59.57 E.00251
G1 X109.349 Y59.631 E.00252
G1 X109.41 Y59.647 E.00252
G1 X109.455 Y59.602 E.00254
G1 X109.439 Y59.541 E.00252
;WIDTH:0.449999
G1 X110.089 Y59.635 E.02112
G1 X109.344 Y58.891 E.03386
G1 X109.273 Y58.798 E.00376
;WIDTH:0.41646
G1 X109.201 Y58.705 E.00347
;WIDTH:0.38292
G1 X109.212 Y58.746 E.00114
G1 X109.141 Y58.765 E.00197
G1 X109.16 Y58.694 E.00197
;WIDTH:0.449999
G1 X109.344 Y58.315 E.01355
G1 X110.664 Y59.635 E.06003
G1 X111.24 Y59.635 E.01852
G1 X109.344 Y57.74 E.0862
G1 X109.344 Y57.164 E.01852
G1 X111.816 Y59.635 E.11239
G1 X112.392 Y59.635 E.01852
G1 X109.344 Y56.588 E.13859
G1 X109.317 Y56.399 E.00614
;WIDTH:0.41646
G1 X109.289 Y56.209 E.00567
;WIDTH:0.38292
G1 X109.3 Y56.25 E.00114
G1 X109.229 Y56.269 E.00197
G1 X109.248 Y56.198 E.00197
;WIDTH:0.449999
G1 X109.656 Y56.324 E.01373
G1 X112.967 Y59.635 E.15057
G1 X113.543 Y59.635 E.01852
G1 X110.232 Y56.324 E.15057
G1 X110.808 Y56.324 E.01852
G1 X114.119 Y59.635 E.15057
G1 X114.694 Y59.635 E.01849
G1 X111.383 Y56.324 E.15057
G1 X111.959 Y56.324 E.01852
G1 X115.27 Y59.635 E.15057
G1 X115.846 Y59.635 E.01852
G1 X112.535 Y56.324 E.15057
G1 X113.11 Y56.324 E.01849
G1 X116.421 Y59.635 E.15057
G1 X116.997 Y59.635 E.01852
G1 X113.686 Y56.324 E.15057
G1 X114.262 Y56.324 E.01852
G1 X117.573 Y59.635 E.15057
G1 X118.149 Y59.635 E.01852
G1 X114.837 Y56.324 E.15059
G1 X115.413 Y56.324 E.01852
G1 X118.724 Y59.635 E.15057
G1 X119.3 Y59.635 E.01852
G1 X115.989 Y56.324 E.15057
G1 X116.565 Y56.324 E.01852
G1 X119.876 Y59.635 E.15057
G1 X120.451 Y59.635 E.01849
G1 X117.14 Y56.324 E.15057
G1 X117.716 Y56.324 E.01852
G1 X121.027 Y59.635 E.15057
G1 X121.603 Y59.635 E.01852
G1 X118.292 Y56.324 E.15057
G1 X118.867 Y56.324 E.01849
G1 X122.178 Y59.635 E.15057
G1 X122.754 Y59.635 E.01852
G1 X119.443 Y56.324 E.15057
G1 X120.019 Y56.324 E.01852
G1 X123.33 Y59.635 E.15057
G1 X123.906 Y59.635 E.01852
G1 X120.594 Y56.324 E.15059
G1 X121.17 Y56.324 E.01852
G1 X124.481 Y59.635 E.15057
G1 X125.057 Y59.635 E.01852
G1 X121.746 Y56.324 E.15057
G1 X122.322 Y56.324 E.01852
G1 X125.633 Y59.635 E.15057
G1 X126.208 Y59.635 E.01849
G1 X122.897 Y56.324 E.15057
G1 X123.473 Y56.324 E.01852
G1 X126.784 Y59.635 E.15057
G1 X127.36 Y59.635 E.01852
G1 X124.049 Y56.324 E.15057
G1 X124.624 Y56.324 E.01849
G1 X127.935 Y59.635 E.15057
G1 X128.511 Y59.635 E.01852
G1 X125.2 Y56.324 E.15057
G1 X125.776 Y56.324 E.01852
G1 X129.087 Y59.635 E.15057
G1 X129.662 Y59.635 E.01849
G1 X126.351 Y56.324 E.15057
G1 X126.927 Y56.324 E.01852
G1 X130.238 Y59.635 E.15057
G1 X130.814 Y59.635 E.01852
G1 X127.503 Y56.324 E.15057
G1 X128.078 Y56.324 E.01849
G1 X131.39 Y59.635 E.15059
G1 X131.965 Y59.635 E.01849
G1 X128.654 Y56.324 E.15057
G1 X129.23 Y56.324 E.01852
G1 X132.541 Y59.635 E.15057
G1 X133.117 Y59.635 E.01852
G1 X129.806 Y56.324 E.15057
G1 X130.381 Y56.324 E.01849
G1 X133.692 Y59.635 E.15057
G1 X134.268 Y59.635 E.01852
G1 X130.957 Y56.324 E.15057
G1 X131.533 Y56.324 E.01852
G1 X134.844 Y59.635 E.15057
G1 X135.419 Y59.635 E.01849
G1 X132.108 Y56.324 E.15057
G1 X132.684 Y56.324 E.01852
G1 X135.995 Y59.635 E.15057
G1 X136.571 Y59.635 E.01852
G1 X133.26 Y56.324 E.15057
G1 X133.835 Y56.324 E.01849
G1 X137.147 Y59.635 E.15059
