; generated by PrusaSlicer 2.9.1 on 2026-02-14 at 05:57:29 UTC

; 

; external perimeters extrusion width = 0.45mm
; perimeters extrusion width = 0.45mm
; infill extrusion width = 0.45mm
; solid infill extrusion width = 0.45mm
; top infill extrusion width = 0.40mm
; first layer extrusion width = 0.45mm

;TYPE:Custom
;Elegoo Centauri Carbon - Start G-code
M140 S80 ; set bed temp
M104 S150 ; preheat nozzle to 150 (prevent ooze)
G28 ; home all axes
G29 ; auto bed leveling (if configured in Klipper)
M190 S80 ; wait for bed temp
G1 Z5 F3000 ; move nozzle up
M109 S240 ; wait for nozzle temp
; Prime line
G92 E0
G1 X5 Y5 F3000
G1 Z0.3 F1500
G1 X5 Y150 E15 F1500 ; draw prime line
G1 X5.4 Y150 F5000
G1 X5.4 Y5 E30 F1500 ; draw second prime line
G92 E0
G1 Z2 F3000 ; lift nozzle
;End of start G-code
G21 ; set units to millimeters
G90 ; use absolute coordinates
M83 ; use relative distances for extrusion
; Filament gcode
M107
;LAYER_CHANGE
;Z:0.2
;HEIGHT:0.2
G1 E-.8 F2100
G1 Z.6 F9000
G1 X103.724 Y103.924
G1 Z.2
G1 E.8 F2100
;TYPE:Skirt/Brim
;WIDTH:0.45
G1 F1500
G1 X109.345 Y98.314 E.25537
G1 X111.679 Y96.97 E.08661
G1 X126.687 Y92.964 E.4995
G1 X129.381 Y92.966 E.08663
G1 X144.381 Y97.001 E.49949
G1 X146.713 Y98.35 E.08663
G1 X157.686 Y109.345 E.49951
G1 X159.03 Y111.679 E.08661
G1 X163.036 Y126.687 E.4995
G1 X163.034 Y129.381 E.08663
G1 X158.999 Y144.381 E.49949
G1 X157.65 Y146.713 E.08663
G1 X146.655 Y157.686 E.49951
G1 X144.321 Y159.03 E.08661
G1 X129.313 Y163.036 E.4995
G1 X126.619 Y163.034 E.08663
G1 X111.619 Y158.999 E.49949
G1 X109.287 Y157.65 E.08663
G1 X98.314 Y146.655 E.49951
G1 X96.97 Y144.321 E.08661
G1 X92.964 Y129.313 E.4995
G1 X92.966 Y126.619 E.08663
G1 X97.001 Y111.619 E.49949
G1 X98.35 Y109.287 E.08663
G1 X103.681 Y103.967 E.24218
G1 E-.8 F2100
G1 Z.6 F9000
G1 X113.627 Y103.143
G1 Z.2
G1 E.8 F2100
;TYPE:Perimeter
;WIDTH:0.449999
G1 F1500
G1 X113.655 Y103.114 E.0013
G1 X128 Y99.282 E.47746
G1 X142.38 Y103.135 E.47872
G1 X152.886 Y113.655 E.47809
G1 X154.803 Y120.833 E.23891
G1 X156.724 Y128.02 E.23922
G1 X152.866 Y142.379 E.47811
G1 X142.345 Y152.886 E.47813
G1 X127.98 Y156.724 E.47813
G1 X113.621 Y152.866 E.47811
G1 X103.114 Y142.345 E.47813
G1 X99.276 Y127.98 E.47813
G1 X103.135 Y113.621 E.47812
G1 X113.585 Y103.185 E.47491
G1 X113.428 Y102.766 F9000
G1 F1500
G1 X113.445 Y102.749 E.00077
G1 X128 Y98.86 E.48445
G1 X142.59 Y102.77 E.48572
G1 X153.251 Y113.445 E.48514
G1 X155.197 Y120.727 E.24238
G1 X157.145 Y128.02 E.24274
G1 X153.23 Y142.59 E.48514
G1 X142.555 Y153.251 E.48514
G1 X127.98 Y157.145 E.48512
G1 X113.41 Y153.23 E.48514
G1 X102.749 Y142.555 E.48514
G1 X98.855 Y127.98 E.48512
G1 X102.77 Y113.41 E.48514
G1 X113.385 Y102.809 E.48241
G1 X113.228 Y102.39 F9000
;TYPE:External perimeter
G1 F1500
G1 X113.235 Y102.384 E.0003
G1 X127.945 Y98.453 E.48962
G1 X128.091 Y98.463 E.00471
G1 X142.801 Y102.405 E.48971
G1 X153.616 Y113.235 E.49216
G1 X155.59 Y120.622 E.24587
G1 X157.567 Y128.021 E.24627
G1 X153.595 Y142.801 E.49213
G1 X142.765 Y153.616 E.49216
G1 X127.979 Y157.567 E.49215
G1 X113.199 Y153.595 E.49213
G1 X102.384 Y142.765 E.49216
G1 X98.433 Y127.979 E.49215
G1 X102.405 Y113.199 E.49213
G1 X113.186 Y102.433 E.48993
G1 X113.563 Y102.3 F9000
G1 E-.8 F2100
G1 Z.6 F9000
G1 X152.866 Y114.055
G1 Z.2
G1 E.8 F2100
;TYPE:Solid infill
;WIDTH:0.452526
G1 F1500
G1 X142.219 Y103.408 E.48719
G1 X141.428 Y103.196 E.0265
G1 X152.818 Y114.586 E.52119
G1 X153.03 Y115.377 E.0265
G1 X140.636 Y102.984 E.5671
G1 X139.845 Y102.772 E.0265
G1 X153.241 Y116.167 E.61295
G1 X153.452 Y116.958 E.02649
G1 X139.054 Y102.56 E.65883
G1 X138.262 Y102.348 E.02653
G1 X153.663 Y117.748 E.7047
G1 X153.874 Y118.539 E.02649
G1 X137.471 Y102.136 E.75057
G1 X136.68 Y101.924 E.0265
G1 X154.086 Y119.329 E.79644
G1 X154.297 Y120.12 E.02649
G1 X135.889 Y101.712 E.84232
G1 X135.097 Y101.5 E.02653
G1 X154.508 Y120.91 E.88819
G1 X154.719 Y121.701 E.02649
G1 X134.306 Y101.288 E.93406
G1 X133.515 Y101.076 E.0265
G1 X154.93 Y122.491 E.97991
G1 X155.142 Y123.282 E.0265
G1 X132.723 Y100.863 E1.02585
G1 X131.932 Y100.651 E.0265
G1 X155.353 Y124.072 E1.0717
G1 X155.564 Y124.863 E.02649
G1 X131.141 Y100.439 E1.11758
G1 X130.349 Y100.227 E.02653
G1 X155.775 Y125.653 E1.16345
G1 X155.987 Y126.444 E.0265
G1 X129.558 Y100.015 E1.20934
G1 X128.767 Y99.803 E.0265
G1 X156.198 Y127.234 E1.25519
G1 X156.407 Y128.023 E.02641
G1 X127.986 Y99.601 E1.30052
G1 X127.529 Y99.724 E.01531
G1 X156.284 Y128.479 E1.31578
G1 X156.162 Y128.936 E.0153
G1 X127.071 Y99.846 E1.33113
G1 X126.614 Y99.968 E.0153
G1 X156.039 Y129.392 E1.34641
G1 X155.916 Y129.849 E.01531
G1 X126.157 Y100.09 E1.36172
G1 X125.7 Y100.212 E.0153
G1 X155.794 Y130.306 E1.37705
G1 X155.671 Y130.762 E.01528
G1 X125.243 Y100.334 E1.39233
G1 X124.786 Y100.456 E.0153
G1 X155.548 Y131.219 E1.40764
G1 X155.425 Y131.675 E.01528
G1 X124.329 Y100.579 E1.4229
G1 X123.872 Y100.701 E.0153
G1 X155.303 Y132.132 E1.43823
G1 X155.18 Y132.589 E.01531
G1 X123.414 Y100.823 E1.45355
G1 X122.957 Y100.945 E.0153
G1 X155.057 Y133.045 E1.46884
G1 X154.935 Y133.502 E.0153
G1 X122.5 Y101.067 E1.48417
G1 X122.043 Y101.189 E.0153
G1 X154.812 Y133.958 E1.49945
G1 X154.689 Y134.415 E.01531
G1 X121.586 Y101.311 E1.51476
G1 X121.129 Y101.434 E.01531
G1 X154.567 Y134.872 E1.53006
G1 X154.444 Y135.328 E.01528
G1 X120.672 Y101.556 E1.54535
G1 X120.215 Y101.678 E.0153
G1 X154.321 Y135.785 E1.56065
G1 X154.199 Y136.241 E.01527
G1 X119.757 Y101.8 E1.57598
G1 X119.3 Y101.922 E.0153
G1 X154.076 Y136.698 E1.59129
G1 X153.953 Y137.154 E.01528
G1 X118.843 Y102.044 E1.60657
G1 X118.386 Y102.166 E.0153
G1 X153.831 Y137.611 E1.6219
G1 X153.708 Y138.068 E.01531
G1 X117.929 Y102.289 E1.63718
G1 X117.472 Y102.411 E.0153
G1 X153.585 Y138.524 E1.65247
G1 X153.463 Y138.981 E.0153
G1 X117.015 Y102.533 E1.66779
G1 X116.558 Y102.655 E.0153
G1 X153.34 Y139.437 E1.68308
G1 X153.217 Y139.894 E.01531
G1 X116.1 Y102.777 E1.69841
G1 X115.643 Y102.899 E.0153
G1 X153.094 Y140.351 E1.71371
G1 X152.972 Y140.807 E.01527
G1 X115.186 Y103.021 E1.72902
G1 X114.729 Y103.144 E.01531
G1 X152.849 Y141.264 E1.7443
G1 X152.726 Y141.72 E.01528
G1 X114.272 Y103.266 E1.75959
G1 X113.815 Y103.388 E.0153
G1 X152.604 Y142.177 E1.77491
G1 X152.592 Y142.221 E.00148
G1 X152.33 Y142.482 E.01197
G1 X113.524 Y103.677 E1.77567
G1 X113.235 Y103.966 E.01322
G1 X152.04 Y142.772 E1.77567
G1 X151.75 Y143.061 E.01325
G1 X112.945 Y104.256 E1.77565
G1 X112.655 Y104.545 E.01325
G1 X151.461 Y143.351 E1.77569
G1 X151.171 Y143.64 E.01325
G1 X112.365 Y104.835 E1.77567
G1 X112.075 Y105.124 E.01325
G1 X150.881 Y143.93 E1.77569
G1 X150.591 Y144.219 E.01325
G1 X111.785 Y105.413 E1.77569
G1 X111.496 Y105.703 E.01325
G1 X150.301 Y144.509 E1.77567
G1 X150.011 Y144.798 E.01325
G1 X111.206 Y105.992 E1.77567
G1 X110.916 Y106.282 E.01327
G1 X149.722 Y145.087 E1.77567
G1 X149.432 Y145.377 E.01327
G1 X110.626 Y106.571 E1.77569
G1 X110.336 Y106.861 E.01327
G1 X149.142 Y145.666 E1.77567
G1 X148.852 Y145.956 E.01327
G1 X110.046 Y107.15 E1.77569
G1 X109.757 Y107.439 E.01322
G1 X148.562 Y146.245 E1.77567
G1 X148.272 Y146.535 E.01327
G1 X109.467 Y107.729 E1.77567
G1 X109.177 Y108.018 E.01325
G1 X147.983 Y146.824 E1.77569
G1 X147.693 Y147.113 E.01325
G1 X108.887 Y108.308 E1.77567
G1 X108.597 Y108.597 E.01325
G1 X147.403 Y147.403 E1.77569
G1 X147.113 Y147.692 E.01325
G1 X108.307 Y108.887 E1.77567
G1 X108.017 Y109.176 E.01325
G1 X146.823 Y147.982 E1.77569
G1 X146.533 Y148.271 E.01325
G1 X107.728 Y109.465 E1.77567
G1 X107.438 Y109.755 E.01327
G1 X146.243 Y148.561 E1.77567
G1 X145.954 Y148.85 E.01322
G1 X107.148 Y110.044 E1.77569
G1 X106.858 Y110.334 E.01327
G1 X145.664 Y149.139 E1.77567
G1 X145.374 Y149.429 E.01327
G1 X106.568 Y110.623 E1.77569
G1 X106.278 Y110.913 E.01327
G1 X145.084 Y149.718 E1.77567
G1 X144.794 Y150.008 E.01327
G1 X105.989 Y111.202 E1.77567
G1 X105.699 Y111.492 E.01327
G1 X144.504 Y150.297 E1.77565
G1 X144.215 Y150.587 E.01325
G1 X105.409 Y111.781 E1.77569
G1 X105.119 Y112.07 E.01325
G1 X143.925 Y150.876 E1.77569
G1 X143.635 Y151.165 E.01325
G1 X104.829 Y112.36 E1.77567
G1 X104.539 Y112.649 E.01325
G1 X143.345 Y151.455 E1.77569
G1 X143.055 Y151.744 E.01325
G1 X104.25 Y112.939 E1.77565
G1 X103.96 Y113.228 E.01325
G1 X142.765 Y152.034 E1.77567
G1 X142.476 Y152.323 E.01322
G1 X103.67 Y113.518 E1.77567
G1 X103.408 Y113.779 E.01197
G1 X103.396 Y113.823 E.00148
G1 X142.185 Y152.612 E1.77491
G1 X141.728 Y152.734 E.0153
G1 X103.274 Y114.28 E1.75959
G1 X103.151 Y114.736 E.01528
G1 X141.271 Y152.856 E1.7443
G1 X140.814 Y152.979 E.01531
G1 X103.028 Y115.193 E1.72902
G1 X102.906 Y115.649 E.01527
G1 X140.357 Y153.101 E1.71371
G1 X139.9 Y153.223 E.0153
G1 X102.783 Y116.106 E1.69841
G1 X102.66 Y116.563 E.01531
G1 X139.442 Y153.345 E1.68308
G1 X138.985 Y153.467 E.0153
G1 X102.537 Y117.019 E1.66779
G1 X102.415 Y117.476 E.0153
G1 X138.528 Y153.589 E1.65247
G1 X138.071 Y153.711 E.0153
G1 X102.292 Y117.932 E1.63718
G1 X102.169 Y118.389 E.01531
G1 X137.614 Y153.834 E1.6219
G1 X137.157 Y153.956 E.0153
G1 X102.047 Y118.846 E1.60657
G1 X101.924 Y119.302 E.01528
G1 X136.7 Y154.078 E1.59129
G1 X136.243 Y154.2 E.0153
G1 X101.801 Y119.759 E1.57598
G1 X101.679 Y120.215 E.01527
G1 X135.785 Y154.322 E1.56065
G1 X135.328 Y154.444 E.0153
G1 X101.556 Y120.672 E1.54535
G1 X101.433 Y121.129 E.01531
G1 X134.871 Y154.566 E1.53004
G1 X134.414 Y154.689 E.01531
G1 X101.311 Y121.585 E1.51476
G1 X101.188 Y122.042 E.01531
G1 X133.957 Y154.811 E1.49945
G1 X133.5 Y154.933 E.0153
G1 X101.065 Y122.498 E1.48417
G1 X100.943 Y122.955 E.0153
G1 X133.043 Y155.055 E1.46884
G1 X132.586 Y155.177 E.0153
G1 X100.82 Y123.411 E1.45355
G1 X100.697 Y123.868 E.01531
G1 X132.128 Y155.299 E1.43823
G1 X131.671 Y155.421 E.0153
G1 X100.575 Y124.325 E1.4229
G1 X100.452 Y124.781 E.01528
G1 X131.214 Y155.544 E1.40764
G1 X130.757 Y155.666 E.0153
G1 X100.329 Y125.238 E1.39233
G1 X100.206 Y125.694 E.01528
G1 X130.3 Y155.788 E1.37705
G1 X129.843 Y155.91 E.0153
G1 X100.084 Y126.151 E1.36172
G1 X99.961 Y126.608 E.01531
G1 X129.386 Y156.032 E1.34641
G1 X128.929 Y156.154 E.0153
G1 X99.838 Y127.064 E1.33113
G1 X99.716 Y127.521 E.0153
G1 X128.471 Y156.276 E1.31578
G1 X128.014 Y156.399 E.01531
G1 X99.593 Y127.977 E1.30052
G1 X99.802 Y128.766 E.02641
G1 X127.247 Y156.211 E1.25583
G1 X126.455 Y155.998 E.02654
G1 X100.013 Y129.556 E1.20994
G1 X100.225 Y130.347 E.0265
G1 X125.663 Y155.785 E1.164
G1 X124.871 Y155.572 E.02654
G1 X100.436 Y131.137 E1.1181
G1 X100.647 Y131.928 E.02649
G1 X124.079 Y155.359 E1.07218
G1 X123.287 Y155.147 E.02653
G1 X100.858 Y132.718 E1.02631
G1 X101.07 Y133.509 E.0265
G1 X122.495 Y154.934 E.98037
G1 X121.702 Y154.721 E.02657
G1 X101.281 Y134.299 E.93445
G1 X101.492 Y135.09 E.02649
G1 X120.91 Y154.508 E.88853
G1 X120.118 Y154.295 E.02654
G1 X101.703 Y135.88 E.84264
G1 X101.914 Y136.671 E.02649
G1 X119.326 Y154.082 E.79672
G1 X118.534 Y153.87 E.02653
G1 X102.126 Y137.461 E.75082
G1 X102.337 Y138.252 E.02649
G1 X117.742 Y153.657 E.70491
G1 X116.95 Y153.444 E.02654
G1 X102.548 Y139.042 E.65901
G1 X102.759 Y139.833 E.02649
G1 X116.158 Y153.231 E.61309
G1 X115.366 Y153.018 E.02654
G1 X102.97 Y140.623 E.5672
G1 X103.182 Y141.414 E.0265
G1 X114.574 Y152.805 E.52125
G1 X113.781 Y152.593 E.02656
G1 X103.134 Y141.945 E.48721
;LAYER_CHANGE
;Z:0.4
;HEIGHT:0.2
;BEFORE_LAYER_CHANGE
;0.4

G1 E-.8 F2100
G1 Z.4 F9000
;AFTER_LAYER_CHANGE
;0.4

M104 S235 ; set temperature
M140 S75 ; set bed temperature
G1 Z.8
G1 X113.569 Y102.916
G1 Z.4
G1 E.8 F2100
;TYPE:Perimeter
;WIDTH:0.449999
G1 F3600
G1 X113.895 Y102.852 E.01068
G1 X128.044 Y99.061 E.47103
G1 X128.359 Y99.169 E.01071
G1 X142.508 Y102.96 E.47103
G1 X142.726 Y103.211 E.01069
G1 X153.084 Y113.569 E.47104
G1 X153.148 Y113.895 E.01068
G1 X156.939 Y128.044 E.47103
G1 X156.855 Y128.283 E.00815
G1 X153.04 Y142.508 E.47359
G1 X152.789 Y142.726 E.01069
G1 X142.431 Y153.084 E.47104
G1 X142.105 Y153.148 E.01068
G1 X127.956 Y156.939 E.47103
G1 X127.641 Y156.831 E.01071
G1 X113.492 Y153.04 E.47103
G1 X113.274 Y152.789 E.01069
G1 X102.916 Y142.431 E.47104
G1 X102.852 Y142.105 E.01068
G1 X99.061 Y127.956 E.47103
G1 X99.169 Y127.641 E.01071
G1 X102.96 Y113.492 E.47103
G1 X103.211 Y113.274 E.01069
G1 X113.526 Y102.958 E.46911
G1 X113.37 Y102.538 F9000
G1 F3600
G1 X113.79 Y102.459 E.01374
G1 X128.061 Y98.635 E.47509
G1 X128.464 Y98.776 E.01373
G1 X142.736 Y102.6 E.47512
G1 X143.014 Y102.923 E.0137
G1 X153.462 Y113.37 E.47511
G1 X153.541 Y113.79 E.01374
G1 X157.365 Y128.061 E.47509
G1 X157.239 Y128.419 E.0122
G1 X153.4 Y142.736 E.47665
G1 X153.077 Y143.014 E.0137
G1 X142.63 Y153.462 E.47511
G1 X142.21 Y153.541 E.01374
G1 X127.939 Y157.365 E.47509
G1 X127.536 Y157.224 E.01373
G1 X113.264 Y153.4 E.47512
G1 X112.986 Y153.077 E.0137
G1 X102.538 Y142.63 E.47511
G1 X102.459 Y142.21 E.01374
G1 X98.635 Y127.939 E.47509
G1 X98.776 Y127.536 E.01373
G1 X102.6 Y113.264 E.47512
G1 X102.923 Y112.986 E.0137
G1 X113.328 Y102.581 E.47318
G1 X113.172 Y102.161 F9000
;TYPE:External perimeter
G1 F1800
G1 X113.685 Y102.066 E.01678
G1 X128.078 Y98.209 E.47916
G1 X128.57 Y98.382 E.01677
G1 X142.963 Y102.239 E.47916
G1 X143.302 Y102.635 E.01676
G1 X153.839 Y113.172 E.47918
G1 X153.934 Y113.685 E.01678
G1 X157.791 Y128.078 E.47916
G1 X157.622 Y128.554 E.01624
G1 X153.761 Y142.963 E.47969
G1 X153.365 Y143.302 E.01676
G1 X142.828 Y153.839 E.47918
G1 X142.315 Y153.934 E.01678
G1 X127.922 Y157.791 E.47916
G1 X127.43 Y157.618 E.01677
G1 X113.037 Y153.761 E.47916
G1 X112.698 Y153.365 E.01676
G1 X102.161 Y142.828 E.47918
G1 X102.066 Y142.315 E.01678
G1 X98.209 Y127.922 E.47916
G1 X98.382 Y127.43 E.01677
G1 X102.239 Y113.037 E.47916
G1 X102.635 Y112.698 E.01676
G1 X113.129 Y102.204 E.47722
G1 X113.516 Y102.101 F9000
G1 E-.8 F2100
G1 Z.8 F9000
G1 X103.141 Y113.603
G1 Z.4
G1 E.8 F2100
;TYPE:Solid infill
;WIDTH:0.38292
G1 F3600
G1 X113.661 Y103.097 E.39931
;WIDTH:0.41646
G1 X113.854 Y103.112 E.00571
;WIDTH:0.449999
G1 X114.048 Y103.127 E.00626
G1 X103.127 Y114.048 E.49664
G1 X102.916 Y114.834 E.02617
G1 X114.834 Y102.916 E.54198
G1 X114.977 Y102.833 E.00532
;WIDTH:0.41646
G1 X115.119 Y102.749 E.00487
;WIDTH:0.38292
G1 X114.965 Y102.723 E.00419
G1 X114.207 Y102.926 E.02108
G1 X115.947 Y102.528 F9000
G1 F3600
G1 X115.876 Y102.509 E.00197
G1 X115.895 Y102.58 E.00197
G1 X115.936 Y102.569 E.00114
;WIDTH:0.41646
G1 X115.778 Y102.637 E.00508
;WIDTH:0.449999
G1 X115.621 Y102.706 E.00551
G1 X102.706 Y115.621 E.58732
G1 X102.495 Y116.407 E.02617
G1 X116.407 Y102.495 E.63266
G1 X116.565 Y102.426 E.00554
;WIDTH:0.41646
G1 X116.722 Y102.358 E.00505
;WIDTH:0.38292
G1 X116.681 Y102.369 E.00114
G1 X116.662 Y102.298 E.00197
G1 X116.733 Y102.317 E.00197
;WIDTH:0.449999
G1 X117.194 Y102.284 E.01486
G1 X102.284 Y117.194 E.67805
G1 X102.073 Y117.98 E.02617
G1 X117.98 Y102.073 E.72339
G1 X118.767 Y101.863 F9000
G1 F3600
G1 X101.863 Y118.767 E.76872
G1 X101.652 Y119.553 E.02617
G1 X119.553 Y101.652 E.81406
G1 X119.71 Y101.584 E.0055
;WIDTH:0.41646
G1 X119.868 Y101.515 E.00509
;WIDTH:0.38292
G1 X119.827 Y101.526 E.00114
G1 X119.808 Y101.455 E.00197
G1 X119.879 Y101.474 E.00197
G1 X120.665 Y101.263 F9000
G1 F3600
G1 X120.594 Y101.244 E.00197
G1 X120.613 Y101.315 E.00197
G1 X120.654 Y101.304 E.00114
;WIDTH:0.41646
G1 X120.497 Y101.373 E.00506
;WIDTH:0.449999
G1 X120.339 Y101.441 E.00553
G1 X101.441 Y120.339 E.8594
G1 X101.231 Y121.126 E.02619
G1 X121.126 Y101.231 E.90474
G1 X121.283 Y101.162 E.00551
;WIDTH:0.41646
G1 X121.441 Y101.094 E.00508
;WIDTH:0.38292
G1 X121.4 Y101.105 E.00114
G1 X121.381 Y101.034 E.00197
G1 X121.452 Y101.053 E.00197
;WIDTH:0.449999
G1 X121.912 Y101.02 E.01483
G1 X101.02 Y121.912 E.95008
G1 X100.809 Y122.699 E.0262
G1 X122.699 Y100.809 E.99547
G1 X122.858 Y100.608 E.00824
;WIDTH:0.38292
G1 X123.616 Y100.405 E.02108
G1 X123.77 Y100.431 E.00419
;WIDTH:0.41646
G1 X123.628 Y100.515 E.00487
;WIDTH:0.449999
G1 X123.485 Y100.598 E.00532
G1 X100.598 Y123.485 E1.04081
G1 E-.8 F2100
G1 Z.8 F9000
G1 X102.926 Y114.207
G1 Z.4
G1 E.8 F2100
;WIDTH:0.38292
G1 F3600
G1 X100.195 Y124.402 E.28347
G1 X100.222 Y124.559 E.00428
;WIDTH:0.41646
G1 X100.305 Y124.415 E.0049
;WIDTH:0.449999
