; generated by PrusaSlicer 2.9.1 on 2026-02-14 at 04:47:18 UTC

; 

; external perimeters extrusion width = 0.45mm
; perimeters extrusion width = 0.45mm
; infill extrusion width = 0.45mm
; solid infill extrusion width = 0.45mm
; top infill extrusion width = 0.40mm
; first layer extrusion width = 0.45mm

;TYPE:Custom
;Elegoo Centauri Carbon - Start G-code
M140 S80 ; set bed temp
M104 S150 ; preheat nozzle to 150 (prevent ooze)
G28 ; home all axes
G29 ; auto bed leveling (if configured in Klipper)
M190 S80 ; wait for bed temp
G1 Z5 F3000 ; move nozzle up
M109 S240 ; wait for nozzle temp
; Prime line
G92 E0
G1 X5 Y5 F3000
G1 Z0.3 F1500
G1 X5 Y150 E15 F1500 ; draw prime line
G1 X5.4 Y150 F5000
G1 X5.4 Y5 E30 F1500 ; draw second prime line
G92 E0
G1 Z2 F3000 ; lift nozzle
;End of start G-code
G21 ; set units to millimeters
G90 ; use absolute coordinates
M83 ; use relative distances for extrusion
; Filament gcode
M107
;LAYER_CHANGE
;Z:0.2
;HEIGHT:0.2
G1 E-.8 F2100
G1 Z.6 F9000
G1 X84.321 Y85.676
G1 Z.2
G1 E.8 F2100
;TYPE:Skirt/Brim
;WIDTH:0.45
G1 F1500
G1 X86.009 Y84.548 E.06528
G1 X88 Y84.152 E.06528
G1 X168 Y84.152 E2.57251
G1 X169.991 Y84.548 E.06528
G1 X171.68 Y85.676 E.06531
G1 X172.808 Y87.365 E.06531
G1 X173.204 Y89.356 E.06528
G1 X173.204 Y169.356 E2.57251
G1 X172.807 Y171.347 E.06528
G1 X171.679 Y173.035 E.06528
G1 X169.991 Y174.163 E.06528
G1 X168 Y174.559 E.06528
G1 X88 Y174.559 E2.57251
G1 X86.009 Y174.163 E.06528
G1 X84.32 Y173.035 E.06531
G1 X83.192 Y171.347 E.06528
G1 X82.796 Y169.356 E.06528
G1 X82.796 Y89.356 E2.57251
G1 X83.193 Y87.364 E.06532
G1 X84.287 Y85.726 E.06334
G1 E-.8 F2100
G1 Z.6 F9000
G1 X166.761 Y90.595
G1 Z.2
G1 E.8 F2100
;TYPE:Perimeter
;WIDTH:0.449999
G1 F1500
G1 X166.761 Y129.356 E1.24641
G1 X166.761 Y168.117 E1.24641
G1 X89.239 Y168.117 E2.49282
G1 X89.239 Y90.595 E2.49282
G1 X166.701 Y90.595 E2.49089
G1 X167.168 Y90.188 F9000
G1 F1500
G1 X167.168 Y129.356 E1.2595
G1 X167.168 Y168.524 E1.2595
G1 X88.832 Y168.524 E2.519
G1 X88.832 Y90.188 E2.519
G1 X167.108 Y90.188 E2.51707
G1 X167.575 Y89.781 F9000
;TYPE:External perimeter
G1 F1500
G1 X167.575 Y129.356 E1.27259
G1 X167.575 Y168.931 E1.27259
G1 X88.425 Y168.931 E2.54517
G1 X88.425 Y89.781 E2.54517
G1 X167.515 Y89.781 E2.54324
G1 X167.574 Y90.176 F9000
G1 X166.639 Y91.542
;TYPE:Solid infill
;WIDTH:0.450921
G1 F1500
G1 X165.997 Y90.9 E.02926
G1 X165.42 Y90.9 E.0186
G1 X166.456 Y91.936 E.04722
G1 X166.456 Y92.513 E.0186
G1 X164.843 Y90.9 E.07352
G1 X164.266 Y90.9 E.0186
G1 X166.456 Y93.09 E.09982
G1 X166.456 Y93.667 E.0186
G1 X163.689 Y90.9 E.12612
G1 X163.112 Y90.9 E.0186
G1 X166.456 Y94.244 E.15242
G1 X166.456 Y94.821 E.0186
G1 X162.535 Y90.9 E.17871
G1 X161.958 Y90.9 E.0186
G1 X166.456 Y95.398 E.20501
G1 X166.456 Y95.975 E.0186
G1 X161.381 Y90.9 E.23131
G1 X160.804 Y90.9 E.0186
G1 X166.456 Y96.552 E.25761
G1 X166.456 Y97.129 E.0186
G1 X160.227 Y90.9 E.28391
G1 X159.65 Y90.9 E.0186
G1 X166.456 Y97.706 E.31021
G1 X166.456 Y98.283 E.0186
G1 X159.073 Y90.9 E.33651
G1 X158.496 Y90.9 E.0186
G1 X166.456 Y98.86 E.36281
G1 X166.456 Y99.437 E.0186
G1 X157.919 Y90.9 E.38911
G1 X157.342 Y90.9 E.0186
G1 X166.456 Y100.014 E.41541
G1 X166.456 Y100.591 E.0186
G1 X156.765 Y90.9 E.44171
G1 X156.188 Y90.9 E.0186
G1 X166.456 Y101.168 E.468
G1 X166.456 Y101.745 E.0186
G1 X155.611 Y90.9 E.4943
G1 X155.034 Y90.9 E.0186
G1 X166.456 Y102.322 E.5206
G1 X166.456 Y102.899 E.0186
G1 X154.457 Y90.9 E.5469
G1 X153.88 Y90.9 E.0186
G1 X166.456 Y103.476 E.5732
G1 X166.456 Y104.053 E.0186
G1 X153.303 Y90.9 E.5995
G1 X152.726 Y90.9 E.0186
G1 X166.456 Y104.63 E.6258
G1 X166.456 Y105.207 E.0186
G1 X152.149 Y90.9 E.6521
G1 X151.572 Y90.9 E.0186
G1 X166.456 Y105.784 E.6784
G1 X166.456 Y106.361 E.0186
G1 X150.995 Y90.9 E.7047
G1 X150.418 Y90.9 E.0186
G1 X166.456 Y106.938 E.73099
G1 X166.456 Y107.515 E.0186
G1 X149.841 Y90.9 E.75729
G1 X149.264 Y90.9 E.0186
G1 X166.456 Y108.092 E.78359
G1 X166.456 Y108.669 E.0186
G1 X148.687 Y90.9 E.80989
G1 X148.11 Y90.9 E.0186
G1 X166.456 Y109.246 E.83619
G1 X166.456 Y109.823 E.0186
G1 X147.533 Y90.9 E.86249
G1 X146.956 Y90.9 E.0186
G1 X166.456 Y110.4 E.88879
G1 X166.456 Y110.977 E.0186
G1 X146.379 Y90.9 E.91509
G1 X145.802 Y90.9 E.0186
G1 X166.456 Y111.554 E.94139
G1 X166.456 Y112.131 E.0186
G1 X145.225 Y90.9 E.96769
G1 X144.648 Y90.9 E.0186
G1 X166.456 Y112.708 E.99398
G1 X166.456 Y113.285 E.0186
G1 X144.071 Y90.9 E1.02028
G1 X143.494 Y90.9 E.0186
G1 X166.456 Y113.862 E1.04658
G1 X166.456 Y114.439 E.0186
G1 X142.917 Y90.9 E1.07288
G1 X142.34 Y90.9 E.0186
G1 X166.456 Y115.016 E1.09918
G1 X166.456 Y115.593 E.0186
G1 X141.763 Y90.9 E1.12548
G1 X141.186 Y90.9 E.0186
G1 X166.456 Y116.17 E1.15178
G1 X166.456 Y116.747 E.0186
G1 X140.609 Y90.9 E1.17808
G1 X140.032 Y90.9 E.0186
G1 X166.456 Y117.324 E1.20438
G1 X166.456 Y117.901 E.0186
G1 X139.455 Y90.9 E1.23068
G1 X138.878 Y90.9 E.0186
G1 X166.456 Y118.478 E1.25697
G1 X166.456 Y119.055 E.0186
G1 X138.301 Y90.9 E1.28327
G1 X137.724 Y90.9 E.0186
G1 X166.456 Y119.632 E1.30957
G1 X166.456 Y120.209 E.0186
G1 X137.147 Y90.9 E1.33587
G1 X136.57 Y90.9 E.0186
G1 X166.456 Y120.786 E1.36217
G1 X166.456 Y121.363 E.0186
G1 X135.993 Y90.9 E1.38847
G1 X135.416 Y90.9 E.0186
G1 X166.456 Y121.94 E1.41477
G1 X166.456 Y122.517 E.0186
G1 X134.839 Y90.9 E1.44107
G1 X134.262 Y90.9 E.0186
G1 X166.456 Y123.094 E1.46737
G1 X166.456 Y123.671 E.0186
G1 X133.685 Y90.9 E1.49367
G1 X133.108 Y90.9 E.0186
G1 X166.456 Y124.248 E1.51997
G1 X166.456 Y124.825 E.0186
G1 X132.531 Y90.9 E1.54626
G1 X131.954 Y90.9 E.0186
G1 X166.456 Y125.402 E1.57256
G1 X166.456 Y125.979 E.0186
G1 X131.377 Y90.9 E1.59886
G1 X130.8 Y90.9 E.0186
G1 X166.456 Y126.556 E1.62516
G1 X166.456 Y127.133 E.0186
G1 X130.223 Y90.9 E1.65146
G1 X129.646 Y90.9 E.0186
G1 X166.456 Y127.71 E1.67776
G1 X166.456 Y128.287 E.0186
G1 X129.069 Y90.9 E1.70406
G1 X128.492 Y90.9 E.0186
G1 X166.456 Y128.864 E1.73036
G1 X166.456 Y129.441 E.0186
G1 X127.915 Y90.9 E1.75666
G1 X127.338 Y90.9 E.0186
G1 X166.456 Y130.018 E1.78296
G1 X166.456 Y130.595 E.0186
G1 X126.761 Y90.9 E1.80925
G1 X126.184 Y90.9 E.0186
G1 X166.456 Y131.172 E1.83555
G1 X166.456 Y131.749 E.0186
G1 X125.607 Y90.9 E1.86185
G1 X125.03 Y90.9 E.0186
G1 X166.456 Y132.326 E1.88815
G1 X166.456 Y132.903 E.0186
G1 X124.453 Y90.9 E1.91445
G1 X123.876 Y90.9 E.0186
G1 X166.456 Y133.48 E1.94075
G1 X166.456 Y134.057 E.0186
G1 X123.299 Y90.9 E1.96705
G1 X122.722 Y90.9 E.0186
G1 X166.456 Y134.634 E1.99335
G1 X166.456 Y135.211 E.0186
G1 X122.145 Y90.9 E2.01965
G1 X121.568 Y90.9 E.0186
G1 X166.456 Y135.788 E2.04595
G1 X166.456 Y136.365 E.0186
G1 X120.991 Y90.9 E2.07224
G1 X120.414 Y90.9 E.0186
G1 X166.456 Y136.942 E2.09854
G1 X166.456 Y137.519 E.0186
G1 X119.837 Y90.9 E2.12484
G1 X119.26 Y90.9 E.0186
G1 X166.456 Y138.096 E2.15114
G1 X166.456 Y138.673 E.0186
G1 X118.683 Y90.9 E2.17744
G1 X118.106 Y90.9 E.0186
G1 X166.456 Y139.25 E2.20374
G1 X166.456 Y139.827 E.0186
G1 X117.529 Y90.9 E2.23004
G1 X116.952 Y90.9 E.0186
G1 X166.456 Y140.404 E2.25634
G1 X166.456 Y140.981 E.0186
G1 X116.375 Y90.9 E2.28264
G1 X115.798 Y90.9 E.0186
G1 X166.456 Y141.558 E2.30894
G1 X166.456 Y142.135 E.0186
G1 X115.221 Y90.9 E2.33523
G1 X114.644 Y90.9 E.0186
G1 X166.456 Y142.712 E2.36153
G1 X166.456 Y143.289 E.0186
G1 X114.067 Y90.9 E2.38783
G1 X113.49 Y90.9 E.0186
G1 X166.456 Y143.866 E2.41413
G1 X166.456 Y144.443 E.0186
G1 X112.913 Y90.9 E2.44043
G1 X112.336 Y90.9 E.0186
G1 X166.456 Y145.02 E2.46673
G1 X166.456 Y145.597 E.0186
G1 X111.759 Y90.9 E2.49303
G1 X111.182 Y90.9 E.0186
G1 X166.456 Y146.174 E2.51933
G1 X166.456 Y146.751 E.0186
G1 X110.605 Y90.9 E2.54563
G1 X110.028 Y90.9 E.0186
G1 X166.456 Y147.328 E2.57193
G1 X166.456 Y147.905 E.0186
G1 X109.451 Y90.9 E2.59823
G1 X108.874 Y90.9 E.0186
G1 X166.456 Y148.482 E2.62452
G1 X166.456 Y149.059 E.0186
G1 X108.297 Y90.9 E2.65082
G1 X107.72 Y90.9 E.0186
G1 X166.456 Y149.636 E2.67712
G1 X166.456 Y150.213 E.0186
G1 X107.143 Y90.9 E2.70342
G1 X106.566 Y90.9 E.0186
G1 X166.456 Y150.79 E2.72972
G1 X166.456 Y151.367 E.0186
G1 X105.989 Y90.9 E2.75602
G1 X105.412 Y90.9 E.0186
G1 X166.456 Y151.944 E2.78232
G1 X166.456 Y152.521 E.0186
G1 X104.835 Y90.9 E2.80862
G1 X104.258 Y90.9 E.0186
G1 X166.456 Y153.098 E2.83492
G1 X166.456 Y153.675 E.0186
G1 X103.681 Y90.9 E2.86122
G1 X103.104 Y90.9 E.0186
G1 X166.456 Y154.252 E2.88751
G1 X166.456 Y154.829 E.0186
G1 X102.527 Y90.9 E2.91381
G1 X101.95 Y90.9 E.0186
G1 X166.456 Y155.406 E2.94011
G1 X166.456 Y155.983 E.0186
G1 X101.373 Y90.9 E2.96641
G1 X100.796 Y90.9 E.0186
G1 X166.456 Y156.56 E2.99271
G1 X166.456 Y157.137 E.0186
G1 X100.219 Y90.9 E3.01901
G1 X99.642 Y90.9 E.0186
G1 X166.456 Y157.714 E3.04531
G1 X166.456 Y158.291 E.0186
G1 X99.065 Y90.9 E3.07161
G1 X98.488 Y90.9 E.0186
G1 X166.456 Y158.868 E3.09791
G1 X166.456 Y159.445 E.0186
G1 X97.911 Y90.9 E3.12421
G1 X97.334 Y90.9 E.0186
G1 X166.456 Y160.022 E3.1505
G1 X166.456 Y160.599 E.0186
G1 X96.757 Y90.9 E3.1768
G1 X96.18 Y90.9 E.0186
G1 X166.456 Y161.176 E3.2031
G1 X166.456 Y161.753 E.0186
G1 X95.603 Y90.9 E3.2294
G1 X95.026 Y90.9 E.0186
G1 X166.456 Y162.33 E3.2557
G1 X166.456 Y162.907 E.0186
G1 X94.449 Y90.9 E3.282
G1 X93.872 Y90.9 E.0186
G1 X166.456 Y163.484 E3.3083
G1 X166.456 Y164.061 E.0186
G1 X93.295 Y90.9 E3.3346
G1 X92.718 Y90.9 E.0186
G1 X166.456 Y164.638 E3.3609
G1 X166.456 Y165.215 E.0186
G1 X92.141 Y90.9 E3.3872
G1 X91.564 Y90.9 E.0186
G1 X166.456 Y165.792 E3.41349
G1 X166.456 Y166.369 E.0186
G1 X90.987 Y90.9 E3.43979
G1 X90.41 Y90.9 E.0186
G1 X166.456 Y166.946 E3.46609
G1 X166.456 Y167.523 E.0186
G1 X89.833 Y90.9 E3.49239
G1 X89.544 Y90.9 E.00931
G1 X89.544 Y91.189 E.00931
G1 X166.167 Y167.811 E3.49237
G1 X165.59 Y167.811 E.0186
G1 X89.544 Y91.766 E3.46607
G1 X89.544 Y92.343 E.0186
G1 X165.013 Y167.811 E3.43977
G1 X164.436 Y167.811 E.0186
G1 X89.544 Y92.92 E3.41347
G1 X89.544 Y93.497 E.0186
G1 X163.859 Y167.811 E3.38717
G1 X163.282 Y167.811 E.0186
G1 X89.544 Y94.074 E3.36087
G1 X89.544 Y94.651 E.0186
G1 X162.705 Y167.811 E3.33458
G1 X162.128 Y167.811 E.0186
G1 X89.544 Y95.228 E3.30828
G1 X89.544 Y95.805 E.0186
G1 X161.551 Y167.811 E3.28198
G1 X160.974 Y167.811 E.0186
G1 X89.544 Y96.382 E3.25568
G1 X89.544 Y96.959 E.0186
G1 X160.397 Y167.811 E3.22938
G1 X159.82 Y167.811 E.0186
G1 X89.544 Y97.536 E3.20308
G1 X89.544 Y98.113 E.0186
G1 X159.243 Y167.811 E3.17678
G1 X158.666 Y167.811 E.0186
G1 X89.544 Y98.69 E3.15048
G1 X89.544 Y99.267 E.0186
G1 X158.089 Y167.811 E3.12418
G1 X157.512 Y167.811 E.0186
G1 X89.544 Y99.844 E3.09788
G1 X89.544 Y100.421 E.0186
G1 X156.935 Y167.811 E3.07158
G1 X156.358 Y167.811 E.0186
G1 X89.544 Y100.998 E3.04529
G1 X89.544 Y101.575 E.0186
G1 X155.781 Y167.811 E3.01899
G1 X155.204 Y167.811 E.0186
G1 X89.544 Y102.152 E2.99269
G1 X89.544 Y102.729 E.0186
G1 X154.627 Y167.811 E2.96639
G1 X154.05 Y167.811 E.0186
G1 X89.544 Y103.306 E2.94009
G1 X89.544 Y103.883 E.0186
G1 X153.473 Y167.811 E2.91379
G1 X152.896 Y167.811 E.0186
G1 X89.544 Y104.46 E2.88749
G1 X89.544 Y105.037 E.0186
G1 X152.319 Y167.811 E2.86119
G1 X151.742 Y167.811 E.0186
G1 X89.544 Y105.614 E2.83489
G1 X89.544 Y106.191 E.0186
G1 X151.165 Y167.811 E2.80859
G1 X150.588 Y167.811 E.0186
G1 X89.544 Y106.768 E2.7823
G1 X89.544 Y107.345 E.0186
G1 X150.011 Y167.811 E2.756
G1 X149.434 Y167.811 E.0186
G1 X89.544 Y107.922 E2.7297
G1 X89.544 Y108.499 E.0186
G1 X148.857 Y167.811 E2.7034
G1 X148.28 Y167.811 E.0186
G1 X89.544 Y109.076 E2.6771
G1 X89.544 Y109.653 E.0186
G1 X147.703 Y167.811 E2.6508
G1 X147.126 Y167.811 E.0186
G1 X89.544 Y110.23 E2.6245
G1 X89.544 Y110.807 E.0186
G1 X146.549 Y167.811 E2.5982
G1 X145.972 Y167.811 E.0186
G1 X89.544 Y111.384 E2.5719
G1 X89.544 Y111.961 E.0186
G1 X145.395 Y167.811 E2.5456
G1 X144.818 Y167.811 E.0186
G1 X89.544 Y112.538 E2.51931
G1 X89.544 Y113.115 E.0186
G1 X144.241 Y167.811 E2.49301
G1 X143.664 Y167.811 E.0186
G1 X89.544 Y113.692 E2.46671
G1 X89.544 Y114.269 E.0186
G1 X143.087 Y167.811 E2.44041
G1 X142.51 Y167.811 E.0186
G1 X89.544 Y114.846 E2.41411
G1 X89.544 Y115.423 E.0186
G1 X141.933 Y167.811 E2.38781
G1 X141.356 Y167.811 E.0186
G1 X89.544 Y116 E2.36151
G1 X89.544 Y116.577 E.0186
G1 X140.779 Y167.811 E2.33521
G1 X140.202 Y167.811 E.0186
G1 X89.544 Y117.154 E2.30891
G1 X89.544 Y117.731 E.0186
G1 X139.625 Y167.811 E2.28261
G1 X139.048 Y167.811 E.0186
G1 X89.544 Y118.308 E2.25632
G1 X89.544 Y118.885 E.0186
G1 X138.471 Y167.811 E2.23002
G1 X137.894 Y167.811 E.0186
G1 X89.544 Y119.462 E2.20372
G1 X89.544 Y120.039 E.0186
G1 X137.317 Y167.811 E2.17742
G1 X136.74 Y167.811 E.0186
G1 X89.544 Y120.616 E2.15112
G1 X89.544 Y121.193 E.0186
G1 X136.163 Y167.811 E2.12482
G1 X135.586 Y167.811 E.0186
G1 X89.544 Y121.77 E2.09852
G1 X89.544 Y122.347 E.0186
G1 X135.009 Y167.811 E2.07222
G1 X134.432 Y167.811 E.0186
G1 X89.544 Y122.924 E2.04592
G1 X89.544 Y123.501 E.0186
G1 X133.855 Y167.811 E2.01962
G1 X133.278 Y167.811 E.0186
G1 X89.544 Y124.078 E1.99332
G1 X89.544 Y124.655 E.0186
G1 X132.701 Y167.811 E1.96703
G1 X132.124 Y167.811 E.0186
G1 X89.544 Y125.232 E1.94073
G1 X89.544 Y125.809 E.0186
G1 X131.547 Y167.811 E1.91443
G1 X130.97 Y167.811 E.0186
G1 X89.544 Y126.386 E1.88813
G1 X89.544 Y126.963 E.0186
G1 X130.393 Y167.811 E1.86183
G1 X129.816 Y167.811 E.0186
G1 X89.544 Y127.54 E1.83553
G1 X89.544 Y128.117 E.0186
G1 X129.239 Y167.811 E1.80923
G1 X128.662 Y167.811 E.0186
G1 X89.544 Y128.694 E1.78293
G1 X89.544 Y129.271 E.0186
G1 X128.085 Y167.811 E1.75663
G1 X127.508 Y167.811 E.0186
G1 X89.544 Y129.848 E1.73033
G1 X89.544 Y130.425 E.0186
G1 X126.931 Y167.811 E1.70404
G1 X126.354 Y167.811 E.0186
G1 X89.544 Y131.002 E1.67774
G1 X89.544 Y131.579 E.0186
G1 X125.777 Y167.811 E1.65144
G1 X125.2 Y167.811 E.0186
G1 X89.544 Y132.156 E1.62514
G1 X89.544 Y132.733 E.0186
G1 X124.623 Y167.811 E1.59884
G1 X124.046 Y167.811 E.0186
G1 X89.544 Y133.31 E1.57254
G1 X89.544 Y133.887 E.0186
G1 X123.469 Y167.811 E1.54624
G1 X122.892 Y167.811 E.0186
G1 X89.544 Y134.464 E1.51994
G1 X89.544 Y135.041 E.0186
G1 X122.315 Y167.811 E1.49364
G1 X121.738 Y167.811 E.0186
G1 X89.544 Y135.618 E1.46734
G1 X89.544 Y136.195 E.0186
G1 X121.161 Y167.811 E1.44105
G1 X120.584 Y167.811 E.0186
G1 X89.544 Y136.772 E1.41475
G1 X89.544 Y137.349 E.0186
G1 X120.007 Y167.811 E1.38845
G1 X119.43 Y167.811 E.0186
G1 X89.544 Y137.926 E1.36215
G1 X89.544 Y138.503 E.0186
G1 X118.853 Y167.811 E1.33585
G1 X118.276 Y167.811 E.0186
G1 X89.544 Y139.08 E1.30955
G1 X89.544 Y139.657 E.0186
G1 X117.699 Y167.811 E1.28325
G1 X117.122 Y167.811 E.0186
G1 X89.544 Y140.234 E1.25695
G1 X89.544 Y140.811 E.0186
G1 X116.545 Y167.811 E1.23065
G1 X115.968 Y167.811 E.0186
G1 X89.544 Y141.388 E1.20435
G1 X89.544 Y141.965 E.0186
G1 X115.391 Y167.811 E1.17806
G1 X114.814 Y167.811 E.0186
G1 X89.544 Y142.542 E1.15176
G1 X89.544 Y143.119 E.0186
G1 X114.237 Y167.811 E1.12546
G1 X113.66 Y167.811 E.0186
G1 X89.544 Y143.696 E1.09916
G1 X89.544 Y144.273 E.0186
G1 X113.083 Y167.811 E1.07286
G1 X112.506 Y167.811 E.0186
G1 X89.544 Y144.85 E1.04656
G1 X89.544 Y145.427 E.0186
G1 X111.929 Y167.811 E1.02026
G1 X111.352 Y167.811 E.0186
G1 X89.544 Y146.004 E.99396
G1 X89.544 Y146.581 E.0186
G1 X110.775 Y167.811 E.96766
G1 X110.198 Y167.811 E.0186
G1 X89.544 Y147.158 E.94136
G1 X89.544 Y147.735 E.0186
G1 X109.621 Y167.811 E.91506
G1 X109.044 Y167.811 E.0186
G1 X89.544 Y148.312 E.88877
G1 X89.544 Y148.889 E.0186
G1 X108.467 Y167.811 E.86247
G1 X107.89 Y167.811 E.0186
G1 X89.544 Y149.466 E.83617
G1 X89.544 Y150.043 E.0186
G1 X107.313 Y167.811 E.80987
G1 X106.736 Y167.811 E.0186
G1 X89.544 Y150.62 E.78357
G1 X89.544 Y151.197 E.0186
G1 X106.159 Y167.811 E.75727
G1 X105.582 Y167.811 E.0186
G1 X89.544 Y151.774 E.73097
G1 X89.544 Y152.351 E.0186
G1 X105.005 Y167.811 E.70467
G1 X104.428 Y167.811 E.0186
G1 X89.544 Y152.928 E.67837
G1 X89.544 Y153.505 E.0186
G1 X103.851 Y167.811 E.65207
G1 X103.274 Y167.811 E.0186
G1 X89.544 Y154.082 E.62578
G1 X89.544 Y154.659 E.0186
G1 X102.697 Y167.811 E.59948
G1 X102.12 Y167.811 E.0186
G1 X89.544 Y155.236 E.57318
G1 X89.544 Y155.813 E.0186
G1 X101.543 Y167.811 E.54688
G1 X100.966 Y167.811 E.0186
G1 X89.544 Y156.39 E.52058
G1 X89.544 Y156.967 E.0186
